(2)
(Deur vast)
(T1  D=3.1 CR=0 - ZMIN=-2.699 - flat end mill)
G90 G94
G17
G21

(Adaptive4)
S10000 M3
G54
G0 Z10
G0 X-0.304 Y-3.59
G1 Z-0.69 F500
X-0.302 Y-3.583 Z-0.759
X-0.297 Y-3.56 Z-0.825
X-0.287 Y-3.525 Z-0.883
X-0.275 Y-3.477 Z-0.932
X-0.261 Y-3.42 Z-0.969
X-0.244 Y-3.357 Z-0.992
X-0.227 Y-3.29 Z-1
G3 X0.015 Y-1.602 I-7.667 J1.964
G1 Y-1.452
X-0.131 Y-0.736
X-0.209 Y-0.009
X-0.25 Y0.721
X-0.271 Y1.452
X-0.282 Y2.183
X-0.288 Y2.914
X-0.291 Y3.645
X-0.294 Y5.107
Y12.418
Y48.972
Y99.416
Y149.86
Y166.492
X-0.281 Y166.675
X-0.223 Y166.848
X-0.033 Y167.16
X0.232 Y167.412
X0.843 Y167.813
X1.539 Y168.037
X2.26 Y168.159
X2.988 Y168.224
X3.718 Y168.258
X4.449 Y168.275
X5.18 Y168.285
X5.911 Y168.289
X6.642 Y168.292
X8.105 Y168.294
X20.533
X32.961
X76.643
X76.82 Y168.249
X77.14 Y168.071
X77.396 Y167.811
X77.803 Y167.204
X78.032 Y166.509
X78.156 Y165.789
X78.222 Y165.061
X78.257 Y164.331
X78.275 Y163.6
X78.284 Y162.869
X78.289 Y162.138
X78.292 Y161.407
X78.294 Y159.944
X78.295 Y148.247
Y111.693
Y61.249
Y10.805
Y1.483
X78.272 Y1.302
X78.136 Y0.963
X77.898 Y0.686
X77.315 Y0.244
X76.628 Y-0.006
X75.91 Y-0.142
X75.182 Y-0.215
X74.452 Y-0.253
X73.721 Y-0.273
X72.99 Y-0.283
X72.259 Y-0.289
X71.528 Y-0.291
X70.066 Y-0.294
X61.293
X37.899
X2.807
X2.626 Y-0.274
X2.283 Y-0.146
X1.998 Y0.083
X1.536 Y0.65
X1.268 Y1.33
X1.119 Y2.046
X1.038 Y2.772
X0.995 Y3.502
X0.972 Y4.233
X0.959 Y4.964
X0.953 Y5.695
X0.949 Y6.426
X0.947 Y7.888
X0.946 Y13.005
Y14.468
Y64.912
Y115.356
Y165.069
X1.045 Y165.421
X1.234 Y165.734
X1.736 Y166.265
X2.387 Y166.599
X3.09 Y166.797
X3.813 Y166.911
X4.541 Y166.975
X5.271 Y167.011
X6.002 Y167.031
X6.733 Y167.042
X7.464 Y167.047
X8.195 Y167.051
X9.657 Y167.053
X14.775 Y167.054
X50.598 Y167.055
X75.089
X75.439 Y166.952
X75.75 Y166.759
X76.276 Y166.252
X76.606 Y165.599
X76.801 Y164.895
X76.914 Y164.172
X76.977 Y163.444
X77.012 Y162.714
X77.031 Y161.983
X77.042 Y161.252
X77.048 Y160.521
X77.051 Y159.79
X77.053 Y158.328
X77.054 Y153.21
Y142.244
Y91.8
Y41.355
Y2.974
X76.972 Y2.618
X76.793 Y2.299
X76.303 Y1.756
X75.658 Y1.413
X74.955 Y1.21
X74.234 Y1.093
X73.506 Y1.027
X72.776 Y0.99
X72.045 Y0.97
X71.314 Y0.959
X70.583 Y0.953
X69.852 Y0.949
X68.39 Y0.947
X66.196 Y0.946
X15.752
X4.42
X4.056 Y0.977
X3.715 Y1.109
X3.418 Y1.322
X2.921 Y1.858
X2.683 Y2.363
X2.643 Y2.437
X2.595 Y2.506
X2.539 Y2.569
X2.467 Y2.64
X2.4 Y2.723
X2.335 Y2.806
X2.307 Y2.848
X2.229 Y2.972
X2.141 Y3.143
X2.077 Y3.304
X2.022 Y3.47
X1.985 Y3.636
X1.965 Y3.802
X1.952 Y3.968
X1.95 Y4.466
Y163.534
X1.952 Y164.032
X1.965 Y164.198
X1.985 Y164.364
X2.022 Y164.53
X2.077 Y164.696
X2.141 Y164.857
X2.229 Y165.028
X2.307 Y165.152
X2.335 Y165.194
X2.4 Y165.277
X2.467 Y165.36
X2.639 Y165.531
X2.722 Y165.6
X2.805 Y165.665
X2.846 Y165.692
X2.971 Y165.771
X3.142 Y165.858
X3.303 Y165.923
X3.469 Y165.978
X3.635 Y166.016
X3.697 Y166.024
X3.801 Y166.036
X3.967 Y166.048
X4.465 Y166.05
X73.535
X74.033 Y166.048
X74.199 Y166.036
X74.303 Y166.024
X74.365 Y166.016
X74.531 Y165.978
X74.697 Y165.923
X74.863 Y165.856
X75.029 Y165.771
X75.154 Y165.692
X75.195 Y165.665
X75.278 Y165.6
X75.361 Y165.531
X75.533 Y165.36
X75.6 Y165.277
X75.665 Y165.194
X75.693 Y165.152
X75.771 Y165.028
X75.859 Y164.857
X75.923 Y164.696
X75.978 Y164.53
X76.015 Y164.364
X76.035 Y164.198
X76.048 Y164.032
X76.05 Y163.534
Y4.466
X76.048 Y3.968
X76.035 Y3.802
X76.015 Y3.636
X75.978 Y3.47
X75.923 Y3.304
X75.859 Y3.143
X75.771 Y2.972
X75.693 Y2.848
X75.665 Y2.806
X75.6 Y2.723
X75.533 Y2.64
X75.361 Y2.468
X75.278 Y2.4
X75.195 Y2.335
X75.154 Y2.308
X75.029 Y2.229
X74.858 Y2.142
X74.697 Y2.077
X74.531 Y2.022
X74.365 Y1.984
X74.303 Y1.976
X74.199 Y1.964
X74.033 Y1.952
X73.535 Y1.95
X4.465
X3.967 Y1.952
X3.801 Y1.964
X3.697 Y1.976
X3.635 Y1.984
X3.469 Y2.022
X3.303 Y2.077
X3.137 Y2.144
X2.971 Y2.229
X2.846 Y2.308
X2.805 Y2.335
X2.722 Y2.4
X2.639 Y2.468
X2.539 Y2.569
G3 X2.108 Y2.56 I-0.211 J-0.227
G1 X2.081 Y2.514 Z-0.995
X2.055 Y2.469 Z-0.981
X2.03 Y2.427 Z-0.958
X2.023 Y2.381 Z-0.924
X2.018 Y2.341 Z-0.882
X2.022 Y2.305 Z-0.824
X2.024 Y2.283 Z-0.759
X2.025 Y2.275 Z-0.69
G0 Z5
X-0.304 Y-3.59
Z-1.38
G1 Z-1.69 F500
X-0.302 Y-3.583 Z-1.759
X-0.297 Y-3.56 Z-1.825
X-0.287 Y-3.525 Z-1.883
X-0.275 Y-3.477 Z-1.932
X-0.261 Y-3.42 Z-1.969
X-0.244 Y-3.357 Z-1.992
X-0.227 Y-3.29 Z-2
G3 X0.015 Y-1.602 I-7.667 J1.964
G1 Y-1.452
X-0.131 Y-0.736
X-0.209 Y-0.009
X-0.25 Y0.721
X-0.271 Y1.452
X-0.282 Y2.183
X-0.288 Y2.914
X-0.291 Y3.645
X-0.294 Y5.107
Y12.418
Y48.972
Y99.416
Y149.86
Y166.492
X-0.281 Y166.675
X-0.223 Y166.848
X-0.033 Y167.16
X0.232 Y167.412
X0.843 Y167.813
X1.539 Y168.037
X2.26 Y168.159
X2.988 Y168.224
X3.718 Y168.258
X4.449 Y168.275
X5.18 Y168.285
X5.911 Y168.289
X6.642 Y168.292
X8.105 Y168.294
X20.533
X32.961
X76.643
X76.82 Y168.249
X77.14 Y168.071
X77.396 Y167.811
X77.803 Y167.204
X78.032 Y166.509
X78.156 Y165.789
X78.222 Y165.061
X78.257 Y164.331
X78.275 Y163.6
X78.284 Y162.869
X78.289 Y162.138
X78.292 Y161.407
X78.294 Y159.944
X78.295 Y148.247
Y111.693
Y61.249
Y10.805
Y1.483
X78.272 Y1.302
X78.136 Y0.963
X77.898 Y0.686
X77.315 Y0.244
X76.628 Y-0.006
X75.91 Y-0.142
X75.182 Y-0.215
X74.452 Y-0.253
X73.721 Y-0.273
X72.99 Y-0.283
X72.259 Y-0.289
X71.528 Y-0.291
X70.066 Y-0.294
X61.293
X37.899
X2.807
X2.626 Y-0.274
X2.283 Y-0.146
X1.998 Y0.083
X1.536 Y0.65
X1.268 Y1.33
X1.119 Y2.046
X1.038 Y2.772
X0.995 Y3.502
X0.972 Y4.233
X0.959 Y4.964
X0.953 Y5.695
X0.949 Y6.426
X0.947 Y7.888
X0.946 Y13.005
Y14.468
Y64.912
Y115.356
Y165.069
X1.045 Y165.421
X1.234 Y165.734
X1.736 Y166.265
X2.387 Y166.599
X3.09 Y166.797
X3.813 Y166.911
X4.541 Y166.975
X5.271 Y167.011
X6.002 Y167.031
X6.733 Y167.042
X7.464 Y167.047
X8.195 Y167.051
X9.657 Y167.053
X14.775 Y167.054
X50.598 Y167.055
X75.089
X75.439 Y166.952
X75.75 Y166.759
X76.276 Y166.252
X76.606 Y165.599
X76.801 Y164.895
X76.914 Y164.172
X76.977 Y163.444
X77.012 Y162.714
X77.031 Y161.983
X77.042 Y161.252
X77.048 Y160.521
X77.051 Y159.79
X77.053 Y158.328
X77.054 Y153.21
Y142.244
Y91.8
Y41.355
Y2.974
X76.972 Y2.618
X76.793 Y2.299
X76.303 Y1.756
X75.658 Y1.413
X74.955 Y1.21
X74.234 Y1.093
X73.506 Y1.027
X72.776 Y0.99
X72.045 Y0.97
X71.314 Y0.959
X70.583 Y0.953
X69.852 Y0.949
X68.39 Y0.947
X66.196 Y0.946
X15.752
X4.42
X4.056 Y0.977
X3.715 Y1.109
X3.418 Y1.322
X2.921 Y1.858
X2.683 Y2.363
X2.643 Y2.437
X2.595 Y2.506
X2.539 Y2.569
X2.467 Y2.64
X2.4 Y2.723
X2.335 Y2.806
X2.307 Y2.848
X2.229 Y2.972
X2.141 Y3.143
X2.077 Y3.304
X2.022 Y3.47
X1.985 Y3.636
X1.965 Y3.802
X1.952 Y3.968
X1.95 Y4.466
Y163.534
X1.952 Y164.032
X1.965 Y164.198
X1.985 Y164.364
X2.022 Y164.53
X2.077 Y164.696
X2.141 Y164.857
X2.229 Y165.028
X2.307 Y165.152
X2.335 Y165.194
X2.4 Y165.277
X2.467 Y165.36
X2.639 Y165.531
X2.722 Y165.6
X2.805 Y165.665
X2.846 Y165.692
X2.971 Y165.771
X3.142 Y165.858
X3.303 Y165.923
X3.469 Y165.978
X3.635 Y166.016
X3.697 Y166.024
X3.801 Y166.036
X3.967 Y166.048
X4.465 Y166.05
X73.535
X74.033 Y166.048
X74.199 Y166.036
X74.303 Y166.024
X74.365 Y166.016
X74.531 Y165.978
X74.697 Y165.923
X74.863 Y165.856
X75.029 Y165.771
X75.154 Y165.692
X75.195 Y165.665
X75.278 Y165.6
X75.361 Y165.531
X75.533 Y165.36
X75.6 Y165.277
X75.665 Y165.194
X75.693 Y165.152
X75.771 Y165.028
X75.859 Y164.857
X75.923 Y164.696
X75.978 Y164.53
X76.015 Y164.364
X76.035 Y164.198
X76.048 Y164.032
X76.05 Y163.534
Y4.466
X76.048 Y3.968
X76.035 Y3.802
X76.015 Y3.636
X75.978 Y3.47
X75.923 Y3.304
X75.859 Y3.143
X75.771 Y2.972
X75.693 Y2.848
X75.665 Y2.806
X75.6 Y2.723
X75.533 Y2.64
X75.361 Y2.468
X75.278 Y2.4
X75.195 Y2.335
X75.154 Y2.308
X75.029 Y2.229
X74.858 Y2.142
X74.697 Y2.077
X74.531 Y2.022
X74.365 Y1.984
X74.303 Y1.976
X74.199 Y1.964
X74.033 Y1.952
X73.535 Y1.95
X4.465
X3.967 Y1.952
X3.801 Y1.964
X3.697 Y1.976
X3.635 Y1.984
X3.469 Y2.022
X3.303 Y2.077
X3.137 Y2.144
X2.971 Y2.229
X2.846 Y2.308
X2.805 Y2.335
X2.722 Y2.4
X2.639 Y2.468
X2.539 Y2.569
G3 X2.108 Y2.56 I-0.211 J-0.227
G1 X2.081 Y2.514 Z-1.995
X2.055 Y2.469 Z-1.981
X2.03 Y2.427 Z-1.958
X2.023 Y2.381 Z-1.924
X2.018 Y2.341 Z-1.882
X2.022 Y2.305 Z-1.824
X2.024 Y2.283 Z-1.759
X2.025 Y2.275 Z-1.69
G0 Z5
X-0.304 Y-3.59
Z-2.079
G1 Z-2.389 F500
X-0.302 Y-3.583 Z-2.458
X-0.297 Y-3.56 Z-2.524
X-0.287 Y-3.525 Z-2.582
X-0.275 Y-3.477 Z-2.631
X-0.261 Y-3.42 Z-2.668
X-0.244 Y-3.357 Z-2.691
X-0.227 Y-3.29 Z-2.699
G3 X0.015 Y-1.602 I-7.667 J1.964
G1 Y-1.452
X-0.131 Y-0.736
X-0.209 Y-0.009
X-0.25 Y0.721
X-0.271 Y1.452
X-0.282 Y2.183
X-0.288 Y2.914
X-0.291 Y3.645
X-0.294 Y5.107
Y12.418
Y48.972
Y99.416
Y149.86
Y166.492
X-0.281 Y166.675
X-0.223 Y166.848
X-0.033 Y167.16
X0.232 Y167.412
X0.843 Y167.813
X1.539 Y168.037
X2.26 Y168.159
X2.988 Y168.224
X3.718 Y168.258
X4.449 Y168.275
X5.18 Y168.285
X5.911 Y168.289
X6.642 Y168.292
X8.105 Y168.294
X20.533
X32.961
X76.643
X76.82 Y168.249
X77.14 Y168.071
X77.396 Y167.811
X77.803 Y167.204
X78.032 Y166.509
X78.156 Y165.789
X78.222 Y165.061
X78.257 Y164.331
X78.275 Y163.6
X78.284 Y162.869
X78.289 Y162.138
X78.292 Y161.407
X78.294 Y159.944
X78.295 Y148.247
Y111.693
Y61.249
Y10.805
Y1.483
X78.272 Y1.302
X78.136 Y0.963
X77.898 Y0.686
X77.315 Y0.244
X76.628 Y-0.006
X75.91 Y-0.142
X75.182 Y-0.215
X74.452 Y-0.253
X73.721 Y-0.273
X72.99 Y-0.283
X72.259 Y-0.289
X71.528 Y-0.291
X70.066 Y-0.294
X61.293
X37.899
X2.807
X2.626 Y-0.274
X2.283 Y-0.146
X1.998 Y0.083
X1.536 Y0.65
X1.268 Y1.33
X1.119 Y2.046
X1.038 Y2.772
X0.995 Y3.502
X0.972 Y4.233
X0.959 Y4.964
X0.953 Y5.695
X0.949 Y6.426
X0.947 Y7.888
X0.946 Y13.005
Y14.468
Y64.912
Y115.356
Y165.069
X1.045 Y165.421
X1.234 Y165.734
X1.736 Y166.265
X2.387 Y166.599
X3.09 Y166.797
X3.813 Y166.911
X4.541 Y166.975
X5.271 Y167.011
X6.002 Y167.031
X6.733 Y167.042
X7.464 Y167.047
X8.195 Y167.051
X9.657 Y167.053
X14.775 Y167.054
X50.598 Y167.055
X75.089
X75.439 Y166.952
X75.75 Y166.759
X76.276 Y166.252
X76.606 Y165.599
X76.801 Y164.895
X76.914 Y164.172
X76.977 Y163.444
X77.012 Y162.714
X77.031 Y161.983
X77.042 Y161.252
X77.048 Y160.521
X77.051 Y159.79
X77.053 Y158.328
X77.054 Y153.21
Y142.244
Y91.8
Y41.355
Y2.974
X76.972 Y2.618
X76.793 Y2.299
X76.303 Y1.756
X75.658 Y1.413
X74.955 Y1.21
X74.234 Y1.093
X73.506 Y1.027
X72.776 Y0.99
X72.045 Y0.97
X71.314 Y0.959
X70.583 Y0.953
X69.852 Y0.949
X68.39 Y0.947
X66.196 Y0.946
X15.752
X4.42
X4.056 Y0.977
X3.715 Y1.109
X3.418 Y1.322
X2.921 Y1.858
X2.683 Y2.363
X2.643 Y2.437
X2.595 Y2.506
X2.539 Y2.569
X2.467 Y2.64
X2.4 Y2.723
X2.335 Y2.806
X2.307 Y2.848
X2.229 Y2.972
X2.141 Y3.143
X2.077 Y3.304
X2.022 Y3.47
X1.985 Y3.636
X1.965 Y3.802
X1.952 Y3.968
X1.95 Y4.466
Y163.534
X1.952 Y164.032
X1.965 Y164.198
X1.985 Y164.364
X2.022 Y164.53
X2.077 Y164.696
X2.141 Y164.857
X2.229 Y165.028
X2.307 Y165.152
X2.335 Y165.194
X2.4 Y165.277
X2.467 Y165.36
X2.639 Y165.531
X2.722 Y165.6
X2.805 Y165.665
X2.846 Y165.692
X2.971 Y165.771
X3.142 Y165.858
X3.303 Y165.923
X3.469 Y165.978
X3.635 Y166.016
X3.697 Y166.024
X3.801 Y166.036
X3.967 Y166.048
X4.465 Y166.05
X73.535
X74.033 Y166.048
X74.199 Y166.036
X74.303 Y166.024
X74.365 Y166.016
X74.531 Y165.978
X74.697 Y165.923
X74.863 Y165.856
X75.029 Y165.771
X75.154 Y165.692
X75.195 Y165.665
X75.278 Y165.6
X75.361 Y165.531
X75.533 Y165.36
X75.6 Y165.277
X75.665 Y165.194
X75.693 Y165.152
X75.771 Y165.028
X75.859 Y164.857
X75.923 Y164.696
X75.978 Y164.53
X76.015 Y164.364
X76.035 Y164.198
X76.048 Y164.032
X76.05 Y163.534
Y4.466
X76.048 Y3.968
X76.035 Y3.802
X76.015 Y3.636
X75.978 Y3.47
X75.923 Y3.304
X75.859 Y3.143
X75.771 Y2.972
X75.693 Y2.848
X75.665 Y2.806
X75.6 Y2.723
X75.533 Y2.64
X75.361 Y2.468
X75.278 Y2.4
X75.195 Y2.335
X75.154 Y2.308
X75.029 Y2.229
X74.858 Y2.142
X74.697 Y2.077
X74.531 Y2.022
X74.365 Y1.984
X74.303 Y1.976
X74.199 Y1.964
X74.033 Y1.952
X73.535 Y1.95
X4.465
X3.967 Y1.952
X3.801 Y1.964
X3.697 Y1.976
X3.635 Y1.984
X3.469 Y2.022
X3.303 Y2.077
X3.137 Y2.144
X2.971 Y2.229
X2.846 Y2.308
X2.805 Y2.335
X2.722 Y2.4
X2.639 Y2.468
X2.539 Y2.569
G3 X2.025 Y2.275 I-0.211 J-0.227
G1 X2.04 Y2.208 Z-2.691
X2.054 Y2.144 Z-2.668
X2.066 Y2.086 Z-2.631
X2.077 Y2.038 Z-2.582
X2.084 Y2.002 Z-2.524
X2.089 Y1.98 Z-2.458
X2.091 Y1.972 Z-2.389
G0 Z15
M5
M30
