(3)
(Zijkant rechts)
(T1  D=3.1 CR=0 - ZMIN=-2.699 - flat end mill)
G90 G94
G17
G21

(Adaptive5)
S10000 M3
G54
G0 Z10
G0 X-0.306 Y-3.589
G1 Z-0.69 F500
X-0.304 Y-3.582 Z-0.759
X-0.298 Y-3.559 Z-0.825
X-0.289 Y-3.524 Z-0.883
X-0.277 Y-3.476 Z-0.932
X-0.262 Y-3.419 Z-0.969
X-0.246 Y-3.356 Z-0.992
X-0.229 Y-3.289 Z-1
G3 X0.014 Y-1.601 I-7.667 J1.964
G1 Y-1.451
X-0.132 Y-0.735
X-0.21 Y-0.008
X-0.251 Y0.722
X-0.273 Y1.453
X-0.284 Y2.184
X-0.29 Y2.915
X-0.293 Y3.646
X-0.295 Y5.108
X-0.296 Y12.419
Y48.973
X-0.295 Y99.417
Y149.861
Y166.493
X-0.281 Y166.675
X-0.221 Y166.848
X-0.031 Y167.16
X0.234 Y167.413
X0.846 Y167.812
X1.541 Y168.037
X2.262 Y168.158
X2.99 Y168.223
X3.721 Y168.257
X4.452 Y168.274
X5.183 Y168.283
X5.914 Y168.288
X6.645 Y168.291
X8.107 Y168.293
X20.535
X32.964 Y168.292
X83.408 Y168.29
X83.584 Y168.241
X83.909 Y168.073
X84.172 Y167.82
X84.592 Y167.221
X84.828 Y166.529
X84.956 Y165.809
X85.024 Y165.081
X85.06 Y164.351
X85.079 Y163.62
X85.089 Y162.889
X85.094 Y162.158
X85.096 Y161.427
X85.098 Y159.965
X85.099 Y149.73
X85.098 Y118.294
X85.097 Y67.849
X85.095 Y17.405
Y1.504
X85.079 Y1.322
X85.019 Y1.149
X84.828 Y0.838
X84.563 Y0.586
X83.951 Y0.187
X83.255 Y-0.037
X82.534 Y-0.159
X81.806 Y-0.223
X81.075 Y-0.257
X80.344 Y-0.275
X79.613 Y-0.284
X78.882 Y-0.288
X78.151 Y-0.291
X76.689 Y-0.293
X64.261 Y-0.294
X51.101
X2.85
X2.668 Y-0.288
X2.492 Y-0.237
X2.17 Y-0.065
X1.905 Y0.188
X1.481 Y0.782
X1.236 Y1.472
X1.101 Y2.19
X1.028 Y2.917
X0.988 Y3.647
X0.967 Y4.378
X0.956 Y5.109
X0.951 Y5.84
X0.948 Y6.571
X0.945 Y8.033
X0.944 Y13.882
Y51.167
X0.945 Y101.611
Y152.056
Y164.849
X0.983 Y165.213
X1.12 Y165.552
X1.337 Y165.846
X1.878 Y166.338
X2.542 Y166.643
X3.251 Y166.822
X3.975 Y166.925
X4.704 Y166.982
X5.434 Y167.014
X6.165 Y167.032
X6.896 Y167.042
X7.627 Y167.047
X8.358 Y167.05
X9.82 Y167.052
X15.669 Y167.053
X37.601 Y167.052
X81.831 Y167.05
X82.187 Y166.964
X82.505 Y166.785
X83.048 Y166.295
X83.391 Y165.649
X83.594 Y164.947
X83.712 Y164.225
X83.778 Y163.497
X83.814 Y162.767
X83.835 Y162.036
X83.846 Y161.305
X83.852 Y160.574
X83.855 Y159.843
X83.858 Y158.381
X83.859 Y153.264
X83.858 Y111.592
X83.856 Y61.148
X83.855 Y10.704
Y3.027
X83.786 Y2.668
X83.618 Y2.343
X83.381 Y2.065
X82.813 Y1.605
X82.139 Y1.323
X81.426 Y1.158
X80.701 Y1.064
X79.972 Y1.011
X79.242 Y0.982
X78.511 Y0.966
X77.78 Y0.957
X77.049 Y0.952
X76.318 Y0.949
X74.855 Y0.947
X67.545 Y0.946
X41.957
X4.307
X3.947 Y1.01
X3.619 Y1.172
X3.337 Y1.404
X2.868 Y1.965
X2.716 Y2.316
X2.672 Y2.402
X2.617 Y2.481
X2.552 Y2.552
X2.544 Y2.559
X2.415 Y2.71
X2.328 Y2.816
X2.296 Y2.876
X2.072 Y3.312
X1.982 Y3.706
X1.954 Y3.872
X1.95 Y4.039
Y163.961
X1.954 Y164.128
X1.982 Y164.294
X2.072 Y164.688
X2.33 Y165.188
X2.378 Y165.253
X2.407 Y165.29
X2.544 Y165.441
X2.71 Y165.593
X2.747 Y165.622
X2.876 Y165.7
X3.281 Y165.916
X3.291 Y165.92
X3.706 Y166.02
X3.872 Y166.046
X4.039 Y166.05
X80.761
X80.928 Y166.046
X81.094 Y166.02
X81.509 Y165.92
X81.519 Y165.916
X82.003 Y165.658
X82.019 Y165.647
X82.09 Y165.591
X82.24 Y165.456
X82.256 Y165.441
X82.393 Y165.29
X82.422 Y165.253
X82.51 Y165.124
X82.61 Y164.958
X82.686 Y164.792
X82.748 Y164.626
X82.797 Y164.46
X82.825 Y164.294
X82.84 Y164.128
X82.848 Y163.795
X82.85 Y163.629
Y4.371
X82.848 Y4.205
X82.84 Y3.872
X82.825 Y3.706
X82.797 Y3.54
X82.748 Y3.374
X82.686 Y3.208
X82.61 Y3.042
X82.51 Y2.876
X82.422 Y2.755
X82.385 Y2.71
X82.256 Y2.559
X82.24 Y2.544
X82.09 Y2.409
X82.051 Y2.378
X81.924 Y2.291
X81.758 Y2.189
X81.592 Y2.114
X81.426 Y2.052
X81.26 Y2.004
X81.094 Y1.974
X80.928 Y1.962
X80.595 Y1.952
X80.429 Y1.95
X4.371
X4.205 Y1.952
X3.872 Y1.962
X3.706 Y1.974
X3.54 Y2.004
X3.374 Y2.052
X3.208 Y2.114
X3.042 Y2.189
X2.876 Y2.291
X2.747 Y2.378
X2.71 Y2.407
X2.552 Y2.552
G3 X2.122 Y2.535 I-0.206 J-0.232
G1 X2.095 Y2.488 Z-0.995
X2.07 Y2.443 Z-0.981
X2.046 Y2.4 Z-0.958
X2.04 Y2.358 Z-0.927
X2.035 Y2.32 Z-0.89
X2.039 Y2.29 Z-0.845
X2.042 Y2.267 Z-0.796
X2.043 Y2.253 Z-0.744
X2.044 Y2.248 Z-0.69
G0 Z5
X-0.306 Y-3.589
Z-1.38
G1 Z-1.69 F500
X-0.304 Y-3.582 Z-1.759
X-0.298 Y-3.559 Z-1.825
X-0.289 Y-3.524 Z-1.883
X-0.277 Y-3.476 Z-1.932
X-0.262 Y-3.419 Z-1.969
X-0.246 Y-3.356 Z-1.992
X-0.229 Y-3.289 Z-2
G3 X0.014 Y-1.601 I-7.667 J1.964
G1 Y-1.451
X-0.132 Y-0.735
X-0.21 Y-0.008
X-0.251 Y0.722
X-0.273 Y1.453
X-0.284 Y2.184
X-0.29 Y2.915
X-0.293 Y3.646
X-0.295 Y5.108
X-0.296 Y12.419
Y48.973
X-0.295 Y99.417
Y149.861
Y166.493
X-0.281 Y166.675
X-0.221 Y166.848
X-0.031 Y167.16
X0.234 Y167.413
X0.846 Y167.812
X1.541 Y168.037
X2.262 Y168.158
X2.99 Y168.223
X3.721 Y168.257
X4.452 Y168.274
X5.183 Y168.283
X5.914 Y168.288
X6.645 Y168.291
X8.107 Y168.293
X20.535
X32.964 Y168.292
X83.408 Y168.29
X83.584 Y168.241
X83.909 Y168.073
X84.172 Y167.82
X84.592 Y167.221
X84.828 Y166.529
X84.956 Y165.809
X85.024 Y165.081
X85.06 Y164.351
X85.079 Y163.62
X85.089 Y162.889
X85.094 Y162.158
X85.096 Y161.427
X85.098 Y159.965
X85.099 Y149.73
X85.098 Y118.294
X85.097 Y67.849
X85.095 Y17.405
Y1.504
X85.079 Y1.322
X85.019 Y1.149
X84.828 Y0.838
X84.563 Y0.586
X83.951 Y0.187
X83.255 Y-0.037
X82.534 Y-0.159
X81.806 Y-0.223
X81.075 Y-0.257
X80.344 Y-0.275
X79.613 Y-0.284
X78.882 Y-0.288
X78.151 Y-0.291
X76.689 Y-0.293
X64.261 Y-0.294
X51.101
X2.85
X2.668 Y-0.288
X2.492 Y-0.237
X2.17 Y-0.065
X1.905 Y0.188
X1.481 Y0.782
X1.236 Y1.472
X1.101 Y2.19
X1.028 Y2.917
X0.988 Y3.647
X0.967 Y4.378
X0.956 Y5.109
X0.951 Y5.84
X0.948 Y6.571
X0.945 Y8.033
X0.944 Y13.882
Y51.167
X0.945 Y101.611
Y152.056
Y164.849
X0.983 Y165.213
X1.12 Y165.552
X1.337 Y165.846
X1.878 Y166.338
X2.542 Y166.643
X3.251 Y166.822
X3.975 Y166.925
X4.704 Y166.982
X5.434 Y167.014
X6.165 Y167.032
X6.896 Y167.042
X7.627 Y167.047
X8.358 Y167.05
X9.82 Y167.052
X15.669 Y167.053
X37.601 Y167.052
X81.831 Y167.05
X82.187 Y166.964
X82.505 Y166.785
X83.048 Y166.295
X83.391 Y165.649
X83.594 Y164.947
X83.712 Y164.225
X83.778 Y163.497
X83.814 Y162.767
X83.835 Y162.036
X83.846 Y161.305
X83.852 Y160.574
X83.855 Y159.843
X83.858 Y158.381
X83.859 Y153.264
X83.858 Y111.592
X83.856 Y61.148
X83.855 Y10.704
Y3.027
X83.786 Y2.668
X83.618 Y2.343
X83.381 Y2.065
X82.813 Y1.605
X82.139 Y1.323
X81.426 Y1.158
X80.701 Y1.064
X79.972 Y1.011
X79.242 Y0.982
X78.511 Y0.966
X77.78 Y0.957
X77.049 Y0.952
X76.318 Y0.949
X74.855 Y0.947
X67.545 Y0.946
X41.957
X4.307
X3.947 Y1.01
X3.619 Y1.172
X3.337 Y1.404
X2.868 Y1.965
X2.716 Y2.316
X2.672 Y2.402
X2.617 Y2.481
X2.552 Y2.552
X2.544 Y2.559
X2.415 Y2.71
X2.328 Y2.816
X2.296 Y2.876
X2.072 Y3.312
X1.982 Y3.706
X1.954 Y3.872
X1.95 Y4.039
Y163.961
X1.954 Y164.128
X1.982 Y164.294
X2.072 Y164.688
X2.33 Y165.188
X2.378 Y165.253
X2.407 Y165.29
X2.544 Y165.441
X2.71 Y165.593
X2.747 Y165.622
X2.876 Y165.7
X3.281 Y165.916
X3.291 Y165.92
X3.706 Y166.02
X3.872 Y166.046
X4.039 Y166.05
X80.761
X80.928 Y166.046
X81.094 Y166.02
X81.509 Y165.92
X81.519 Y165.916
X82.003 Y165.658
X82.019 Y165.647
X82.09 Y165.591
X82.24 Y165.456
X82.256 Y165.441
X82.393 Y165.29
X82.422 Y165.253
X82.51 Y165.124
X82.61 Y164.958
X82.686 Y164.792
X82.748 Y164.626
X82.797 Y164.46
X82.825 Y164.294
X82.84 Y164.128
X82.848 Y163.795
X82.85 Y163.629
Y4.371
X82.848 Y4.205
X82.84 Y3.872
X82.825 Y3.706
X82.797 Y3.54
X82.748 Y3.374
X82.686 Y3.208
X82.61 Y3.042
X82.51 Y2.876
X82.422 Y2.755
X82.385 Y2.71
X82.256 Y2.559
X82.24 Y2.544
X82.09 Y2.409
X82.051 Y2.378
X81.924 Y2.291
X81.758 Y2.189
X81.592 Y2.114
X81.426 Y2.052
X81.26 Y2.004
X81.094 Y1.974
X80.928 Y1.962
X80.595 Y1.952
X80.429 Y1.95
X4.371
X4.205 Y1.952
X3.872 Y1.962
X3.706 Y1.974
X3.54 Y2.004
X3.374 Y2.052
X3.208 Y2.114
X3.042 Y2.189
X2.876 Y2.291
X2.747 Y2.378
X2.71 Y2.407
X2.552 Y2.552
G3 X2.122 Y2.535 I-0.206 J-0.232
G1 X2.095 Y2.488 Z-1.995
X2.07 Y2.443 Z-1.981
X2.046 Y2.4 Z-1.958
X2.04 Y2.358 Z-1.927
X2.035 Y2.32 Z-1.89
X2.039 Y2.29 Z-1.845
X2.042 Y2.267 Z-1.796
X2.043 Y2.253 Z-1.744
X2.044 Y2.248 Z-1.69
G0 Z5
X-0.306 Y-3.589
Z-2.079
G1 Z-2.389 F500
X-0.304 Y-3.582 Z-2.458
X-0.298 Y-3.559 Z-2.524
X-0.289 Y-3.524 Z-2.582
X-0.277 Y-3.476 Z-2.631
X-0.262 Y-3.419 Z-2.668
X-0.246 Y-3.356 Z-2.691
X-0.229 Y-3.289 Z-2.699
G3 X0.014 Y-1.601 I-7.667 J1.964
G1 Y-1.451
X-0.132 Y-0.735
X-0.21 Y-0.008
X-0.251 Y0.722
X-0.273 Y1.453
X-0.284 Y2.184
X-0.29 Y2.915
X-0.293 Y3.646
X-0.295 Y5.108
X-0.296 Y12.419
Y48.973
X-0.295 Y99.417
Y149.861
Y166.493
X-0.281 Y166.675
X-0.221 Y166.848
X-0.031 Y167.16
X0.234 Y167.413
X0.846 Y167.812
X1.541 Y168.037
X2.262 Y168.158
X2.99 Y168.223
X3.721 Y168.257
X4.452 Y168.274
X5.183 Y168.283
X5.914 Y168.288
X6.645 Y168.291
X8.107 Y168.293
X20.535
X32.964 Y168.292
X83.408 Y168.29
X83.584 Y168.241
X83.909 Y168.073
X84.172 Y167.82
X84.592 Y167.221
X84.828 Y166.529
X84.956 Y165.809
X85.024 Y165.081
X85.06 Y164.351
X85.079 Y163.62
X85.089 Y162.889
X85.094 Y162.158
X85.096 Y161.427
X85.098 Y159.965
X85.099 Y149.73
X85.098 Y118.294
X85.097 Y67.849
X85.095 Y17.405
Y1.504
X85.079 Y1.322
X85.019 Y1.149
X84.828 Y0.838
X84.563 Y0.586
X83.951 Y0.187
X83.255 Y-0.037
X82.534 Y-0.159
X81.806 Y-0.223
X81.075 Y-0.257
X80.344 Y-0.275
X79.613 Y-0.284
X78.882 Y-0.288
X78.151 Y-0.291
X76.689 Y-0.293
X64.261 Y-0.294
X51.101
X2.85
X2.668 Y-0.288
X2.492 Y-0.237
X2.17 Y-0.065
X1.905 Y0.188
X1.481 Y0.782
X1.236 Y1.472
X1.101 Y2.19
X1.028 Y2.917
X0.988 Y3.647
X0.967 Y4.378
X0.956 Y5.109
X0.951 Y5.84
X0.948 Y6.571
X0.945 Y8.033
X0.944 Y13.882
Y51.167
X0.945 Y101.611
Y152.056
Y164.849
X0.983 Y165.213
X1.12 Y165.552
X1.337 Y165.846
X1.878 Y166.338
X2.542 Y166.643
X3.251 Y166.822
X3.975 Y166.925
X4.704 Y166.982
X5.434 Y167.014
X6.165 Y167.032
X6.896 Y167.042
X7.627 Y167.047
X8.358 Y167.05
X9.82 Y167.052
X15.669 Y167.053
X37.601 Y167.052
X81.831 Y167.05
X82.187 Y166.964
X82.505 Y166.785
X83.048 Y166.295
X83.391 Y165.649
X83.594 Y164.947
X83.712 Y164.225
X83.778 Y163.497
X83.814 Y162.767
X83.835 Y162.036
X83.846 Y161.305
X83.852 Y160.574
X83.855 Y159.843
X83.858 Y158.381
X83.859 Y153.264
X83.858 Y111.592
X83.856 Y61.148
X83.855 Y10.704
Y3.027
X83.786 Y2.668
X83.618 Y2.343
X83.381 Y2.065
X82.813 Y1.605
X82.139 Y1.323
X81.426 Y1.158
X80.701 Y1.064
X79.972 Y1.011
X79.242 Y0.982
X78.511 Y0.966
X77.78 Y0.957
X77.049 Y0.952
X76.318 Y0.949
X74.855 Y0.947
X67.545 Y0.946
X41.957
X4.307
X3.947 Y1.01
X3.619 Y1.172
X3.337 Y1.404
X2.868 Y1.965
X2.716 Y2.316
X2.672 Y2.402
X2.617 Y2.481
X2.552 Y2.552
X2.544 Y2.559
X2.415 Y2.71
X2.328 Y2.816
X2.296 Y2.876
X2.072 Y3.312
X1.982 Y3.706
X1.954 Y3.872
X1.95 Y4.039
Y163.961
X1.954 Y164.128
X1.982 Y164.294
X2.072 Y164.688
X2.33 Y165.188
X2.378 Y165.253
X2.407 Y165.29
X2.544 Y165.441
X2.71 Y165.593
X2.747 Y165.622
X2.876 Y165.7
X3.281 Y165.916
X3.291 Y165.92
X3.706 Y166.02
X3.872 Y166.046
X4.039 Y166.05
X80.761
X80.928 Y166.046
X81.094 Y166.02
X81.509 Y165.92
X81.519 Y165.916
X82.003 Y165.658
X82.019 Y165.647
X82.09 Y165.591
X82.24 Y165.456
X82.256 Y165.441
X82.393 Y165.29
X82.422 Y165.253
X82.51 Y165.124
X82.61 Y164.958
X82.686 Y164.792
X82.748 Y164.626
X82.797 Y164.46
X82.825 Y164.294
X82.84 Y164.128
X82.848 Y163.795
X82.85 Y163.629
Y4.371
X82.848 Y4.205
X82.84 Y3.872
X82.825 Y3.706
X82.797 Y3.54
X82.748 Y3.374
X82.686 Y3.208
X82.61 Y3.042
X82.51 Y2.876
X82.422 Y2.755
X82.385 Y2.71
X82.256 Y2.559
X82.24 Y2.544
X82.09 Y2.409
X82.051 Y2.378
X81.924 Y2.291
X81.758 Y2.189
X81.592 Y2.114
X81.426 Y2.052
X81.26 Y2.004
X81.094 Y1.974
X80.928 Y1.962
X80.595 Y1.952
X80.429 Y1.95
X4.371
X4.205 Y1.952
X3.872 Y1.962
X3.706 Y1.974
X3.54 Y2.004
X3.374 Y2.052
X3.208 Y2.114
X3.042 Y2.189
X2.876 Y2.291
X2.747 Y2.378
X2.71 Y2.407
X2.552 Y2.552
G3 X2.044 Y2.248 I-0.206 J-0.232
G1 X2.06 Y2.181 Z-2.691
X2.075 Y2.117 Z-2.668
X2.089 Y2.06 Z-2.631
X2.1 Y2.013 Z-2.582
X2.109 Y1.977 Z-2.524
X2.114 Y1.954 Z-2.458
X2.116 Y1.947 Z-2.389
G0 Z15
M5
M30
