(4)
(Zijkant links)
(T1  D=3.1 CR=0 - ZMIN=-2.699 - flat end mill)
G90 G94
G17
G21

(Adaptive6)
S10000 M3
G54
G0 Z10
G0 X-0.306 Y-3.59
G1 Z-0.69 F500
X-0.304 Y-3.583 Z-0.759
X-0.298 Y-3.56 Z-0.825
X-0.289 Y-3.525 Z-0.883
X-0.277 Y-3.477 Z-0.932
X-0.262 Y-3.42 Z-0.969
X-0.246 Y-3.357 Z-0.992
X-0.229 Y-3.29 Z-1
G3 X0.014 Y-1.602 I-7.667 J1.964
G1 Y-1.452
X-0.132 Y-0.736
X-0.21 Y-0.009
X-0.251 Y0.721
X-0.273 Y1.452
X-0.284 Y2.183
X-0.29 Y2.914
X-0.293 Y3.645
X-0.295 Y5.107
X-0.296 Y12.418
Y48.972
X-0.295 Y99.416
Y149.86
Y166.492
X-0.28 Y166.674
X-0.22 Y166.847
X-0.029 Y167.159
X0.236 Y167.411
X0.848 Y167.81
X1.544 Y168.034
X2.265 Y168.156
X2.993 Y168.22
X3.723 Y168.254
X4.454 Y168.272
X5.185 Y168.281
X5.916 Y168.286
X6.647 Y168.288
X8.11 Y168.29
X20.538 Y168.291
X32.966
X80.486 Y168.292
X80.669 Y168.283
X80.843 Y168.229
X81.157 Y168.042
X81.411 Y167.778
X81.813 Y167.168
X82.039 Y166.473
X82.162 Y165.752
X82.227 Y165.024
X82.261 Y164.294
X82.279 Y163.563
X82.288 Y162.832
X82.293 Y162.101
X82.295 Y161.37
X82.297 Y159.907
X82.298 Y148.21
X82.297 Y116.043
X82.296 Y65.599
X82.295 Y15.154
Y1.447
X82.259 Y1.267
X82.105 Y0.936
X81.859 Y0.665
X81.269 Y0.234
X80.58 Y-0.01
X79.861 Y-0.143
X79.133 Y-0.214
X78.403 Y-0.251
X77.672 Y-0.27
X76.941 Y-0.28
X76.21 Y-0.285
X75.479 Y-0.288
X74.017 Y-0.29
X64.513 Y-0.292
X46.236
X2.737 Y-0.294
X2.559 Y-0.255
X2.226 Y-0.103
X1.951 Y0.138
X1.508 Y0.719
X1.251 Y1.403
X1.109 Y2.121
X1.032 Y2.848
X0.991 Y3.577
X0.969 Y4.308
X0.957 Y5.039
X0.951 Y5.77
X0.948 Y6.501
X0.945 Y7.963
X0.944 Y13.812
Y56.215
X0.945 Y106.659
Y157.103
Y165.145
X1.068 Y165.489
X1.274 Y165.791
X1.798 Y166.301
X2.456 Y166.619
X3.163 Y166.807
X3.886 Y166.915
X4.614 Y166.976
X5.345 Y167.01
X6.076 Y167.028
X6.807 Y167.039
X7.538 Y167.044
X8.269 Y167.047
X9.731 Y167.05
X15.58 Y167.051
X42.629
X78.818 Y167.052
X79.182 Y167.025
X79.525 Y166.898
X79.823 Y166.687
X80.325 Y166.155
X80.637 Y165.494
X80.821 Y164.786
X80.926 Y164.063
X80.985 Y163.334
X81.018 Y162.604
X81.036 Y161.873
X81.046 Y161.142
X81.052 Y160.411
X81.054 Y159.68
X81.057 Y158.218
X81.058 Y153.831
X81.057 Y103.387
X81.056 Y52.943
X81.055 Y3.229
X81.04 Y2.864
X80.924 Y2.517
X80.721 Y2.213
X80.199 Y1.702
X79.541 Y1.382
X78.835 Y1.193
X78.112 Y1.085
X77.384 Y1.024
X76.653 Y0.99
X75.923 Y0.971
X75.191 Y0.961
X74.46 Y0.955
X73.729 Y0.952
X72.267 Y0.95
X66.419 Y0.948
X31.327 Y0.947
X4.277 Y0.946
X3.919 Y1.018
X3.595 Y1.187
X3.316 Y1.424
X2.854 Y1.99
X2.718 Y2.311
X2.674 Y2.399
X2.618 Y2.479
X2.552 Y2.552
X2.547 Y2.556
X2.415 Y2.71
X2.381 Y2.752
X2.29 Y2.876
X2.19 Y3.042
X2.114 Y3.208
X2.052 Y3.374
X2.003 Y3.54
X1.975 Y3.706
X1.96 Y3.872
X1.952 Y4.205
X1.95 Y4.371
Y163.629
X1.952 Y163.795
X1.96 Y164.128
X1.975 Y164.294
X2.003 Y164.46
X2.052 Y164.626
X2.114 Y164.792
X2.19 Y164.958
X2.29 Y165.124
X2.381 Y165.248
X2.415 Y165.29
X2.547 Y165.444
X2.56 Y165.456
X2.713 Y165.593
X2.749 Y165.622
X2.88 Y165.711
X3.004 Y165.788
X3.046 Y165.813
X3.212 Y165.888
X3.378 Y165.949
X3.544 Y165.997
X3.71 Y166.026
X3.876 Y166.038
X4.208 Y166.048
X4.374 Y166.05
X77.626
X77.792 Y166.048
X78.124 Y166.038
X78.29 Y166.026
X78.456 Y165.997
X78.622 Y165.949
X78.788 Y165.888
X78.954 Y165.813
X78.996 Y165.788
X79.12 Y165.711
X79.251 Y165.622
X79.287 Y165.593
X79.44 Y165.456
X79.453 Y165.444
X79.585 Y165.29
X79.619 Y165.248
X79.71 Y165.124
X79.81 Y164.958
X79.886 Y164.792
X79.948 Y164.626
X79.997 Y164.46
X80.025 Y164.294
X80.04 Y164.128
X80.048 Y163.795
X80.05 Y163.629
Y4.371
X80.048 Y4.205
X80.04 Y3.872
X80.025 Y3.706
X79.997 Y3.54
X79.948 Y3.374
X79.886 Y3.208
X79.81 Y3.042
X79.71 Y2.876
X79.619 Y2.752
X79.585 Y2.71
X79.453 Y2.556
X79.44 Y2.544
X79.287 Y2.407
X79.251 Y2.378
X79.12 Y2.289
X78.996 Y2.212
X78.954 Y2.187
X78.788 Y2.112
X78.622 Y2.051
X78.456 Y2.003
X78.29 Y1.974
X78.124 Y1.962
X77.792 Y1.952
X77.626 Y1.95
X4.374
X4.208 Y1.952
X3.876 Y1.962
X3.71 Y1.974
X3.544 Y2.003
X3.378 Y2.051
X3.212 Y2.112
X3.046 Y2.187
X3.004 Y2.212
X2.88 Y2.289
X2.749 Y2.378
X2.713 Y2.407
X2.552 Y2.552
G3 X2.122 Y2.535 I-0.207 J-0.231
G1 X2.096 Y2.489 Z-0.995
X2.07 Y2.443 Z-0.981
X2.046 Y2.401 Z-0.958
X2.04 Y2.358 Z-0.927
X2.036 Y2.32 Z-0.889
X2.039 Y2.29 Z-0.845
X2.042 Y2.267 Z-0.796
X2.043 Y2.253 Z-0.744
X2.044 Y2.249 Z-0.69
G0 Z5
X-0.306 Y-3.59
Z-1.38
G1 Z-1.69 F500
X-0.304 Y-3.583 Z-1.759
X-0.298 Y-3.56 Z-1.825
X-0.289 Y-3.525 Z-1.883
X-0.277 Y-3.477 Z-1.932
X-0.262 Y-3.42 Z-1.969
X-0.246 Y-3.357 Z-1.992
X-0.229 Y-3.29 Z-2
G3 X0.014 Y-1.602 I-7.667 J1.964
G1 Y-1.452
X-0.132 Y-0.736
X-0.21 Y-0.009
X-0.251 Y0.721
X-0.273 Y1.452
X-0.284 Y2.183
X-0.29 Y2.914
X-0.293 Y3.645
X-0.295 Y5.107
X-0.296 Y12.418
Y48.972
X-0.295 Y99.416
Y149.86
Y166.492
X-0.28 Y166.674
X-0.22 Y166.847
X-0.029 Y167.159
X0.236 Y167.411
X0.848 Y167.81
X1.544 Y168.034
X2.265 Y168.156
X2.993 Y168.22
X3.723 Y168.254
X4.454 Y168.272
X5.185 Y168.281
X5.916 Y168.286
X6.647 Y168.288
X8.11 Y168.29
X20.538 Y168.291
X32.966
X80.486 Y168.292
X80.669 Y168.283
X80.843 Y168.229
X81.157 Y168.042
X81.411 Y167.778
X81.813 Y167.168
X82.039 Y166.473
X82.162 Y165.752
X82.227 Y165.024
X82.261 Y164.294
X82.279 Y163.563
X82.288 Y162.832
X82.293 Y162.101
X82.295 Y161.37
X82.297 Y159.907
X82.298 Y148.21
X82.297 Y116.043
X82.296 Y65.599
X82.295 Y15.154
Y1.447
X82.259 Y1.267
X82.105 Y0.936
X81.859 Y0.665
X81.269 Y0.234
X80.58 Y-0.01
X79.861 Y-0.143
X79.133 Y-0.214
X78.403 Y-0.251
X77.672 Y-0.27
X76.941 Y-0.28
X76.21 Y-0.285
X75.479 Y-0.288
X74.017 Y-0.29
X64.513 Y-0.292
X46.236
X2.737 Y-0.294
X2.559 Y-0.255
X2.226 Y-0.103
X1.951 Y0.138
X1.508 Y0.719
X1.251 Y1.403
X1.109 Y2.121
X1.032 Y2.848
X0.991 Y3.577
X0.969 Y4.308
X0.957 Y5.039
X0.951 Y5.77
X0.948 Y6.501
X0.945 Y7.963
X0.944 Y13.812
Y56.215
X0.945 Y106.659
Y157.103
Y165.145
X1.068 Y165.489
X1.274 Y165.791
X1.798 Y166.301
X2.456 Y166.619
X3.163 Y166.807
X3.886 Y166.915
X4.614 Y166.976
X5.345 Y167.01
X6.076 Y167.028
X6.807 Y167.039
X7.538 Y167.044
X8.269 Y167.047
X9.731 Y167.05
X15.58 Y167.051
X42.629
X78.818 Y167.052
X79.182 Y167.025
X79.525 Y166.898
X79.823 Y166.687
X80.325 Y166.155
X80.637 Y165.494
X80.821 Y164.786
X80.926 Y164.063
X80.985 Y163.334
X81.018 Y162.604
X81.036 Y161.873
X81.046 Y161.142
X81.052 Y160.411
X81.054 Y159.68
X81.057 Y158.218
X81.058 Y153.831
X81.057 Y103.387
X81.056 Y52.943
X81.055 Y3.229
X81.04 Y2.864
X80.924 Y2.517
X80.721 Y2.213
X80.199 Y1.702
X79.541 Y1.382
X78.835 Y1.193
X78.112 Y1.085
X77.384 Y1.024
X76.653 Y0.99
X75.923 Y0.971
X75.191 Y0.961
X74.46 Y0.955
X73.729 Y0.952
X72.267 Y0.95
X66.419 Y0.948
X31.327 Y0.947
X4.277 Y0.946
X3.919 Y1.018
X3.595 Y1.187
X3.316 Y1.424
X2.854 Y1.99
X2.718 Y2.311
X2.674 Y2.399
X2.618 Y2.479
X2.552 Y2.552
X2.547 Y2.556
X2.415 Y2.71
X2.381 Y2.752
X2.29 Y2.876
X2.19 Y3.042
X2.114 Y3.208
X2.052 Y3.374
X2.003 Y3.54
X1.975 Y3.706
X1.96 Y3.872
X1.952 Y4.205
X1.95 Y4.371
Y163.629
X1.952 Y163.795
X1.96 Y164.128
X1.975 Y164.294
X2.003 Y164.46
X2.052 Y164.626
X2.114 Y164.792
X2.19 Y164.958
X2.29 Y165.124
X2.381 Y165.248
X2.415 Y165.29
X2.547 Y165.444
X2.56 Y165.456
X2.713 Y165.593
X2.749 Y165.622
X2.88 Y165.711
X3.004 Y165.788
X3.046 Y165.813
X3.212 Y165.888
X3.378 Y165.949
X3.544 Y165.997
X3.71 Y166.026
X3.876 Y166.038
X4.208 Y166.048
X4.374 Y166.05
X77.626
X77.792 Y166.048
X78.124 Y166.038
X78.29 Y166.026
X78.456 Y165.997
X78.622 Y165.949
X78.788 Y165.888
X78.954 Y165.813
X78.996 Y165.788
X79.12 Y165.711
X79.251 Y165.622
X79.287 Y165.593
X79.44 Y165.456
X79.453 Y165.444
X79.585 Y165.29
X79.619 Y165.248
X79.71 Y165.124
X79.81 Y164.958
X79.886 Y164.792
X79.948 Y164.626
X79.997 Y164.46
X80.025 Y164.294
X80.04 Y164.128
X80.048 Y163.795
X80.05 Y163.629
Y4.371
X80.048 Y4.205
X80.04 Y3.872
X80.025 Y3.706
X79.997 Y3.54
X79.948 Y3.374
X79.886 Y3.208
X79.81 Y3.042
X79.71 Y2.876
X79.619 Y2.752
X79.585 Y2.71
X79.453 Y2.556
X79.44 Y2.544
X79.287 Y2.407
X79.251 Y2.378
X79.12 Y2.289
X78.996 Y2.212
X78.954 Y2.187
X78.788 Y2.112
X78.622 Y2.051
X78.456 Y2.003
X78.29 Y1.974
X78.124 Y1.962
X77.792 Y1.952
X77.626 Y1.95
X4.374
X4.208 Y1.952
X3.876 Y1.962
X3.71 Y1.974
X3.544 Y2.003
X3.378 Y2.051
X3.212 Y2.112
X3.046 Y2.187
X3.004 Y2.212
X2.88 Y2.289
X2.749 Y2.378
X2.713 Y2.407
X2.552 Y2.552
G3 X2.122 Y2.535 I-0.207 J-0.231
G1 X2.096 Y2.489 Z-1.995
X2.07 Y2.443 Z-1.981
X2.046 Y2.401 Z-1.958
X2.04 Y2.358 Z-1.927
X2.036 Y2.32 Z-1.889
X2.039 Y2.29 Z-1.845
X2.042 Y2.267 Z-1.796
X2.043 Y2.253 Z-1.744
X2.044 Y2.249 Z-1.69
G0 Z5
X-0.306 Y-3.59
Z-2.079
G1 Z-2.389 F500
X-0.304 Y-3.583 Z-2.458
X-0.298 Y-3.56 Z-2.524
X-0.289 Y-3.525 Z-2.582
X-0.277 Y-3.477 Z-2.631
X-0.262 Y-3.42 Z-2.668
X-0.246 Y-3.357 Z-2.691
X-0.229 Y-3.29 Z-2.699
G3 X0.014 Y-1.602 I-7.667 J1.964
G1 Y-1.452
X-0.132 Y-0.736
X-0.21 Y-0.009
X-0.251 Y0.721
X-0.273 Y1.452
X-0.284 Y2.183
X-0.29 Y2.914
X-0.293 Y3.645
X-0.295 Y5.107
X-0.296 Y12.418
Y48.972
X-0.295 Y99.416
Y149.86
Y166.492
X-0.28 Y166.674
X-0.22 Y166.847
X-0.029 Y167.159
X0.236 Y167.411
X0.848 Y167.81
X1.544 Y168.034
X2.265 Y168.156
X2.993 Y168.22
X3.723 Y168.254
X4.454 Y168.272
X5.185 Y168.281
X5.916 Y168.286
X6.647 Y168.288
X8.11 Y168.29
X20.538 Y168.291
X32.966
X80.486 Y168.292
X80.669 Y168.283
X80.843 Y168.229
X81.157 Y168.042
X81.411 Y167.778
X81.813 Y167.168
X82.039 Y166.473
X82.162 Y165.752
X82.227 Y165.024
X82.261 Y164.294
X82.279 Y163.563
X82.288 Y162.832
X82.293 Y162.101
X82.295 Y161.37
X82.297 Y159.907
X82.298 Y148.21
X82.297 Y116.043
X82.296 Y65.599
X82.295 Y15.154
Y1.447
X82.259 Y1.267
X82.105 Y0.936
X81.859 Y0.665
X81.269 Y0.234
X80.58 Y-0.01
X79.861 Y-0.143
X79.133 Y-0.214
X78.403 Y-0.251
X77.672 Y-0.27
X76.941 Y-0.28
X76.21 Y-0.285
X75.479 Y-0.288
X74.017 Y-0.29
X64.513 Y-0.292
X46.236
X2.737 Y-0.294
X2.559 Y-0.255
X2.226 Y-0.103
X1.951 Y0.138
X1.508 Y0.719
X1.251 Y1.403
X1.109 Y2.121
X1.032 Y2.848
X0.991 Y3.577
X0.969 Y4.308
X0.957 Y5.039
X0.951 Y5.77
X0.948 Y6.501
X0.945 Y7.963
X0.944 Y13.812
Y56.215
X0.945 Y106.659
Y157.103
Y165.145
X1.068 Y165.489
X1.274 Y165.791
X1.798 Y166.301
X2.456 Y166.619
X3.163 Y166.807
X3.886 Y166.915
X4.614 Y166.976
X5.345 Y167.01
X6.076 Y167.028
X6.807 Y167.039
X7.538 Y167.044
X8.269 Y167.047
X9.731 Y167.05
X15.58 Y167.051
X42.629
X78.818 Y167.052
X79.182 Y167.025
X79.525 Y166.898
X79.823 Y166.687
X80.325 Y166.155
X80.637 Y165.494
X80.821 Y164.786
X80.926 Y164.063
X80.985 Y163.334
X81.018 Y162.604
X81.036 Y161.873
X81.046 Y161.142
X81.052 Y160.411
X81.054 Y159.68
X81.057 Y158.218
X81.058 Y153.831
X81.057 Y103.387
X81.056 Y52.943
X81.055 Y3.229
X81.04 Y2.864
X80.924 Y2.517
X80.721 Y2.213
X80.199 Y1.702
X79.541 Y1.382
X78.835 Y1.193
X78.112 Y1.085
X77.384 Y1.024
X76.653 Y0.99
X75.923 Y0.971
X75.191 Y0.961
X74.46 Y0.955
X73.729 Y0.952
X72.267 Y0.95
X66.419 Y0.948
X31.327 Y0.947
X4.277 Y0.946
X3.919 Y1.018
X3.595 Y1.187
X3.316 Y1.424
X2.854 Y1.99
X2.718 Y2.311
X2.674 Y2.399
X2.618 Y2.479
X2.552 Y2.552
X2.547 Y2.556
X2.415 Y2.71
X2.381 Y2.752
X2.29 Y2.876
X2.19 Y3.042
X2.114 Y3.208
X2.052 Y3.374
X2.003 Y3.54
X1.975 Y3.706
X1.96 Y3.872
X1.952 Y4.205
X1.95 Y4.371
Y163.629
X1.952 Y163.795
X1.96 Y164.128
X1.975 Y164.294
X2.003 Y164.46
X2.052 Y164.626
X2.114 Y164.792
X2.19 Y164.958
X2.29 Y165.124
X2.381 Y165.248
X2.415 Y165.29
X2.547 Y165.444
X2.56 Y165.456
X2.713 Y165.593
X2.749 Y165.622
X2.88 Y165.711
X3.004 Y165.788
X3.046 Y165.813
X3.212 Y165.888
X3.378 Y165.949
X3.544 Y165.997
X3.71 Y166.026
X3.876 Y166.038
X4.208 Y166.048
X4.374 Y166.05
X77.626
X77.792 Y166.048
X78.124 Y166.038
X78.29 Y166.026
X78.456 Y165.997
X78.622 Y165.949
X78.788 Y165.888
X78.954 Y165.813
X78.996 Y165.788
X79.12 Y165.711
X79.251 Y165.622
X79.287 Y165.593
X79.44 Y165.456
X79.453 Y165.444
X79.585 Y165.29
X79.619 Y165.248
X79.71 Y165.124
X79.81 Y164.958
X79.886 Y164.792
X79.948 Y164.626
X79.997 Y164.46
X80.025 Y164.294
X80.04 Y164.128
X80.048 Y163.795
X80.05 Y163.629
Y4.371
X80.048 Y4.205
X80.04 Y3.872
X80.025 Y3.706
X79.997 Y3.54
X79.948 Y3.374
X79.886 Y3.208
X79.81 Y3.042
X79.71 Y2.876
X79.619 Y2.752
X79.585 Y2.71
X79.453 Y2.556
X79.44 Y2.544
X79.287 Y2.407
X79.251 Y2.378
X79.12 Y2.289
X78.996 Y2.212
X78.954 Y2.187
X78.788 Y2.112
X78.622 Y2.051
X78.456 Y2.003
X78.29 Y1.974
X78.124 Y1.962
X77.792 Y1.952
X77.626 Y1.95
X4.374
X4.208 Y1.952
X3.876 Y1.962
X3.71 Y1.974
X3.544 Y2.003
X3.378 Y2.051
X3.212 Y2.112
X3.046 Y2.187
X3.004 Y2.212
X2.88 Y2.289
X2.749 Y2.378
X2.713 Y2.407
X2.552 Y2.552
G3 X2.044 Y2.249 I-0.207 J-0.231
G1 X2.06 Y2.182 Z-2.691
X2.075 Y2.118 Z-2.668
X2.089 Y2.061 Z-2.631
X2.1 Y2.013 Z-2.582
X2.109 Y1.977 Z-2.524
X2.114 Y1.955 Z-2.458
X2.116 Y1.947 Z-2.389
G0 Z15
M5
M30
