(5)
(Deur links)
(T1  D=3.1 CR=0 - ZMIN=-2.699 - flat end mill)
G90 G94
G17
G21

(Adaptive7)
S10000 M3
G54
G0 Z10
G0 X-0.306 Y-3.59
G1 Z-0.69 F500
X-0.304 Y-3.582 Z-0.759
X-0.298 Y-3.56 Z-0.825
X-0.289 Y-3.524 Z-0.883
X-0.277 Y-3.476 Z-0.932
X-0.262 Y-3.42 Z-0.969
X-0.246 Y-3.356 Z-0.992
X-0.229 Y-3.289 Z-1
G3 X0.014 Y-1.602 I-7.667 J1.964
G1 Y-1.452
X-0.132 Y-0.735
X-0.21 Y-0.008
X-0.251 Y0.722
X-0.273 Y1.452
X-0.284 Y2.183
X-0.29 Y2.914
X-0.293 Y3.645
X-0.295 Y5.108
X-0.296 Y12.418
Y48.972
X-0.295 Y99.416
Y149.861
Y166.493
X-0.279 Y166.675
X-0.219 Y166.847
X-0.028 Y167.159
X0.237 Y167.411
X0.85 Y167.81
X1.546 Y168.034
X2.267 Y168.155
X2.995 Y168.22
X3.725 Y168.253
X4.456 Y168.271
X5.187 Y168.28
X5.918 Y168.285
X6.649 Y168.288
X8.111 Y168.29
X20.54
X32.968
X76.65
X76.827 Y168.245
X77.146 Y168.067
X77.402 Y167.806
X77.809 Y167.199
X78.037 Y166.504
X78.161 Y165.784
X78.227 Y165.056
X78.261 Y164.325
X78.279 Y163.594
X78.289 Y162.863
X78.294 Y162.132
X78.296 Y161.401
X78.298 Y159.939
X78.299 Y148.242
X78.298 Y111.688
X78.296 Y61.244
X78.295 Y10.799
Y1.478
X78.268 Y1.297
X78.127 Y0.96
X77.887 Y0.685
X77.302 Y0.245
X76.615 Y-0.004
X75.897 Y-0.139
X75.169 Y-0.211
X74.439 Y-0.249
X73.708 Y-0.269
X72.977 Y-0.279
X72.246 Y-0.285
X71.515 Y-0.288
X70.053 Y-0.29
X61.28 Y-0.291
X37.885 Y-0.292
X2.794 Y-0.294
X2.613 Y-0.27
X2.272 Y-0.137
X1.988 Y0.094
X1.53 Y0.663
X1.264 Y1.344
X1.116 Y2.06
X1.036 Y2.787
X0.993 Y3.517
X0.97 Y4.247
X0.958 Y4.978
X0.951 Y5.709
X0.948 Y6.44
X0.945 Y7.902
X0.944 Y13.02
Y14.482
X0.945 Y64.926
Y115.371
Y165.084
X1.051 Y165.434
X1.244 Y165.744
X1.752 Y166.27
X2.404 Y166.6
X3.108 Y166.796
X3.831 Y166.909
X4.559 Y166.972
X5.289 Y167.007
X6.02 Y167.027
X6.751 Y167.037
X7.482 Y167.043
X8.213 Y167.046
X9.675 Y167.049
X14.793 Y167.05
X50.616
X74.741
X75.107 Y167.048
X75.457 Y166.941
X75.765 Y166.746
X76.288 Y166.234
X76.615 Y165.581
X76.809 Y164.876
X76.92 Y164.153
X76.982 Y163.425
X77.017 Y162.694
X77.036 Y161.964
X77.046 Y161.233
X77.052 Y160.501
X77.055 Y159.77
X77.058 Y158.308
X77.059 Y153.191
X77.058 Y142.225
X77.057 Y91.78
X77.056 Y41.336
X77.055 Y2.954
X76.964 Y2.6
X76.78 Y2.284
X76.283 Y1.748
X75.635 Y1.41
X74.932 Y1.21
X74.21 Y1.095
X73.482 Y1.03
X72.752 Y0.993
X72.021 Y0.974
X71.29 Y0.963
X70.559 Y0.957
X69.828 Y0.953
X68.365 Y0.95
X66.172 Y0.949
X15.728 Y0.947
X4.396 Y0.946
X4.033 Y0.984
X3.694 Y1.122
X3.4 Y1.339
X2.908 Y1.88
X2.687 Y2.359
X2.648 Y2.431
X2.601 Y2.498
X2.545 Y2.558
X2.415 Y2.71
X2.379 Y2.754
X2.288 Y2.876
X2.191 Y3.042
X2.114 Y3.208
X2.052 Y3.374
X2.003 Y3.54
X1.975 Y3.706
X1.96 Y3.872
X1.952 Y4.205
X1.95 Y4.371
Y163.629
X1.952 Y163.795
X1.96 Y164.128
X1.975 Y164.294
X2.003 Y164.46
X2.052 Y164.626
X2.114 Y164.792
X2.191 Y164.958
X2.288 Y165.124
X2.379 Y165.246
X2.415 Y165.29
X2.545 Y165.442
X2.56 Y165.456
X2.711 Y165.592
X2.749 Y165.622
X2.877 Y165.709
X3.002 Y165.788
X3.043 Y165.811
X3.21 Y165.888
X3.376 Y165.948
X3.395 Y165.954
X3.542 Y165.995
X3.708 Y166.027
X3.874 Y166.037
X4.206 Y166.048
X4.372 Y166.05
X73.628
X73.794 Y166.048
X74.126 Y166.037
X74.292 Y166.027
X74.458 Y165.995
X74.605 Y165.954
X74.624 Y165.948
X74.79 Y165.888
X74.957 Y165.811
X74.998 Y165.788
X75.123 Y165.709
X75.251 Y165.622
X75.289 Y165.592
X75.44 Y165.456
X75.455 Y165.442
X75.585 Y165.29
X75.621 Y165.246
X75.712 Y165.124
X75.809 Y164.958
X75.886 Y164.792
X75.948 Y164.626
X75.997 Y164.46
X76.025 Y164.294
X76.04 Y164.128
X76.048 Y163.795
X76.05 Y163.629
Y4.371
X76.048 Y4.205
X76.04 Y3.872
X76.025 Y3.706
X75.997 Y3.54
X75.948 Y3.374
X75.886 Y3.208
X75.809 Y3.042
X75.712 Y2.876
X75.621 Y2.754
X75.585 Y2.71
X75.455 Y2.558
X75.44 Y2.544
X75.289 Y2.408
X75.251 Y2.378
X75.123 Y2.291
X74.998 Y2.212
X74.957 Y2.189
X74.79 Y2.112
X74.624 Y2.052
X74.605 Y2.046
X74.458 Y2.005
X74.292 Y1.973
X74.126 Y1.963
X73.794 Y1.952
X73.628 Y1.95
X4.372
X4.206 Y1.952
X3.874 Y1.963
X3.708 Y1.973
X3.542 Y2.005
X3.395 Y2.046
X3.376 Y2.052
X3.21 Y2.112
X3.043 Y2.189
X3.002 Y2.212
X2.877 Y2.291
X2.749 Y2.378
X2.711 Y2.408
X2.56 Y2.544
X2.545 Y2.558
G3 X2.115 Y2.543 I-0.207 J-0.231
G1 X2.089 Y2.496 Z-0.995
X2.063 Y2.451 Z-0.981
X2.039 Y2.409 Z-0.958
X2.033 Y2.365 Z-0.927
X2.028 Y2.328 Z-0.888
X2.032 Y2.297 Z-0.844
X2.034 Y2.275 Z-0.795
X2.036 Y2.261 Z-0.744
Y2.257 Z-0.69
G0 Z5
X-0.306 Y-3.59
Z-1.38
G1 Z-1.69 F500
X-0.304 Y-3.582 Z-1.759
X-0.298 Y-3.56 Z-1.825
X-0.289 Y-3.524 Z-1.883
X-0.277 Y-3.476 Z-1.932
X-0.262 Y-3.42 Z-1.969
X-0.246 Y-3.356 Z-1.992
X-0.229 Y-3.289 Z-2
G3 X0.014 Y-1.602 I-7.667 J1.964
G1 Y-1.452
X-0.132 Y-0.735
X-0.21 Y-0.008
X-0.251 Y0.722
X-0.273 Y1.452
X-0.284 Y2.183
X-0.29 Y2.914
X-0.293 Y3.645
X-0.295 Y5.108
X-0.296 Y12.418
Y48.972
X-0.295 Y99.416
Y149.861
Y166.493
X-0.279 Y166.675
X-0.219 Y166.847
X-0.028 Y167.159
X0.237 Y167.411
X0.85 Y167.81
X1.546 Y168.034
X2.267 Y168.155
X2.995 Y168.22
X3.725 Y168.253
X4.456 Y168.271
X5.187 Y168.28
X5.918 Y168.285
X6.649 Y168.288
X8.111 Y168.29
X20.54
X32.968
X76.65
X76.827 Y168.245
X77.146 Y168.067
X77.402 Y167.806
X77.809 Y167.199
X78.037 Y166.504
X78.161 Y165.784
X78.227 Y165.056
X78.261 Y164.325
X78.279 Y163.594
X78.289 Y162.863
X78.294 Y162.132
X78.296 Y161.401
X78.298 Y159.939
X78.299 Y148.242
X78.298 Y111.688
X78.296 Y61.244
X78.295 Y10.799
Y1.478
X78.268 Y1.297
X78.127 Y0.96
X77.887 Y0.685
X77.302 Y0.245
X76.615 Y-0.004
X75.897 Y-0.139
X75.169 Y-0.211
X74.439 Y-0.249
X73.708 Y-0.269
X72.977 Y-0.279
X72.246 Y-0.285
X71.515 Y-0.288
X70.053 Y-0.29
X61.28 Y-0.291
X37.885 Y-0.292
X2.794 Y-0.294
X2.613 Y-0.27
X2.272 Y-0.137
X1.988 Y0.094
X1.53 Y0.663
X1.264 Y1.344
X1.116 Y2.06
X1.036 Y2.787
X0.993 Y3.517
X0.97 Y4.247
X0.958 Y4.978
X0.951 Y5.709
X0.948 Y6.44
X0.945 Y7.902
X0.944 Y13.02
Y14.482
X0.945 Y64.926
Y115.371
Y165.084
X1.051 Y165.434
X1.244 Y165.744
X1.752 Y166.27
X2.404 Y166.6
X3.108 Y166.796
X3.831 Y166.909
X4.559 Y166.972
X5.289 Y167.007
X6.02 Y167.027
X6.751 Y167.037
X7.482 Y167.043
X8.213 Y167.046
X9.675 Y167.049
X14.793 Y167.05
X50.616
X74.741
X75.107 Y167.048
X75.457 Y166.941
X75.765 Y166.746
X76.288 Y166.234
X76.615 Y165.581
X76.809 Y164.876
X76.92 Y164.153
X76.982 Y163.425
X77.017 Y162.694
X77.036 Y161.964
X77.046 Y161.233
X77.052 Y160.501
X77.055 Y159.77
X77.058 Y158.308
X77.059 Y153.191
X77.058 Y142.225
X77.057 Y91.78
X77.056 Y41.336
X77.055 Y2.954
X76.964 Y2.6
X76.78 Y2.284
X76.283 Y1.748
X75.635 Y1.41
X74.932 Y1.21
X74.21 Y1.095
X73.482 Y1.03
X72.752 Y0.993
X72.021 Y0.974
X71.29 Y0.963
X70.559 Y0.957
X69.828 Y0.953
X68.365 Y0.95
X66.172 Y0.949
X15.728 Y0.947
X4.396 Y0.946
X4.033 Y0.984
X3.694 Y1.122
X3.4 Y1.339
X2.908 Y1.88
X2.687 Y2.359
X2.648 Y2.431
X2.601 Y2.498
X2.545 Y2.558
X2.415 Y2.71
X2.379 Y2.754
X2.288 Y2.876
X2.191 Y3.042
X2.114 Y3.208
X2.052 Y3.374
X2.003 Y3.54
X1.975 Y3.706
X1.96 Y3.872
X1.952 Y4.205
X1.95 Y4.371
Y163.629
X1.952 Y163.795
X1.96 Y164.128
X1.975 Y164.294
X2.003 Y164.46
X2.052 Y164.626
X2.114 Y164.792
X2.191 Y164.958
X2.288 Y165.124
X2.379 Y165.246
X2.415 Y165.29
X2.545 Y165.442
X2.56 Y165.456
X2.711 Y165.592
X2.749 Y165.622
X2.877 Y165.709
X3.002 Y165.788
X3.043 Y165.811
X3.21 Y165.888
X3.376 Y165.948
X3.395 Y165.954
X3.542 Y165.995
X3.708 Y166.027
X3.874 Y166.037
X4.206 Y166.048
X4.372 Y166.05
X73.628
X73.794 Y166.048
X74.126 Y166.037
X74.292 Y166.027
X74.458 Y165.995
X74.605 Y165.954
X74.624 Y165.948
X74.79 Y165.888
X74.957 Y165.811
X74.998 Y165.788
X75.123 Y165.709
X75.251 Y165.622
X75.289 Y165.592
X75.44 Y165.456
X75.455 Y165.442
X75.585 Y165.29
X75.621 Y165.246
X75.712 Y165.124
X75.809 Y164.958
X75.886 Y164.792
X75.948 Y164.626
X75.997 Y164.46
X76.025 Y164.294
X76.04 Y164.128
X76.048 Y163.795
X76.05 Y163.629
Y4.371
X76.048 Y4.205
X76.04 Y3.872
X76.025 Y3.706
X75.997 Y3.54
X75.948 Y3.374
X75.886 Y3.208
X75.809 Y3.042
X75.712 Y2.876
X75.621 Y2.754
X75.585 Y2.71
X75.455 Y2.558
X75.44 Y2.544
X75.289 Y2.408
X75.251 Y2.378
X75.123 Y2.291
X74.998 Y2.212
X74.957 Y2.189
X74.79 Y2.112
X74.624 Y2.052
X74.605 Y2.046
X74.458 Y2.005
X74.292 Y1.973
X74.126 Y1.963
X73.794 Y1.952
X73.628 Y1.95
X4.372
X4.206 Y1.952
X3.874 Y1.963
X3.708 Y1.973
X3.542 Y2.005
X3.395 Y2.046
X3.376 Y2.052
X3.21 Y2.112
X3.043 Y2.189
X3.002 Y2.212
X2.877 Y2.291
X2.749 Y2.378
X2.711 Y2.408
X2.56 Y2.544
X2.545 Y2.558
G3 X2.115 Y2.543 I-0.207 J-0.231
G1 X2.089 Y2.496 Z-1.995
X2.063 Y2.451 Z-1.981
X2.039 Y2.409 Z-1.958
X2.033 Y2.365 Z-1.927
X2.028 Y2.328 Z-1.888
X2.032 Y2.297 Z-1.844
X2.034 Y2.275 Z-1.795
X2.036 Y2.261 Z-1.744
Y2.257 Z-1.69
G0 Z5
X-0.306 Y-3.59
Z-2.079
G1 Z-2.389 F500
X-0.304 Y-3.582 Z-2.458
X-0.298 Y-3.56 Z-2.524
X-0.289 Y-3.524 Z-2.582
X-0.277 Y-3.476 Z-2.631
X-0.262 Y-3.42 Z-2.668
X-0.246 Y-3.356 Z-2.691
X-0.229 Y-3.289 Z-2.699
G3 X0.014 Y-1.602 I-7.667 J1.964
G1 Y-1.452
X-0.132 Y-0.735
X-0.21 Y-0.008
X-0.251 Y0.722
X-0.273 Y1.452
X-0.284 Y2.183
X-0.29 Y2.914
X-0.293 Y3.645
X-0.295 Y5.108
X-0.296 Y12.418
Y48.972
X-0.295 Y99.416
Y149.861
Y166.493
X-0.279 Y166.675
X-0.219 Y166.847
X-0.028 Y167.159
X0.237 Y167.411
X0.85 Y167.81
X1.546 Y168.034
X2.267 Y168.155
X2.995 Y168.22
X3.725 Y168.253
X4.456 Y168.271
X5.187 Y168.28
X5.918 Y168.285
X6.649 Y168.288
X8.111 Y168.29
X20.54
X32.968
X76.65
X76.827 Y168.245
X77.146 Y168.067
X77.402 Y167.806
X77.809 Y167.199
X78.037 Y166.504
X78.161 Y165.784
X78.227 Y165.056
X78.261 Y164.325
X78.279 Y163.594
X78.289 Y162.863
X78.294 Y162.132
X78.296 Y161.401
X78.298 Y159.939
X78.299 Y148.242
X78.298 Y111.688
X78.296 Y61.244
X78.295 Y10.799
Y1.478
X78.268 Y1.297
X78.127 Y0.96
X77.887 Y0.685
X77.302 Y0.245
X76.615 Y-0.004
X75.897 Y-0.139
X75.169 Y-0.211
X74.439 Y-0.249
X73.708 Y-0.269
X72.977 Y-0.279
X72.246 Y-0.285
X71.515 Y-0.288
X70.053 Y-0.29
X61.28 Y-0.291
X37.885 Y-0.292
X2.794 Y-0.294
X2.613 Y-0.27
X2.272 Y-0.137
X1.988 Y0.094
X1.53 Y0.663
X1.264 Y1.344
X1.116 Y2.06
X1.036 Y2.787
X0.993 Y3.517
X0.97 Y4.247
X0.958 Y4.978
X0.951 Y5.709
X0.948 Y6.44
X0.945 Y7.902
X0.944 Y13.02
Y14.482
X0.945 Y64.926
Y115.371
Y165.084
X1.051 Y165.434
X1.244 Y165.744
X1.752 Y166.27
X2.404 Y166.6
X3.108 Y166.796
X3.831 Y166.909
X4.559 Y166.972
X5.289 Y167.007
X6.02 Y167.027
X6.751 Y167.037
X7.482 Y167.043
X8.213 Y167.046
X9.675 Y167.049
X14.793 Y167.05
X50.616
X74.741
X75.107 Y167.048
X75.457 Y166.941
X75.765 Y166.746
X76.288 Y166.234
X76.615 Y165.581
X76.809 Y164.876
X76.92 Y164.153
X76.982 Y163.425
X77.017 Y162.694
X77.036 Y161.964
X77.046 Y161.233
X77.052 Y160.501
X77.055 Y159.77
X77.058 Y158.308
X77.059 Y153.191
X77.058 Y142.225
X77.057 Y91.78
X77.056 Y41.336
X77.055 Y2.954
X76.964 Y2.6
X76.78 Y2.284
X76.283 Y1.748
X75.635 Y1.41
X74.932 Y1.21
X74.21 Y1.095
X73.482 Y1.03
X72.752 Y0.993
X72.021 Y0.974
X71.29 Y0.963
X70.559 Y0.957
X69.828 Y0.953
X68.365 Y0.95
X66.172 Y0.949
X15.728 Y0.947
X4.396 Y0.946
X4.033 Y0.984
X3.694 Y1.122
X3.4 Y1.339
X2.908 Y1.88
X2.687 Y2.359
X2.648 Y2.431
X2.601 Y2.498
X2.545 Y2.558
X2.415 Y2.71
X2.379 Y2.754
X2.288 Y2.876
X2.191 Y3.042
X2.114 Y3.208
X2.052 Y3.374
X2.003 Y3.54
X1.975 Y3.706
X1.96 Y3.872
X1.952 Y4.205
X1.95 Y4.371
Y163.629
X1.952 Y163.795
X1.96 Y164.128
X1.975 Y164.294
X2.003 Y164.46
X2.052 Y164.626
X2.114 Y164.792
X2.191 Y164.958
X2.288 Y165.124
X2.379 Y165.246
X2.415 Y165.29
X2.545 Y165.442
X2.56 Y165.456
X2.711 Y165.592
X2.749 Y165.622
X2.877 Y165.709
X3.002 Y165.788
X3.043 Y165.811
X3.21 Y165.888
X3.376 Y165.948
X3.395 Y165.954
X3.542 Y165.995
X3.708 Y166.027
X3.874 Y166.037
X4.206 Y166.048
X4.372 Y166.05
X73.628
X73.794 Y166.048
X74.126 Y166.037
X74.292 Y166.027
X74.458 Y165.995
X74.605 Y165.954
X74.624 Y165.948
X74.79 Y165.888
X74.957 Y165.811
X74.998 Y165.788
X75.123 Y165.709
X75.251 Y165.622
X75.289 Y165.592
X75.44 Y165.456
X75.455 Y165.442
X75.585 Y165.29
X75.621 Y165.246
X75.712 Y165.124
X75.809 Y164.958
X75.886 Y164.792
X75.948 Y164.626
X75.997 Y164.46
X76.025 Y164.294
X76.04 Y164.128
X76.048 Y163.795
X76.05 Y163.629
Y4.371
X76.048 Y4.205
X76.04 Y3.872
X76.025 Y3.706
X75.997 Y3.54
X75.948 Y3.374
X75.886 Y3.208
X75.809 Y3.042
X75.712 Y2.876
X75.621 Y2.754
X75.585 Y2.71
X75.455 Y2.558
X75.44 Y2.544
X75.289 Y2.408
X75.251 Y2.378
X75.123 Y2.291
X74.998 Y2.212
X74.957 Y2.189
X74.79 Y2.112
X74.624 Y2.052
X74.605 Y2.046
X74.458 Y2.005
X74.292 Y1.973
X74.126 Y1.963
X73.794 Y1.952
X73.628 Y1.95
X4.372
X4.206 Y1.952
X3.874 Y1.963
X3.708 Y1.973
X3.542 Y2.005
X3.395 Y2.046
X3.376 Y2.052
X3.21 Y2.112
X3.043 Y2.189
X3.002 Y2.212
X2.877 Y2.291
X2.749 Y2.378
X2.711 Y2.408
X2.56 Y2.544
X2.545 Y2.558
G3 X2.036 Y2.257 I-0.207 J-0.231
G1 X2.052 Y2.189 Z-2.691
X2.067 Y2.126 Z-2.668
X2.081 Y2.068 Z-2.631
X2.092 Y2.021 Z-2.582
X2.1 Y1.985 Z-2.524
X2.106 Y1.962 Z-2.458
X2.107 Y1.955 Z-2.389
G0 Z15
M5
M30
