(6)
(Achterkant)
(T1  D=3.1 CR=0 - ZMIN=-5.199 - flat end mill)
G90 G94
G17
G21

(Adaptive8)
S10000 M3
G54
G0 Z10
G0 X-0.301 Y-3.588
G1 Z-0.69 F500
X-0.299 Y-3.581 Z-0.759
X-0.293 Y-3.558 Z-0.825
X-0.284 Y-3.523 Z-0.883
X-0.272 Y-3.475 Z-0.932
X-0.257 Y-3.418 Z-0.969
X-0.241 Y-3.355 Z-0.992
X-0.224 Y-3.288 Z-1
G3 X0.019 Y-1.6 I-7.667 J1.964
G1 Y-1.45
X-0.128 Y-0.734
X-0.205 Y-0.007
X-0.246 Y0.723
X-0.268 Y1.454
X-0.279 Y2.185
X-0.284 Y2.916
X-0.287 Y3.647
X-0.289 Y5.109
X-0.288 Y12.42
X-0.28 Y48.974
X-0.268 Y99.418
X-0.256 Y149.862
X-0.251 Y170.515
X-0.234 Y170.697
X-0.172 Y170.869
X0.02 Y171.18
X0.285 Y171.431
X0.898 Y171.83
X1.595 Y172.053
X2.316 Y172.174
X3.044 Y172.238
X3.774 Y172.272
X4.505 Y172.289
X5.236 Y172.298
X5.967 Y172.303
X6.698 Y172.305
X8.16 Y172.307
X20.589
X28.63 Y172.306
X79.075 Y172.301
X129.519 Y172.297
X146.517 Y172.295
X146.698 Y172.271
X147.037 Y172.134
X147.313 Y171.894
X147.754 Y171.311
X148.004 Y170.624
X148.139 Y169.906
X148.212 Y169.178
X148.25 Y168.448
X148.27 Y167.718
X148.28 Y166.987
X148.286 Y166.255
X148.288 Y165.524
X148.291 Y164.062
X148.292 Y155.289
Y139.937
X148.293 Y89.492
X148.294 Y39.048
X148.295 Y1.398
X148.247 Y1.221
X148.079 Y0.896
X147.827 Y0.632
X147.228 Y0.212
X146.537 Y-0.025
X145.817 Y-0.153
X145.089 Y-0.221
X144.359 Y-0.257
X143.628 Y-0.276
X142.897 Y-0.286
X142.166 Y-0.291
X141.435 Y-0.294
X139.973 Y-0.296
X136.317
X85.873
X35.429 Y-0.295
X2.713
X2.536 Y-0.249
X2.208 Y-0.089
X1.937 Y0.157
X1.501 Y0.744
X1.25 Y1.43
X1.111 Y2.148
X1.036 Y2.875
X0.995 Y3.605
X0.974 Y4.336
X0.963 Y5.067
X0.957 Y5.798
X0.954 Y6.529
X0.952 Y7.991
Y13.84
X0.953 Y16.764
X0.965 Y67.209
X0.977 Y117.653
X0.988 Y168.097
X0.989 Y168.828
X1.017 Y169.193
X1.146 Y169.535
X1.357 Y169.833
X1.889 Y170.335
X2.55 Y170.647
X3.258 Y170.831
X3.981 Y170.936
X4.71 Y170.995
X5.44 Y171.028
X6.171 Y171.046
X6.902 Y171.056
X7.633 Y171.062
X8.364 Y171.064
X9.826 Y171.067
X15.675
X49.305 Y171.064
X99.749 Y171.06
X145.076 Y171.055
X145.428 Y170.957
X145.74 Y170.767
X146.268 Y170.261
X146.6 Y169.61
X146.797 Y168.906
X146.909 Y168.183
X146.973 Y167.455
X147.008 Y166.725
X147.028 Y165.994
X147.039 Y165.263
X147.045 Y164.532
X147.048 Y163.801
X147.05 Y162.339
X147.052 Y157.221
Y116.281
X147.054 Y65.837
X147.055 Y15.392
Y2.964
X146.967 Y2.609
X146.786 Y2.292
X146.294 Y1.751
X145.647 Y1.41
X144.945 Y1.207
X144.223 Y1.091
X143.495 Y1.025
X142.765 Y0.988
X142.034 Y0.968
X141.303 Y0.957
X140.572 Y0.951
X139.841 Y0.948
X138.379 Y0.945
X133.261 Y0.944
X109.867
X59.423
X8.978 Y0.945
X4.226
X3.872 Y1.035
X3.555 Y1.216
X3.013 Y1.707
X2.668 Y2.352
X2.462 Y3.053
X2.343 Y3.774
X2.275 Y4.502
X2.237 Y5.233
X2.216 Y5.963
X2.205 Y6.694
X2.198 Y7.425
X2.195 Y8.156
X2.192 Y9.619
Y14.005
X2.199 Y45.441
X2.211 Y95.886
X2.223 Y146.33
X2.228 Y167.531
X2.275 Y167.894
X2.409 Y168.234
X2.618 Y168.533
X3.146 Y169.04
X3.801 Y169.364
X4.505 Y169.56
X5.227 Y169.675
X5.955 Y169.741
X6.685 Y169.779
X7.416 Y169.801
X8.147 Y169.813
X8.878 Y169.819
X9.609 Y169.823
X11.071 Y169.826
X14.727 Y169.827
X30.079 Y169.826
X80.524 Y169.821
X130.968 Y169.817
X143.396 Y169.816
X143.761 Y169.797
X144.112 Y169.695
X144.426 Y169.508
X144.963 Y169.011
X145.31 Y168.367
X145.521 Y167.668
X145.646 Y166.947
X145.717 Y166.22
X145.759 Y165.49
X145.782 Y164.759
X145.795 Y164.028
X145.802 Y163.297
X145.806 Y162.566
X145.809 Y161.835
X145.811 Y159.642
X145.812 Y133.323
X145.813 Y82.879
X145.814 Y32.434
X145.815 Y4.653
X145.805 Y4.288
X145.716 Y3.933
X145.539 Y3.613
X145.058 Y3.063
X144.421 Y2.705
X143.723 Y2.486
X143.004 Y2.357
X142.277 Y2.282
X142.038 Y2.268
X141.936 Y2.254
X141.837 Y2.227
X141.742 Y2.185
X141.645 Y2.134
X141.416 Y2.047
X141.313 Y2.019
X141.147 Y1.981
X140.981 Y1.961
X140.815 Y1.953
X140.317 Y1.95
X7.683
X7.185 Y1.953
X7.019 Y1.961
X6.853 Y1.981
X6.826 Y1.987
X6.547 Y2.037
X5.82 Y2.109
X5.457 Y2.151
X5.11 Y2.268
X4.801 Y2.463
X4.274 Y2.969
X3.931 Y3.615
X3.722 Y4.315
X3.598 Y5.036
X3.526 Y5.763
X3.484 Y6.493
X3.461 Y7.224
X3.448 Y7.955
X3.44 Y8.686
X3.436 Y9.417
X3.434 Y10.148
X3.432 Y11.61
X3.433 Y18.921
X3.441 Y50.357
X3.453 Y100.802
X3.464 Y151.246
X3.468 Y166.233
X3.518 Y166.595
X3.648 Y166.937
X3.853 Y167.24
X4.37 Y167.756
X5.02 Y168.091
X5.721 Y168.297
X6.442 Y168.419
X7.17 Y168.491
X7.9 Y168.533
X8.63 Y168.556
X9.361 Y168.57
X10.092 Y168.578
X10.823 Y168.582
X11.554 Y168.584
X13.017 Y168.587
X18.865
X37.873 Y168.585
X88.318 Y168.581
X138.762 Y168.576
X142.417
X142.771 Y168.483
X143.092 Y168.308
X143.649 Y167.835
X144.017 Y167.203
X144.245 Y166.508
X144.382 Y165.79
X144.462 Y165.063
X144.509 Y164.334
X144.536 Y163.603
X144.551 Y162.872
X144.56 Y162.141
X144.565 Y161.41
X144.568 Y160.679
X144.57 Y159.217
X144.572 Y154.099
Y122.663
X144.573 Y72.219
X144.574 Y21.775
X144.575 Y5.691
X144.511 Y5.331
X144.361 Y4.998
X144.142 Y4.705
X143.607 Y4.207
X143.189 Y4.005
X143.016 Y3.889
X142.883 Y3.731
X142.798 Y3.542
X142.749 Y3.376
X142.686 Y3.209
X142.641 Y3.102
X142.61 Y3.043
X142.511 Y2.877
X142.475 Y2.82
X142.391 Y2.711
X142.309 Y2.617
X142.239 Y2.545
X142.143 Y2.454
X142.052 Y2.379
X141.977 Y2.324
X141.811 Y2.221
X141.742 Y2.185
G3 X141.87 Y1.608 I0.154 J-0.269
G1 X141.938 Y1.602 Z-0.992
X142.004 Y1.596 Z-0.969
X142.062 Y1.591 Z-0.932
X142.111 Y1.586 Z-0.883
X142.148 Y1.583 Z-0.825
X142.171 Y1.581 Z-0.759
X142.179 Z-0.69
G0 Z5
X7.733 Y1.386
Z-0.38
G1 Z-0.69 F500
X7.728 Y1.391 Z-0.759
X7.711 Y1.407 Z-0.825
X7.684 Y1.433 Z-0.883
X7.649 Y1.467 Z-0.932
X7.607 Y1.507 Z-0.969
X7.559 Y1.553 Z-0.992
X7.51 Y1.601 Z-1
G3 X6.826 Y1.987 I-1.096 J-1.142
G1 X6.687 Y2.019
X6.584 Y2.047
X6.355 Y2.134
X6.189 Y2.221
X6.023 Y2.324
X5.948 Y2.379
X5.857 Y2.454
X5.761 Y2.545
X5.691 Y2.617
X5.609 Y2.711
X5.525 Y2.82
X5.489 Y2.877
X5.39 Y3.043
X5.359 Y3.102
X5.314 Y3.209
X5.251 Y3.376
X5.202 Y3.542
X5.193 Y3.594
X5.033 Y4.307
X4.906 Y5.027
X4.819 Y5.753
X4.762 Y6.482
X4.726 Y7.212
X4.704 Y7.943
X4.691 Y8.674
X4.683 Y9.405
X4.678 Y10.136
X4.675 Y10.867
X4.673 Y12.329
Y16.716
X4.681 Y54.001
X4.693 Y104.445
X4.705 Y154.889
X4.708 Y165.124
X4.794 Y165.48
X4.96 Y165.805
X5.417 Y166.376
X6.04 Y166.758
X6.731 Y166.997
X7.448 Y167.142
X8.174 Y167.228
X8.903 Y167.278
X9.634 Y167.308
X10.364 Y167.325
X11.095 Y167.335
X11.826 Y167.34
X12.558 Y167.343
X14.02 Y167.346
X18.406 Y167.347
X43.994 Y167.345
X94.438 Y167.34
X141.227 Y167.336
X141.576 Y167.226
X141.89 Y167.039
X142.43 Y166.547
X142.788 Y165.909
X143.01 Y165.212
X143.143 Y164.494
X143.222 Y163.767
X143.268 Y163.037
X143.295 Y162.307
X143.311 Y161.576
X143.32 Y160.845
X143.325 Y160.114
X143.328 Y159.383
X143.33 Y157.92
X143.332 Y152.803
X143.333 Y114.056
X143.334 Y63.612
X143.335 Y13.167
Y7.319
X143.334 Y6.953
X143.265 Y6.594
X142.974 Y5.923
X142.906 Y5.798
X142.864 Y5.661
X142.85 Y5.519
Y4.372
X142.844 Y4.04
X142.841 Y3.874
X142.826 Y3.708
X142.798 Y3.542
G3 X143.333 Y3.29 I0.307 J-0.042
G1 X143.38 Y3.341 Z-0.992
X143.424 Y3.389 Z-0.969
X143.464 Y3.432 Z-0.932
X143.497 Y3.468 Z-0.883
X143.522 Y3.495 Z-0.825
X143.537 Y3.512 Z-0.759
X143.543 Y3.518 Z-0.69
G0 Z5
X4.992 Y2.524
Z-0.38
G1 Z-0.69 F500
X4.995 Y2.532 Z-0.759
X5.003 Y2.553 Z-0.825
X5.016 Y2.588 Z-0.883
X5.034 Y2.633 Z-0.932
X5.055 Y2.688 Z-0.969
X5.078 Y2.75 Z-0.992
X5.103 Y2.814 Z-1
G3 X5.193 Y3.594 I-1.478 J0.566
G1 X5.174 Y3.708
X5.159 Y3.874
X5.152 Y4.206
X5.15 Y4.372
Y163.808
X5.164 Y164.223
X5.168 Y164.265
X5.173 Y164.306
X5.209 Y164.473
X5.257 Y164.639
X5.316 Y164.805
X5.399 Y164.971
X5.501 Y165.137
X5.525 Y165.172
X5.618 Y165.303
X5.691 Y165.38
X5.857 Y165.544
X5.973 Y165.635
X6.023 Y165.671
X6.189 Y165.779
X6.355 Y165.866
X6.521 Y165.93
X6.63 Y165.967
X6.853 Y166.019
X7.019 Y166.039
X7.185 Y166.047
X7.683 Y166.05
X140.317
X140.815 Y166.047
X140.981 Y166.039
X141.147 Y166.019
X141.37 Y165.967
X141.479 Y165.93
X141.645 Y165.866
X141.811 Y165.779
X141.977 Y165.671
X142.027 Y165.635
X142.143 Y165.544
X142.309 Y165.38
X142.382 Y165.303
X142.475 Y165.172
X142.499 Y165.137
X142.601 Y164.971
X142.684 Y164.805
X142.743 Y164.639
X142.791 Y164.473
X142.827 Y164.306
X142.832 Y164.265
X142.836 Y164.223
X142.85 Y163.808
Y5.519
G3 X143.159 Y5.22 I0.31 J0.011
G1 X143.16
X143.212 Y5.233 Z-0.995
X143.262 Y5.246 Z-0.981
X143.309 Y5.259 Z-0.957
X143.347 Y5.294 Z-0.919
X143.378 Y5.322 Z-0.871
X143.401 Y5.344 Z-0.815
X143.415 Y5.357 Z-0.754
X143.42 Y5.362 Z-0.69
G0 Z5
X-0.301 Y-3.588
Z-1.38
G1 Z-1.69 F500
X-0.299 Y-3.581 Z-1.759
X-0.293 Y-3.558 Z-1.825
X-0.284 Y-3.523 Z-1.883
X-0.272 Y-3.475 Z-1.932
X-0.257 Y-3.418 Z-1.969
X-0.241 Y-3.355 Z-1.992
X-0.224 Y-3.288 Z-2
G3 X0.019 Y-1.6 I-7.667 J1.964
G1 Y-1.45
X-0.128 Y-0.734
X-0.205 Y-0.007
X-0.246 Y0.723
X-0.268 Y1.454
X-0.279 Y2.185
X-0.284 Y2.916
X-0.287 Y3.647
X-0.289 Y5.109
X-0.288 Y12.42
X-0.28 Y48.974
X-0.268 Y99.418
X-0.256 Y149.862
X-0.251 Y170.515
X-0.234 Y170.697
X-0.172 Y170.869
X0.02 Y171.18
X0.285 Y171.431
X0.898 Y171.83
X1.595 Y172.053
X2.316 Y172.174
X3.044 Y172.238
X3.774 Y172.272
X4.505 Y172.289
X5.236 Y172.298
X5.967 Y172.303
X6.698 Y172.305
X8.16 Y172.307
X20.589
X28.63 Y172.306
X79.075 Y172.301
X129.519 Y172.297
X146.517 Y172.295
X146.698 Y172.271
X147.037 Y172.134
X147.313 Y171.894
X147.754 Y171.311
X148.004 Y170.624
X148.139 Y169.906
X148.212 Y169.178
X148.25 Y168.448
X148.27 Y167.718
X148.28 Y166.987
X148.286 Y166.255
X148.288 Y165.524
X148.291 Y164.062
X148.292 Y155.289
Y139.937
X148.293 Y89.492
X148.294 Y39.048
X148.295 Y1.398
X148.247 Y1.221
X148.079 Y0.896
X147.827 Y0.632
X147.228 Y0.212
X146.537 Y-0.025
X145.817 Y-0.153
X145.089 Y-0.221
X144.359 Y-0.257
X143.628 Y-0.276
X142.897 Y-0.286
X142.166 Y-0.291
X141.435 Y-0.294
X139.973 Y-0.296
X136.317
X85.873
X35.429 Y-0.295
X2.713
X2.536 Y-0.249
X2.208 Y-0.089
X1.937 Y0.157
X1.501 Y0.744
X1.25 Y1.43
X1.111 Y2.148
X1.036 Y2.875
X0.995 Y3.605
X0.974 Y4.336
X0.963 Y5.067
X0.957 Y5.798
X0.954 Y6.529
X0.952 Y7.991
Y13.84
X0.953 Y16.764
X0.965 Y67.209
X0.977 Y117.653
X0.988 Y168.097
X0.989 Y168.828
X1.017 Y169.193
X1.146 Y169.535
X1.357 Y169.833
X1.889 Y170.335
X2.55 Y170.647
X3.258 Y170.831
X3.981 Y170.936
X4.71 Y170.995
X5.44 Y171.028
X6.171 Y171.046
X6.902 Y171.056
X7.633 Y171.062
X8.364 Y171.064
X9.826 Y171.067
X15.675
X49.305 Y171.064
X99.749 Y171.06
X145.076 Y171.055
X145.428 Y170.957
X145.74 Y170.767
X146.268 Y170.261
X146.6 Y169.61
X146.797 Y168.906
X146.909 Y168.183
X146.973 Y167.455
X147.008 Y166.725
X147.028 Y165.994
X147.039 Y165.263
X147.045 Y164.532
X147.048 Y163.801
X147.05 Y162.339
X147.052 Y157.221
Y116.281
X147.054 Y65.837
X147.055 Y15.392
Y2.964
X146.967 Y2.609
X146.786 Y2.292
X146.294 Y1.751
X145.647 Y1.41
X144.945 Y1.207
X144.223 Y1.091
X143.495 Y1.025
X142.765 Y0.988
X142.034 Y0.968
X141.303 Y0.957
X140.572 Y0.951
X139.841 Y0.948
X138.379 Y0.945
X133.261 Y0.944
X109.867
X59.423
X8.978 Y0.945
X4.226
X3.872 Y1.035
X3.555 Y1.216
X3.013 Y1.707
X2.668 Y2.352
X2.462 Y3.053
X2.343 Y3.774
X2.275 Y4.502
X2.237 Y5.233
X2.216 Y5.963
X2.205 Y6.694
X2.198 Y7.425
X2.195 Y8.156
X2.192 Y9.619
Y14.005
X2.199 Y45.441
X2.211 Y95.886
X2.223 Y146.33
X2.228 Y167.531
X2.275 Y167.894
X2.409 Y168.234
X2.618 Y168.533
X3.146 Y169.04
X3.801 Y169.364
X4.505 Y169.56
X5.227 Y169.675
X5.955 Y169.741
X6.685 Y169.779
X7.416 Y169.801
X8.147 Y169.813
X8.878 Y169.819
X9.609 Y169.823
X11.071 Y169.826
X14.727 Y169.827
X30.079 Y169.826
X80.524 Y169.821
X130.968 Y169.817
X143.396 Y169.816
X143.761 Y169.797
X144.112 Y169.695
X144.426 Y169.508
X144.963 Y169.011
X145.31 Y168.367
X145.521 Y167.668
X145.646 Y166.947
X145.717 Y166.22
X145.759 Y165.49
X145.782 Y164.759
X145.795 Y164.028
X145.802 Y163.297
X145.806 Y162.566
X145.809 Y161.835
X145.811 Y159.642
X145.812 Y133.323
X145.813 Y82.879
X145.814 Y32.434
X145.815 Y4.653
X145.805 Y4.288
X145.716 Y3.933
X145.539 Y3.613
X145.058 Y3.063
X144.421 Y2.705
X143.723 Y2.486
X143.004 Y2.357
X142.277 Y2.282
X142.038 Y2.268
X141.936 Y2.254
X141.837 Y2.227
X141.742 Y2.185
X141.645 Y2.134
X141.416 Y2.047
X141.313 Y2.019
X141.147 Y1.981
X140.981 Y1.961
X140.815 Y1.953
X140.317 Y1.95
X7.683
X7.185 Y1.953
X7.019 Y1.961
X6.853 Y1.981
X6.826 Y1.987
X6.547 Y2.037
X5.82 Y2.109
X5.457 Y2.151
X5.11 Y2.268
X4.801 Y2.463
X4.274 Y2.969
X3.931 Y3.615
X3.722 Y4.315
X3.598 Y5.036
X3.526 Y5.763
X3.484 Y6.493
X3.461 Y7.224
X3.448 Y7.955
X3.44 Y8.686
X3.436 Y9.417
X3.434 Y10.148
X3.432 Y11.61
X3.433 Y18.921
X3.441 Y50.357
X3.453 Y100.802
X3.464 Y151.246
X3.468 Y166.233
X3.518 Y166.595
X3.648 Y166.937
X3.853 Y167.24
X4.37 Y167.756
X5.02 Y168.091
X5.721 Y168.297
X6.442 Y168.419
X7.17 Y168.491
X7.9 Y168.533
X8.63 Y168.556
X9.361 Y168.57
X10.092 Y168.578
X10.823 Y168.582
X11.554 Y168.584
X13.017 Y168.587
X18.865
X37.873 Y168.585
X88.318 Y168.581
X138.762 Y168.576
X142.417
X142.771 Y168.483
X143.092 Y168.308
X143.649 Y167.835
X144.017 Y167.203
X144.245 Y166.508
X144.382 Y165.79
X144.462 Y165.063
X144.509 Y164.334
X144.536 Y163.603
X144.551 Y162.872
X144.56 Y162.141
X144.565 Y161.41
X144.568 Y160.679
X144.57 Y159.217
X144.572 Y154.099
Y122.663
X144.573 Y72.219
X144.574 Y21.775
X144.575 Y5.691
X144.511 Y5.331
X144.361 Y4.998
X144.142 Y4.705
X143.607 Y4.207
X143.189 Y4.005
X143.016 Y3.889
X142.883 Y3.731
X142.798 Y3.542
X142.749 Y3.376
X142.686 Y3.209
X142.641 Y3.102
X142.61 Y3.043
X142.511 Y2.877
X142.475 Y2.82
X142.391 Y2.711
X142.309 Y2.617
X142.239 Y2.545
X142.143 Y2.454
X142.052 Y2.379
X141.977 Y2.324
X141.811 Y2.221
X141.742 Y2.185
G3 X141.87 Y1.608 I0.154 J-0.269
G1 X141.938 Y1.602 Z-1.992
X142.004 Y1.596 Z-1.969
X142.062 Y1.591 Z-1.932
X142.111 Y1.586 Z-1.883
X142.148 Y1.583 Z-1.825
X142.171 Y1.581 Z-1.759
X142.179 Z-1.69
G0 Z5
X7.733 Y1.386
Z-1.38
G1 Z-1.69 F500
X7.728 Y1.391 Z-1.759
X7.711 Y1.407 Z-1.825
X7.684 Y1.433 Z-1.883
X7.649 Y1.467 Z-1.932
X7.607 Y1.507 Z-1.969
X7.559 Y1.553 Z-1.992
X7.51 Y1.601 Z-2
G3 X6.826 Y1.987 I-1.096 J-1.142
G1 X6.687 Y2.019
X6.584 Y2.047
X6.355 Y2.134
X6.189 Y2.221
X6.023 Y2.324
X5.948 Y2.379
X5.857 Y2.454
X5.761 Y2.545
X5.691 Y2.617
X5.609 Y2.711
X5.525 Y2.82
X5.489 Y2.877
X5.39 Y3.043
X5.359 Y3.102
X5.314 Y3.209
X5.251 Y3.376
X5.202 Y3.542
X5.193 Y3.594
X5.033 Y4.307
X4.906 Y5.027
X4.819 Y5.753
X4.762 Y6.482
X4.726 Y7.212
X4.704 Y7.943
X4.691 Y8.674
X4.683 Y9.405
X4.678 Y10.136
X4.675 Y10.867
X4.673 Y12.329
Y16.716
X4.681 Y54.001
X4.693 Y104.445
X4.705 Y154.889
X4.708 Y165.124
X4.794 Y165.48
X4.96 Y165.805
X5.417 Y166.376
X6.04 Y166.758
X6.731 Y166.997
X7.448 Y167.142
X8.174 Y167.228
X8.903 Y167.278
X9.634 Y167.308
X10.364 Y167.325
X11.095 Y167.335
X11.826 Y167.34
X12.558 Y167.343
X14.02 Y167.346
X18.406 Y167.347
X43.994 Y167.345
X94.438 Y167.34
X141.227 Y167.336
X141.576 Y167.226
X141.89 Y167.039
X142.43 Y166.547
X142.788 Y165.909
X143.01 Y165.212
X143.143 Y164.494
X143.222 Y163.767
X143.268 Y163.037
X143.295 Y162.307
X143.311 Y161.576
X143.32 Y160.845
X143.325 Y160.114
X143.328 Y159.383
X143.33 Y157.92
X143.332 Y152.803
X143.333 Y114.056
X143.334 Y63.612
X143.335 Y13.167
Y7.319
X143.334 Y6.953
X143.265 Y6.594
X142.974 Y5.923
X142.906 Y5.798
X142.864 Y5.661
X142.85 Y5.519
Y4.372
X142.844 Y4.04
X142.841 Y3.874
X142.826 Y3.708
X142.798 Y3.542
G3 X143.333 Y3.29 I0.307 J-0.042
G1 X143.38 Y3.341 Z-1.992
X143.424 Y3.389 Z-1.969
X143.464 Y3.432 Z-1.932
X143.497 Y3.468 Z-1.883
X143.522 Y3.495 Z-1.825
X143.537 Y3.512 Z-1.759
X143.543 Y3.518 Z-1.69
G0 Z5
X4.992 Y2.524
Z-1.38
G1 Z-1.69 F500
X4.995 Y2.532 Z-1.759
X5.003 Y2.553 Z-1.825
X5.016 Y2.588 Z-1.883
X5.034 Y2.633 Z-1.932
X5.055 Y2.688 Z-1.969
X5.078 Y2.75 Z-1.992
X5.103 Y2.814 Z-2
G3 X5.193 Y3.594 I-1.478 J0.566
G1 X5.174 Y3.708
X5.159 Y3.874
X5.152 Y4.206
X5.15 Y4.372
Y163.808
X5.164 Y164.223
X5.168 Y164.265
X5.173 Y164.306
X5.209 Y164.473
X5.257 Y164.639
X5.316 Y164.805
X5.399 Y164.971
X5.501 Y165.137
X5.525 Y165.172
X5.618 Y165.303
X5.691 Y165.38
X5.857 Y165.544
X5.973 Y165.635
X6.023 Y165.671
X6.189 Y165.779
X6.355 Y165.866
X6.521 Y165.93
X6.63 Y165.967
X6.853 Y166.019
X7.019 Y166.039
X7.185 Y166.047
X7.683 Y166.05
X140.317
X140.815 Y166.047
X140.981 Y166.039
X141.147 Y166.019
X141.37 Y165.967
X141.479 Y165.93
X141.645 Y165.866
X141.811 Y165.779
X141.977 Y165.671
X142.027 Y165.635
X142.143 Y165.544
X142.309 Y165.38
X142.382 Y165.303
X142.475 Y165.172
X142.499 Y165.137
X142.601 Y164.971
X142.684 Y164.805
X142.743 Y164.639
X142.791 Y164.473
X142.827 Y164.306
X142.832 Y164.265
X142.836 Y164.223
X142.85 Y163.808
Y5.519
G3 X143.159 Y5.22 I0.31 J0.011
G1 X143.16
X143.212 Y5.233 Z-1.995
X143.262 Y5.246 Z-1.981
X143.309 Y5.259 Z-1.957
X143.347 Y5.294 Z-1.919
X143.378 Y5.322 Z-1.871
X143.401 Y5.344 Z-1.815
X143.415 Y5.357 Z-1.754
X143.42 Y5.362 Z-1.69
G0 Z5
X-0.301 Y-3.588
Z-2.38
G1 Z-2.69 F500
X-0.299 Y-3.581 Z-2.759
X-0.293 Y-3.558 Z-2.825
X-0.284 Y-3.523 Z-2.883
X-0.272 Y-3.475 Z-2.932
X-0.257 Y-3.418 Z-2.969
X-0.241 Y-3.355 Z-2.992
X-0.224 Y-3.288 Z-3
G3 X0.019 Y-1.6 I-7.667 J1.964
G1 Y-1.45
X-0.128 Y-0.734
X-0.205 Y-0.007
X-0.246 Y0.723
X-0.268 Y1.454
X-0.279 Y2.185
X-0.284 Y2.916
X-0.287 Y3.647
X-0.289 Y5.109
X-0.288 Y12.42
X-0.28 Y48.974
X-0.268 Y99.418
X-0.256 Y149.862
X-0.251 Y170.515
X-0.234 Y170.697
X-0.172 Y170.869
X0.02 Y171.18
X0.285 Y171.431
X0.898 Y171.83
X1.595 Y172.053
X2.316 Y172.174
X3.044 Y172.238
X3.774 Y172.272
X4.505 Y172.289
X5.236 Y172.298
X5.967 Y172.303
X6.698 Y172.305
X8.16 Y172.307
X20.589
X28.63 Y172.306
X79.075 Y172.301
X129.519 Y172.297
X146.517 Y172.295
X146.698 Y172.271
X147.037 Y172.134
X147.313 Y171.894
X147.754 Y171.311
X148.004 Y170.624
X148.139 Y169.906
X148.212 Y169.178
X148.25 Y168.448
X148.27 Y167.718
X148.28 Y166.987
X148.286 Y166.255
X148.288 Y165.524
X148.291 Y164.062
X148.292 Y155.289
Y139.937
X148.293 Y89.492
X148.294 Y39.048
X148.295 Y1.398
X148.247 Y1.221
X148.079 Y0.896
X147.827 Y0.632
X147.228 Y0.212
X146.537 Y-0.025
X145.817 Y-0.153
X145.089 Y-0.221
X144.359 Y-0.257
X143.628 Y-0.276
X142.897 Y-0.286
X142.166 Y-0.291
X141.435 Y-0.294
X139.973 Y-0.296
X136.317
X85.873
X35.429 Y-0.295
X2.713
X2.536 Y-0.249
X2.208 Y-0.089
X1.937 Y0.157
X1.501 Y0.744
X1.25 Y1.43
X1.111 Y2.148
X1.036 Y2.875
X0.995 Y3.605
X0.974 Y4.336
X0.963 Y5.067
X0.957 Y5.798
X0.954 Y6.529
X0.952 Y7.991
Y13.84
X0.953 Y16.764
X0.965 Y67.209
X0.977 Y117.653
X0.988 Y168.097
X0.989 Y168.828
X1.017 Y169.193
X1.146 Y169.535
X1.357 Y169.833
X1.889 Y170.335
X2.55 Y170.647
X3.258 Y170.831
X3.981 Y170.936
X4.71 Y170.995
X5.44 Y171.028
X6.171 Y171.046
X6.902 Y171.056
X7.633 Y171.062
X8.364 Y171.064
X9.826 Y171.067
X15.675
X49.305 Y171.064
X99.749 Y171.06
X145.076 Y171.055
X145.428 Y170.957
X145.74 Y170.767
X146.268 Y170.261
X146.6 Y169.61
X146.797 Y168.906
X146.909 Y168.183
X146.973 Y167.455
X147.008 Y166.725
X147.028 Y165.994
X147.039 Y165.263
X147.045 Y164.532
X147.048 Y163.801
X147.05 Y162.339
X147.052 Y157.221
Y116.281
X147.054 Y65.837
X147.055 Y15.392
Y2.964
X146.967 Y2.609
X146.786 Y2.292
X146.294 Y1.751
X145.647 Y1.41
X144.945 Y1.207
X144.223 Y1.091
X143.495 Y1.025
X142.765 Y0.988
X142.034 Y0.968
X141.303 Y0.957
X140.572 Y0.951
X139.841 Y0.948
X138.379 Y0.945
X133.261 Y0.944
X109.867
X59.423
X8.978 Y0.945
X4.226
X3.872 Y1.035
X3.555 Y1.216
X3.013 Y1.707
X2.668 Y2.352
X2.656 Y2.392
X2.622 Y2.484
X2.576 Y2.571
X2.519 Y2.65
X2.371 Y2.828
X2.337 Y2.877
X2.238 Y3.043
X2.205 Y3.101
X2.159 Y3.209
X2.095 Y3.376
X2.046 Y3.542
X2.039 Y3.571
X2.017 Y3.708
X2.001 Y3.874
X1.994 Y4.206
X1.992 Y4.372
Y167.628
X1.998 Y167.96
X2.001 Y168.126
X2.017 Y168.292
X2.039 Y168.429
X2.046 Y168.458
X2.095 Y168.624
X2.159 Y168.791
X2.205 Y168.899
X2.238 Y168.957
X2.337 Y169.123
X2.371 Y169.172
X2.537 Y169.372
X2.626 Y169.455
X2.818 Y169.621
X2.869 Y169.657
X3.035 Y169.758
X3.087 Y169.787
X3.201 Y169.838
X3.367 Y169.902
X3.537 Y169.953
X3.699 Y169.982
X3.865 Y169.997
X4.197 Y170.006
X4.363 Y170.008
X143.637
X143.803 Y170.006
X144.135 Y169.997
X144.301 Y169.982
X144.467 Y169.952
X144.633 Y169.902
X144.799 Y169.838
X144.913 Y169.787
X144.965 Y169.758
X145.131 Y169.657
X145.182 Y169.621
X145.374 Y169.455
X145.463 Y169.372
X145.629 Y169.172
X145.663 Y169.123
X145.762 Y168.957
X145.795 Y168.899
X145.841 Y168.791
X145.905 Y168.624
X145.954 Y168.458
X145.961 Y168.429
X145.983 Y168.292
X145.999 Y168.126
X146.006 Y167.794
X146.008 Y167.628
Y4.372
X146.002 Y4.04
X145.999 Y3.874
X145.983 Y3.708
X145.961 Y3.571
X145.954 Y3.542
X145.905 Y3.376
X145.841 Y3.209
X145.795 Y3.101
X145.762 Y3.043
X145.663 Y2.877
X145.629 Y2.828
X145.463 Y2.628
X145.374 Y2.545
X145.182 Y2.379
X145.131 Y2.343
X144.965 Y2.242
X144.913 Y2.213
X144.799 Y2.162
X144.633 Y2.098
X144.463 Y2.047
X144.301 Y2.018
X144.135 Y2.003
X143.803 Y1.994
X143.637 Y1.992
X141.313
X141.147 Y1.981
X140.981 Y1.961
X140.815 Y1.953
X140.317 Y1.95
X7.683
X7.185 Y1.953
X7.019 Y1.961
X6.853 Y1.981
X6.687 Y1.992
X4.363
X4.197 Y1.994
X3.865 Y2.003
X3.699 Y2.018
X3.533 Y2.048
X3.367 Y2.098
X3.201 Y2.162
X3.087 Y2.213
X3.035 Y2.242
X2.869 Y2.343
X2.818 Y2.379
X2.626 Y2.545
X2.537 Y2.628
X2.519 Y2.65
G3 X2.09 Y2.683 I-0.232 J-0.206
G1 X2.059 Y2.64 Z-2.995
X2.028 Y2.598 Z-2.981
X1.999 Y2.558 Z-2.958
X1.991 Y2.513 Z-2.925
X1.983 Y2.475 Z-2.884
X1.977 Y2.444 Z-2.836
X1.979 Y2.424 Z-2.79
Y2.411 Z-2.741
X1.98 Y2.407 Z-2.69
G0 Z5
X8.733 Y1.259
Z-2.28
G1 Z-2.59 F500
X8.726 Y1.263 Z-2.659
X8.706 Y1.273 Z-2.725
X8.673 Y1.289 Z-2.783
X8.628 Y1.311 Z-2.832
X8.576 Y1.337 Z-2.869
X8.517 Y1.366 Z-2.892
X8.455 Y1.396 Z-2.9
G3 X6.853 Y1.981 I-3.498 J-7.099
G1 X6.687 Y2.015
X6.559 Y2.047
X6.521 Y2.05
X4.363
X4.197 Y2.053
X3.865 Y2.061
X3.699 Y2.077
X3.533 Y2.108
X3.367 Y2.159
X3.241 Y2.213
X3.035 Y2.317
X2.917 Y2.379
X2.869 Y2.413
X2.703 Y2.553
X2.543 Y2.711
X2.407 Y2.877
X2.371 Y2.93
X2.311 Y3.043
X2.205 Y3.258
X2.156 Y3.376
X2.107 Y3.542
X2.076 Y3.708
X2.06 Y3.874
X2.053 Y4.206
X2.05 Y4.372
Y167.628
X2.053 Y167.794
X2.06 Y168.126
X2.076 Y168.292
X2.107 Y168.458
X2.156 Y168.624
X2.205 Y168.742
X2.311 Y168.957
X2.371 Y169.07
X2.407 Y169.123
X2.543 Y169.289
X2.703 Y169.447
X2.869 Y169.587
X2.917 Y169.621
X3.035 Y169.683
X3.241 Y169.787
X3.367 Y169.841
X3.533 Y169.892
X3.699 Y169.923
X3.865 Y169.939
X4.197 Y169.947
X4.363 Y169.95
X143.637
X143.803 Y169.947
X144.135 Y169.939
X144.301 Y169.923
X144.467 Y169.892
X144.633 Y169.841
X144.759 Y169.787
X144.965 Y169.683
X145.083 Y169.621
X145.131 Y169.587
X145.297 Y169.447
X145.457 Y169.289
X145.593 Y169.123
X145.629 Y169.07
X145.689 Y168.957
X145.795 Y168.742
X145.844 Y168.624
X145.893 Y168.458
X145.924 Y168.292
X145.94 Y168.126
X145.947 Y167.794
X145.95 Y167.628
Y4.372
X145.947 Y4.206
X145.94 Y3.874
X145.924 Y3.708
X145.893 Y3.542
X145.844 Y3.376
X145.795 Y3.258
X145.689 Y3.043
X145.629 Y2.93
X145.593 Y2.877
X145.457 Y2.711
X145.297 Y2.553
X145.131 Y2.413
X145.083 Y2.379
X144.965 Y2.317
X144.759 Y2.213
X144.633 Y2.159
X144.467 Y2.108
X144.301 Y2.077
X144.135 Y2.061
X143.803 Y2.053
X143.637 Y2.05
X141.479
X141.441 Y2.047
X141.313 Y2.015
G3 X141.096 Y1.644 I0.084 J-0.298
G1 X141.121 Y1.597 Z-2.895
X141.145 Y1.551 Z-2.881
X141.168 Y1.508 Z-2.858
X141.212 Y1.479 Z-2.819
X141.247 Y1.456 Z-2.771
X141.274 Y1.438 Z-2.716
X141.29 Y1.428 Z-2.654
X141.296 Y1.424 Z-2.59
G0 Z5
X8.689 Y1.225
Z-2.18
G1 Z-2.49 F500
X8.683 Y1.229 Z-2.559
X8.662 Y1.239 Z-2.625
X8.629 Y1.256 Z-2.683
X8.586 Y1.279 Z-2.732
X8.534 Y1.306 Z-2.769
X8.476 Y1.336 Z-2.792
X8.414 Y1.368 Z-2.8
G3 X6.826 Y1.987 I-3.651 J-7.022
G1 X6.687 Y2.019
X6.58 Y2.047
X6.521 Y2.067
X6.355 Y2.131
X6.314 Y2.142
X6.272 Y2.148
X6.189 Y2.15
X4.363
X4.197 Y2.153
X3.793 Y2.164
X3.305 Y2.287
X3.284 Y2.296
X3.111 Y2.379
X2.843 Y2.559
X2.552 Y2.852
X2.544 Y2.862
X2.371 Y3.127
X2.331 Y3.209
X2.284 Y3.313
X2.278 Y3.334
X2.164 Y3.801
X2.162 Y3.811
X2.153 Y4.206
X2.15 Y4.372
Y167.628
X2.153 Y167.794
X2.162 Y168.189
X2.166 Y168.209
X2.28 Y168.676
X2.284 Y168.687
X2.331 Y168.791
X2.371 Y168.873
X2.544 Y169.138
X2.552 Y169.148
X2.843 Y169.441
X3.111 Y169.621
X3.295 Y169.709
X3.305 Y169.713
X3.793 Y169.836
X4.197 Y169.847
X4.363 Y169.85
X143.637
X143.803 Y169.847
X144.207 Y169.836
X144.695 Y169.713
X144.716 Y169.704
X144.889 Y169.621
X145.157 Y169.441
X145.448 Y169.148
X145.456 Y169.138
X145.629 Y168.873
X145.669 Y168.791
X145.716 Y168.687
X145.722 Y168.666
X145.836 Y168.199
X145.838 Y168.189
X145.847 Y167.794
X145.85 Y167.628
Y4.372
X145.847 Y4.206
X145.838 Y3.811
X145.834 Y3.791
X145.72 Y3.324
X145.716 Y3.313
X145.669 Y3.209
X145.629 Y3.127
X145.456 Y2.862
X145.448 Y2.852
X145.157 Y2.559
X144.889 Y2.379
X144.705 Y2.291
X144.695 Y2.287
X144.207 Y2.164
X143.803 Y2.153
X143.637 Y2.15
X141.811
X141.728 Y2.148
X141.686 Y2.142
X141.645 Y2.131
X141.479 Y2.067
X141.42 Y2.047
X141.313 Y2.019
G3 X141.1 Y1.645 I0.088 J-0.297
G1 X141.126 Y1.598 Z-2.795
X141.151 Y1.552 Z-2.781
X141.174 Y1.51 Z-2.758
X141.218 Y1.482 Z-2.719
X141.254 Y1.459 Z-2.671
X141.281 Y1.442 Z-2.616
X141.297 Y1.431 Z-2.554
X141.303 Y1.428 Z-2.49
G0 Z5
X8.334 Y1.053
Z-2.079
G1 Z-2.389 F500
X8.328 Y1.057 Z-2.458
X8.309 Y1.07 Z-2.524
X8.279 Y1.091 Z-2.582
X8.239 Y1.119 Z-2.631
X8.19 Y1.153 Z-2.668
X8.137 Y1.19 Z-2.691
X8.08 Y1.23 Z-2.699
G3 X6.584 Y2.047 I-4.52 J-6.497
G1 X6.355 Y2.134
X6.189 Y2.221
X6.023 Y2.324
X5.948 Y2.379
X5.857 Y2.454
X5.804 Y2.504
X5.69 Y2.601
X5.552 Y2.693
X5.366 Y2.796
X4.7 Y3.098
X4.413 Y3.325
X3.954 Y3.894
X3.692 Y4.576
X3.55 Y5.293
X3.474 Y6.02
X3.434 Y6.75
X3.413 Y7.481
X3.402 Y8.212
X3.396 Y8.943
X3.393 Y9.674
X3.391 Y11.136
X3.39 Y18.447
Y52.077
Y102.521
Y152.965
Y166.856
X3.425 Y167.035
X3.573 Y167.37
X3.816 Y167.643
X4.402 Y168.079
X5.091 Y168.326
X5.809 Y168.46
X6.537 Y168.532
X7.267 Y168.569
X7.998 Y168.589
X8.729 Y168.599
X9.46 Y168.604
X10.191 Y168.607
X11.653 Y168.609
X20.426 Y168.61
X39.434
X89.878
X140.323
X142.516
X142.881 Y168.606
X143.06 Y168.565
X143.39 Y168.409
X143.659 Y168.162
X144.089 Y167.57
X144.331 Y166.88
X144.463 Y166.161
X144.533 Y165.433
X144.57 Y164.703
X144.589 Y163.972
X144.599 Y163.241
X144.604 Y162.51
X144.607 Y161.779
X144.609 Y160.317
X144.61 Y150.813
Y121.57
Y71.126
Y20.681
Y5.329
X144.602 Y5.146
X144.567 Y4.967
X144.42 Y4.632
X144.178 Y4.358
X143.592 Y3.922
X143.17 Y3.77
X142.987 Y3.673
X142.839 Y3.528
X142.738 Y3.346
X142.686 Y3.209
X142.641 Y3.102
X142.61 Y3.043
X142.511 Y2.877
X142.475 Y2.82
X142.391 Y2.711
X142.309 Y2.617
X142.239 Y2.545
X142.143 Y2.454
X142.052 Y2.379
X141.977 Y2.324
X141.811 Y2.221
X141.712 Y2.169
G3 X141.839 Y1.592 I0.154 J-0.269
G1 X141.908 Y1.586 Z-2.691
X141.973 Y1.58 Z-2.668
X142.032 Y1.575 Z-2.631
X142.081 Y1.57 Z-2.582
X142.118 Y1.567 Z-2.524
X142.141 Y1.565 Z-2.458
X142.148 Z-2.389
G0 Z5
X6.289 Y1.53
Z-2.079
G1 Z-2.389 F500
X6.286 Y1.537 Z-2.458
X6.28 Y1.559 Z-2.524
X6.27 Y1.595 Z-2.582
X6.256 Y1.642 Z-2.631
X6.24 Y1.698 Z-2.668
X6.222 Y1.761 Z-2.691
X6.203 Y1.827 Z-2.699
G3 X5.804 Y2.504 I-1.52 J-0.439
G1 X5.761 Y2.545
X5.691 Y2.617
X5.609 Y2.711
X5.525 Y2.82
X5.489 Y2.877
X5.39 Y3.043
X5.359 Y3.102
X5.314 Y3.209
X5.251 Y3.376
X5.202 Y3.542
X5.193 Y3.594
X5.033 Y4.307
X4.895 Y5.025
X4.795 Y5.75
X4.73 Y6.478
X4.689 Y7.208
X4.665 Y7.938
X4.65 Y8.669
X4.641 Y9.4
X4.636 Y10.131
X4.634 Y10.862
X4.631 Y12.325
X4.63 Y17.442
Y53.996
Y104.44
Y154.885
Y165.12
X4.652 Y165.484
X4.776 Y165.829
X4.984 Y166.129
X5.514 Y166.633
X6.174 Y166.946
X6.881 Y167.131
X7.605 Y167.237
X8.333 Y167.297
X9.064 Y167.33
X9.795 Y167.348
X10.526 Y167.358
X11.257 Y167.364
X11.988 Y167.366
X13.45 Y167.369
X19.299 Y167.37
X43.424
X93.868
X141.388
X141.74 Y167.271
X142.053 Y167.081
X142.582 Y166.577
X142.916 Y165.926
X143.113 Y165.223
X143.227 Y164.5
X143.291 Y163.772
X143.327 Y163.042
X143.346 Y162.311
X143.357 Y161.58
X143.363 Y160.849
X143.366 Y160.118
X143.369 Y158.656
X143.37 Y153.538
Y114.791
Y64.347
Y13.903
Y6.592
X143.265 Y6.242
X142.936 Y5.627
X142.889 Y5.518
X142.86 Y5.404
X142.85 Y5.285
Y4.372
X142.844 Y4.04
X142.841 Y3.874
X142.826 Y3.708
X142.798 Y3.542
X142.749 Y3.376
X142.738 Y3.346
G3 X143.216 Y2.997 I0.293 J-0.1
G1 X143.271 Y3.038 Z-2.691
X143.324 Y3.076 Z-2.668
X143.371 Y3.111 Z-2.631
X143.411 Y3.14 Z-2.582
X143.44 Y3.162 Z-2.524
X143.459 Y3.176 Z-2.458
X143.465 Y3.181 Z-2.389
G0 Z5
X4.992 Y2.524
Z-2.079
G1 Z-2.389 F500
X4.995 Y2.532 Z-2.458
X5.003 Y2.553 Z-2.524
X5.016 Y2.588 Z-2.582
X5.034 Y2.633 Z-2.631
X5.055 Y2.688 Z-2.668
X5.078 Y2.75 Z-2.691
X5.103 Y2.814 Z-2.699
G3 X5.193 Y3.594 I-1.478 J0.566
G1 X5.174 Y3.708
X5.159 Y3.874
X5.152 Y4.206
X5.15 Y4.372
Y163.808
X5.164 Y164.223
X5.168 Y164.265
X5.173 Y164.306
X5.209 Y164.473
X5.257 Y164.639
X5.316 Y164.805
X5.399 Y164.971
X5.501 Y165.137
X5.525 Y165.172
X5.618 Y165.303
X5.691 Y165.38
X5.857 Y165.544
X5.973 Y165.635
X6.023 Y165.671
X6.189 Y165.779
X6.355 Y165.866
X6.521 Y165.93
X6.63 Y165.967
X6.853 Y166.019
X7.019 Y166.039
X7.185 Y166.047
X7.683 Y166.05
X140.317
X140.815 Y166.047
X140.981 Y166.039
X141.147 Y166.019
X141.37 Y165.967
X141.479 Y165.93
X141.645 Y165.866
X141.811 Y165.779
X141.977 Y165.671
X142.027 Y165.635
X142.143 Y165.544
X142.309 Y165.38
X142.382 Y165.303
X142.475 Y165.172
X142.499 Y165.137
X142.601 Y164.971
X142.684 Y164.805
X142.743 Y164.639
X142.791 Y164.473
X142.827 Y164.306
X142.832 Y164.265
X142.836 Y164.223
X142.85 Y163.808
Y5.285
G3 X143.159 Y4.986 I0.31 J0.011
G1 X143.16
X143.212 Y5 Z-2.694
X143.262 Y5.013 Z-2.68
X143.309 Y5.025 Z-2.656
X143.347 Y5.06 Z-2.618
X143.378 Y5.089 Z-2.57
X143.401 Y5.11 Z-2.514
X143.415 Y5.124 Z-2.453
X143.42 Y5.128 Z-2.389
G0 Z5
X-0.301 Y-3.588
Z-3.38
G1 Z-3.69 F500
X-0.299 Y-3.581 Z-3.759
X-0.293 Y-3.558 Z-3.825
X-0.284 Y-3.523 Z-3.883
X-0.272 Y-3.475 Z-3.932
X-0.257 Y-3.418 Z-3.969
X-0.241 Y-3.355 Z-3.992
X-0.224 Y-3.288 Z-4
G3 X0.019 Y-1.6 I-7.667 J1.964
G1 Y-1.45
X-0.128 Y-0.734
X-0.205 Y-0.007
X-0.246 Y0.723
X-0.268 Y1.454
X-0.279 Y2.185
X-0.284 Y2.916
X-0.287 Y3.647
X-0.289 Y5.109
X-0.288 Y12.42
X-0.28 Y48.974
X-0.268 Y99.418
X-0.256 Y149.862
X-0.251 Y170.515
X-0.234 Y170.697
X-0.172 Y170.869
X0.02 Y171.18
X0.285 Y171.431
X0.898 Y171.83
X1.595 Y172.053
X2.316 Y172.174
X3.044 Y172.238
X3.774 Y172.272
X4.505 Y172.289
X5.236 Y172.298
X5.967 Y172.303
X6.698 Y172.305
X8.16 Y172.307
X20.589
X28.63 Y172.306
X79.075 Y172.301
X129.519 Y172.297
X146.517 Y172.295
X146.698 Y172.271
X147.037 Y172.134
X147.313 Y171.894
X147.754 Y171.311
X148.004 Y170.624
X148.139 Y169.906
X148.212 Y169.178
X148.25 Y168.448
X148.27 Y167.718
X148.28 Y166.987
X148.286 Y166.255
X148.288 Y165.524
X148.291 Y164.062
X148.292 Y155.289
Y139.937
X148.293 Y89.492
X148.294 Y39.048
X148.295 Y1.398
X148.247 Y1.221
X148.079 Y0.896
X147.827 Y0.632
X147.228 Y0.212
X146.537 Y-0.025
X145.817 Y-0.153
X145.089 Y-0.221
X144.359 Y-0.257
X143.628 Y-0.276
X142.897 Y-0.286
X142.166 Y-0.291
X141.435 Y-0.294
X139.973 Y-0.296
X136.317
X85.873
X35.429 Y-0.295
X2.713
X2.536 Y-0.249
X2.208 Y-0.089
X1.937 Y0.157
X1.501 Y0.744
X1.25 Y1.43
X1.111 Y2.148
X1.036 Y2.875
X0.995 Y3.605
X0.974 Y4.336
X0.963 Y5.067
X0.957 Y5.798
X0.954 Y6.529
X0.952 Y7.991
Y13.84
X0.953 Y16.764
X0.965 Y67.209
X0.977 Y117.653
X0.988 Y168.097
X0.989 Y168.828
X1.017 Y169.193
X1.146 Y169.535
X1.357 Y169.833
X1.889 Y170.335
X2.55 Y170.647
X3.258 Y170.831
X3.981 Y170.936
X4.71 Y170.995
X5.44 Y171.028
X6.171 Y171.046
X6.902 Y171.056
X7.633 Y171.062
X8.364 Y171.064
X9.826 Y171.067
X15.675
X49.305 Y171.064
X99.749 Y171.06
X145.076 Y171.055
X145.428 Y170.957
X145.74 Y170.767
X146.268 Y170.261
X146.6 Y169.61
X146.797 Y168.906
X146.909 Y168.183
X146.973 Y167.455
X147.008 Y166.725
X147.028 Y165.994
X147.039 Y165.263
X147.045 Y164.532
X147.048 Y163.801
X147.05 Y162.339
X147.052 Y157.221
Y116.281
X147.054 Y65.837
X147.055 Y15.392
Y2.964
X146.967 Y2.609
X146.786 Y2.292
X146.294 Y1.751
X145.647 Y1.41
X144.945 Y1.207
X144.223 Y1.091
X143.495 Y1.025
X142.765 Y0.988
X142.034 Y0.968
X141.303 Y0.957
X140.572 Y0.951
X139.841 Y0.948
X138.379 Y0.945
X133.261 Y0.944
X109.867
X59.423
X8.978 Y0.945
X4.226
X3.872 Y1.035
X3.555 Y1.216
X3.013 Y1.707
X2.668 Y2.352
X2.632 Y2.428
X2.589 Y2.5
X2.537 Y2.567
X2.413 Y2.711
X2.371 Y2.761
X2.289 Y2.877
X2.19 Y3.043
X2.114 Y3.209
X2.051 Y3.376
X2.003 Y3.542
X1.975 Y3.708
X1.959 Y3.874
X1.952 Y4.206
X1.95 Y4.372
Y167.628
X1.956 Y167.96
X1.959 Y168.126
X1.975 Y168.292
X2.003 Y168.458
X2.051 Y168.624
X2.114 Y168.791
X2.19 Y168.957
X2.289 Y169.123
X2.371 Y169.239
X2.413 Y169.289
X2.537 Y169.433
X2.751 Y169.621
X2.81 Y169.669
X3.035 Y169.806
X3.201 Y169.883
X3.367 Y169.946
X3.533 Y169.995
X3.699 Y170.024
X3.865 Y170.039
X4.197 Y170.047
X4.363 Y170.05
X143.637
X143.803 Y170.047
X144.135 Y170.039
X144.301 Y170.024
X144.467 Y169.995
X144.633 Y169.946
X144.799 Y169.883
X144.965 Y169.806
X145.19 Y169.669
X145.249 Y169.621
X145.463 Y169.433
X145.587 Y169.289
X145.629 Y169.239
X145.711 Y169.123
X145.81 Y168.957
X145.886 Y168.791
X145.949 Y168.624
X145.997 Y168.458
X146.025 Y168.292
X146.041 Y168.126
X146.048 Y167.794
X146.05 Y167.628
Y4.372
X146.044 Y4.04
X146.041 Y3.874
X146.025 Y3.708
X145.997 Y3.542
X145.949 Y3.376
X145.886 Y3.209
X145.81 Y3.043
X145.711 Y2.877
X145.629 Y2.761
X145.587 Y2.711
X145.463 Y2.567
X145.249 Y2.379
X145.19 Y2.331
X144.965 Y2.194
X144.799 Y2.117
X144.633 Y2.054
X144.467 Y2.005
X144.301 Y1.976
X144.135 Y1.961
X143.803 Y1.953
X143.637 Y1.95
X4.363
X4.197 Y1.953
X3.865 Y1.961
X3.699 Y1.976
X3.533 Y2.005
X3.367 Y2.054
X3.201 Y2.117
X3.035 Y2.194
X2.81 Y2.331
X2.751 Y2.379
X2.537 Y2.567
G3 X2.109 Y2.532 I-0.196 J-0.24
G1 X2.084 Y2.484 Z-3.995
X2.061 Y2.438 Z-3.981
X2.038 Y2.394 Z-3.958
X2.034 Y2.359 Z-3.933
X2.031 Y2.327 Z-3.904
X2.036 Y2.291 Z-3.858
X2.04 Y2.264 Z-3.805
X2.042 Y2.248 Z-3.749
X2.043 Y2.242 Z-3.69
G0 Z5
X9.415 Y1.299
Z-2.48
G1 Z-2.79 F500
X9.409 Y1.303 Z-2.859
X9.389 Y1.315 Z-2.925
X9.358 Y1.334 Z-2.983
X9.316 Y1.359 Z-3.032
X9.265 Y1.39 Z-3.069
X9.209 Y1.424 Z-3.092
X9.15 Y1.459 Z-3.1
G3 X7.517 Y1.951 I-1.775 J-2.941
G1 X7.185 Y1.953
X7.019 Y1.958
X6.853 Y1.96
X4.363
X4.197 Y1.963
X3.865 Y1.971
X3.699 Y1.986
X3.533 Y2.015
X3.367 Y2.064
X3.201 Y2.128
X3.035 Y2.206
X2.869 Y2.307
X2.768 Y2.379
X2.537 Y2.58
X2.371 Y2.778
X2.301 Y2.877
X2.202 Y3.043
X2.125 Y3.209
X2.062 Y3.376
X2.014 Y3.542
X1.985 Y3.708
X1.969 Y3.874
X1.963 Y4.206
X1.96 Y4.372
Y167.628
X1.966 Y167.96
X1.969 Y168.126
X1.985 Y168.292
X2.014 Y168.458
X2.062 Y168.624
X2.125 Y168.791
X2.202 Y168.957
X2.301 Y169.123
X2.371 Y169.222
X2.537 Y169.42
X2.768 Y169.621
X2.869 Y169.693
X3.035 Y169.794
X3.201 Y169.872
X3.367 Y169.936
X3.533 Y169.985
X3.699 Y170.014
X3.865 Y170.029
X4.197 Y170.037
X4.363 Y170.04
X143.637
X143.803 Y170.037
X144.135 Y170.029
X144.301 Y170.014
X144.467 Y169.985
X144.633 Y169.936
X144.799 Y169.872
X144.965 Y169.794
X145.131 Y169.693
X145.232 Y169.621
X145.463 Y169.42
X145.629 Y169.222
X145.699 Y169.123
X145.798 Y168.957
X145.875 Y168.791
X145.938 Y168.624
X145.986 Y168.458
X146.015 Y168.292
X146.031 Y168.126
X146.037 Y167.794
X146.04 Y167.628
Y4.372
X146.034 Y4.04
X146.031 Y3.874
X146.015 Y3.708
X145.986 Y3.542
X145.938 Y3.376
X145.875 Y3.209
X145.798 Y3.043
X145.699 Y2.877
X145.629 Y2.778
X145.463 Y2.58
X145.232 Y2.379
X145.131 Y2.307
X144.965 Y2.206
X144.799 Y2.128
X144.633 Y2.064
X144.467 Y2.015
X144.301 Y1.986
X144.135 Y1.971
X143.803 Y1.963
X143.637 Y1.96
X141.147
X140.981 Y1.958
X140.815 Y1.953
X140.649 Y1.952
G3 X140.352 Y1.641 I0.013 J-0.31
G1 X140.365 Y1.589 Z-3.095
X140.378 Y1.538 Z-3.081
X140.391 Y1.491 Z-3.058
X140.426 Y1.454 Z-3.019
X140.455 Y1.423 Z-2.971
X140.477 Y1.4 Z-2.916
X140.491 Y1.385 Z-2.854
X140.495 Y1.38 Z-2.79
G0 Z5
X-0.301 Y-3.588
Z-4.38
G1 Z-4.69 F500
X-0.299 Y-3.581 Z-4.759
X-0.293 Y-3.558 Z-4.825
X-0.284 Y-3.523 Z-4.883
X-0.272 Y-3.475 Z-4.932
X-0.257 Y-3.418 Z-4.969
X-0.241 Y-3.355 Z-4.992
X-0.224 Y-3.288 Z-5
G3 X0.019 Y-1.6 I-7.667 J1.964
G1 Y-1.45
X-0.128 Y-0.734
X-0.205 Y-0.007
X-0.246 Y0.723
X-0.268 Y1.454
X-0.279 Y2.185
X-0.284 Y2.916
X-0.287 Y3.647
X-0.289 Y5.109
X-0.288 Y12.42
X-0.28 Y48.974
X-0.268 Y99.418
X-0.256 Y149.862
X-0.251 Y170.515
X-0.234 Y170.697
X-0.172 Y170.869
X0.02 Y171.18
X0.285 Y171.431
X0.898 Y171.83
X1.595 Y172.053
X2.316 Y172.174
X3.044 Y172.238
X3.774 Y172.272
X4.505 Y172.289
X5.236 Y172.298
X5.967 Y172.303
X6.698 Y172.305
X8.16 Y172.307
X20.589
X28.63 Y172.306
X79.075 Y172.301
X129.519 Y172.297
X146.517 Y172.295
X146.698 Y172.271
X147.037 Y172.134
X147.313 Y171.894
X147.754 Y171.311
X148.004 Y170.624
X148.139 Y169.906
X148.212 Y169.178
X148.25 Y168.448
X148.27 Y167.718
X148.28 Y166.987
X148.286 Y166.255
X148.288 Y165.524
X148.291 Y164.062
X148.292 Y155.289
Y139.937
X148.293 Y89.492
X148.294 Y39.048
X148.295 Y1.398
X148.247 Y1.221
X148.079 Y0.896
X147.827 Y0.632
X147.228 Y0.212
X146.537 Y-0.025
X145.817 Y-0.153
X145.089 Y-0.221
X144.359 Y-0.257
X143.628 Y-0.276
X142.897 Y-0.286
X142.166 Y-0.291
X141.435 Y-0.294
X139.973 Y-0.296
X136.317
X85.873
X35.429 Y-0.295
X2.713
X2.536 Y-0.249
X2.208 Y-0.089
X1.937 Y0.157
X1.501 Y0.744
X1.25 Y1.43
X1.111 Y2.148
X1.036 Y2.875
X0.995 Y3.605
X0.974 Y4.336
X0.963 Y5.067
X0.957 Y5.798
X0.954 Y6.529
X0.952 Y7.991
Y13.84
X0.953 Y16.764
X0.965 Y67.209
X0.977 Y117.653
X0.988 Y168.097
X0.989 Y168.828
X1.017 Y169.193
X1.146 Y169.535
X1.357 Y169.833
X1.889 Y170.335
X2.55 Y170.647
X3.258 Y170.831
X3.981 Y170.936
X4.71 Y170.995
X5.44 Y171.028
X6.171 Y171.046
X6.902 Y171.056
X7.633 Y171.062
X8.364 Y171.064
X9.826 Y171.067
X15.675
X49.305 Y171.064
X99.749 Y171.06
X145.076 Y171.055
X145.428 Y170.957
X145.74 Y170.767
X146.268 Y170.261
X146.6 Y169.61
X146.797 Y168.906
X146.909 Y168.183
X146.973 Y167.455
X147.008 Y166.725
X147.028 Y165.994
X147.039 Y165.263
X147.045 Y164.532
X147.048 Y163.801
X147.05 Y162.339
X147.052 Y157.221
Y116.281
X147.054 Y65.837
X147.055 Y15.392
Y2.964
X146.967 Y2.609
X146.786 Y2.292
X146.294 Y1.751
X145.647 Y1.41
X144.945 Y1.207
X144.223 Y1.091
X143.495 Y1.025
X142.765 Y0.988
X142.034 Y0.968
X141.303 Y0.957
X140.572 Y0.951
X139.841 Y0.948
X138.379 Y0.945
X133.261 Y0.944
X109.867
X59.423
X8.978 Y0.945
X4.226
X3.872 Y1.035
X3.555 Y1.216
X3.013 Y1.707
X2.668 Y2.352
X2.632 Y2.428
X2.589 Y2.5
X2.537 Y2.567
X2.413 Y2.711
X2.371 Y2.761
X2.289 Y2.877
X2.19 Y3.043
X2.114 Y3.209
X2.051 Y3.376
X2.003 Y3.542
X1.975 Y3.708
X1.959 Y3.874
X1.952 Y4.206
X1.95 Y4.372
Y167.628
X1.956 Y167.96
X1.959 Y168.126
X1.975 Y168.292
X2.003 Y168.458
X2.051 Y168.624
X2.114 Y168.791
X2.19 Y168.957
X2.289 Y169.123
X2.371 Y169.239
X2.413 Y169.289
X2.537 Y169.433
X2.751 Y169.621
X2.81 Y169.669
X3.035 Y169.806
X3.201 Y169.883
X3.367 Y169.946
X3.533 Y169.995
X3.699 Y170.024
X3.865 Y170.039
X4.197 Y170.047
X4.363 Y170.05
X143.637
X143.803 Y170.047
X144.135 Y170.039
X144.301 Y170.024
X144.467 Y169.995
X144.633 Y169.946
X144.799 Y169.883
X144.965 Y169.806
X145.19 Y169.669
X145.249 Y169.621
X145.463 Y169.433
X145.587 Y169.289
X145.629 Y169.239
X145.711 Y169.123
X145.81 Y168.957
X145.886 Y168.791
X145.949 Y168.624
X145.997 Y168.458
X146.025 Y168.292
X146.041 Y168.126
X146.048 Y167.794
X146.05 Y167.628
Y4.372
X146.044 Y4.04
X146.041 Y3.874
X146.025 Y3.708
X145.997 Y3.542
X145.949 Y3.376
X145.886 Y3.209
X145.81 Y3.043
X145.711 Y2.877
X145.629 Y2.761
X145.587 Y2.711
X145.463 Y2.567
X145.249 Y2.379
X145.19 Y2.331
X144.965 Y2.194
X144.799 Y2.117
X144.633 Y2.054
X144.467 Y2.005
X144.301 Y1.976
X144.135 Y1.961
X143.803 Y1.953
X143.637 Y1.95
X4.363
X4.197 Y1.953
X3.865 Y1.961
X3.699 Y1.976
X3.533 Y2.005
X3.367 Y2.054
X3.201 Y2.117
X3.035 Y2.194
X2.81 Y2.331
X2.751 Y2.379
X2.537 Y2.567
G3 X2.109 Y2.532 I-0.196 J-0.24
G1 X2.084 Y2.484 Z-4.995
X2.061 Y2.438 Z-4.981
X2.038 Y2.394 Z-4.958
X2.034 Y2.359 Z-4.933
X2.031 Y2.327 Z-4.904
X2.036 Y2.291 Z-4.858
X2.04 Y2.264 Z-4.805
X2.042 Y2.248 Z-4.749
X2.043 Y2.242 Z-4.69
G0 Z5
X-0.301 Y-3.588
Z-4.579
G1 Z-4.889 F500
X-0.299 Y-3.581 Z-4.958
X-0.293 Y-3.558 Z-5.024
X-0.284 Y-3.523 Z-5.082
X-0.272 Y-3.475 Z-5.131
X-0.257 Y-3.418 Z-5.168
X-0.241 Y-3.355 Z-5.191
X-0.224 Y-3.288 Z-5.199
G3 X0.019 Y-1.6 I-7.667 J1.964
G1 Y-1.45
X-0.128 Y-0.734
X-0.205 Y-0.007
X-0.246 Y0.723
X-0.268 Y1.454
X-0.279 Y2.185
X-0.284 Y2.916
X-0.287 Y3.647
X-0.289 Y5.109
X-0.288 Y12.42
X-0.28 Y48.974
X-0.268 Y99.418
X-0.256 Y149.862
X-0.251 Y170.515
X-0.234 Y170.697
X-0.172 Y170.869
X0.02 Y171.18
X0.285 Y171.431
X0.898 Y171.83
X1.595 Y172.053
X2.316 Y172.174
X3.044 Y172.238
X3.774 Y172.272
X4.505 Y172.289
X5.236 Y172.298
X5.967 Y172.303
X6.698 Y172.305
X8.16 Y172.307
X20.589
X28.63 Y172.306
X79.075 Y172.301
X129.519 Y172.297
X146.517 Y172.295
X146.698 Y172.271
X147.037 Y172.134
X147.313 Y171.894
X147.754 Y171.311
X148.004 Y170.624
X148.139 Y169.906
X148.212 Y169.178
X148.25 Y168.448
X148.27 Y167.718
X148.28 Y166.987
X148.286 Y166.255
X148.288 Y165.524
X148.291 Y164.062
X148.292 Y155.289
Y139.937
X148.293 Y89.492
X148.294 Y39.048
X148.295 Y1.398
X148.247 Y1.221
X148.079 Y0.896
X147.827 Y0.632
X147.228 Y0.212
X146.537 Y-0.025
X145.817 Y-0.153
X145.089 Y-0.221
X144.359 Y-0.257
X143.628 Y-0.276
X142.897 Y-0.286
X142.166 Y-0.291
X141.435 Y-0.294
X139.973 Y-0.296
X136.317
X85.873
X35.429 Y-0.295
X2.713
X2.536 Y-0.249
X2.208 Y-0.089
X1.937 Y0.157
X1.501 Y0.744
X1.25 Y1.43
X1.111 Y2.148
X1.036 Y2.875
X0.995 Y3.605
X0.974 Y4.336
X0.963 Y5.067
X0.957 Y5.798
X0.954 Y6.529
X0.952 Y7.991
Y13.84
X0.953 Y16.764
X0.965 Y67.209
X0.977 Y117.653
X0.988 Y168.097
X0.989 Y168.828
X1.017 Y169.193
X1.146 Y169.535
X1.357 Y169.833
X1.889 Y170.335
X2.55 Y170.647
X3.258 Y170.831
X3.981 Y170.936
X4.71 Y170.995
X5.44 Y171.028
X6.171 Y171.046
X6.902 Y171.056
X7.633 Y171.062
X8.364 Y171.064
X9.826 Y171.067
X15.675
X49.305 Y171.064
X99.749 Y171.06
X145.076 Y171.055
X145.428 Y170.957
X145.74 Y170.767
X146.268 Y170.261
X146.6 Y169.61
X146.797 Y168.906
X146.909 Y168.183
X146.973 Y167.455
X147.008 Y166.725
X147.028 Y165.994
X147.039 Y165.263
X147.045 Y164.532
X147.048 Y163.801
X147.05 Y162.339
X147.052 Y157.221
Y116.281
X147.054 Y65.837
X147.055 Y15.392
Y2.964
X146.967 Y2.609
X146.786 Y2.292
X146.294 Y1.751
X145.647 Y1.41
X144.945 Y1.207
X144.223 Y1.091
X143.495 Y1.025
X142.765 Y0.988
X142.034 Y0.968
X141.303 Y0.957
X140.572 Y0.951
X139.841 Y0.948
X138.379 Y0.945
X133.261 Y0.944
X109.867
X59.423
X8.978 Y0.945
X4.226
X3.872 Y1.035
X3.555 Y1.216
X3.013 Y1.707
X2.668 Y2.352
X2.632 Y2.428
X2.589 Y2.5
X2.537 Y2.567
X2.413 Y2.711
X2.371 Y2.761
X2.289 Y2.877
X2.19 Y3.043
X2.114 Y3.209
X2.051 Y3.376
X2.003 Y3.542
X1.975 Y3.708
X1.959 Y3.874
X1.952 Y4.206
X1.95 Y4.372
Y167.628
X1.956 Y167.96
X1.959 Y168.126
X1.975 Y168.292
X2.003 Y168.458
X2.051 Y168.624
X2.114 Y168.791
X2.19 Y168.957
X2.289 Y169.123
X2.371 Y169.239
X2.413 Y169.289
X2.537 Y169.433
X2.751 Y169.621
X2.81 Y169.669
X3.035 Y169.806
X3.201 Y169.883
X3.367 Y169.946
X3.533 Y169.995
X3.699 Y170.024
X3.865 Y170.039
X4.197 Y170.047
X4.363 Y170.05
X143.637
X143.803 Y170.047
X144.135 Y170.039
X144.301 Y170.024
X144.467 Y169.995
X144.633 Y169.946
X144.799 Y169.883
X144.965 Y169.806
X145.19 Y169.669
X145.249 Y169.621
X145.463 Y169.433
X145.587 Y169.289
X145.629 Y169.239
X145.711 Y169.123
X145.81 Y168.957
X145.886 Y168.791
X145.949 Y168.624
X145.997 Y168.458
X146.025 Y168.292
X146.041 Y168.126
X146.048 Y167.794
X146.05 Y167.628
Y4.372
X146.044 Y4.04
X146.041 Y3.874
X146.025 Y3.708
X145.997 Y3.542
X145.949 Y3.376
X145.886 Y3.209
X145.81 Y3.043
X145.711 Y2.877
X145.629 Y2.761
X145.587 Y2.711
X145.463 Y2.567
X145.249 Y2.379
X145.19 Y2.331
X144.965 Y2.194
X144.799 Y2.117
X144.633 Y2.054
X144.467 Y2.005
X144.301 Y1.976
X144.135 Y1.961
X143.803 Y1.953
X143.637 Y1.95
X4.363
X4.197 Y1.953
X3.865 Y1.961
X3.699 Y1.976
X3.533 Y2.005
X3.367 Y2.054
X3.201 Y2.117
X3.035 Y2.194
X2.81 Y2.331
X2.751 Y2.379
X2.537 Y2.567
G3 X2.043 Y2.242 I-0.196 J-0.24
G1 X2.062 Y2.176 Z-5.191
X2.079 Y2.113 Z-5.168
X2.096 Y2.056 Z-5.131
X2.109 Y2.009 Z-5.082
X2.119 Y1.974 Z-5.024
X2.125 Y1.951 Z-4.958
X2.127 Y1.944 Z-4.889
G0 Z15
M5
M30
