(1001)
(WC rechts)
(T1  D=3.1 CR=0 - ZMIN=-18.5 - flat end mill)
G90 G94
G17
G21

(Adaptive1)
S10000 M3
G54
G0 Z10
G0 X-0.317 Y-3.541
G1 Z-0.678 F1000
X-0.315 Y-3.533 Z-0.747
X-0.31 Y-3.511 Z-0.812
X-0.301 Y-3.475 Z-0.871
X-0.288 Y-3.428 Z-0.92
X-0.274 Y-3.371 Z-0.957
X-0.258 Y-3.308 Z-0.98
X-0.24 Y-3.241 Z-0.988
G3 X0.002 Y-1.553 I-7.667 J1.964
G1 Y-1.523
X-0.054 Y-1.243
X-0.101 Y-0.961
X-0.139 Y-0.678
X-0.17 Y-0.394
X-0.195 Y-0.11
X-0.216 Y0.175
X-0.233 Y0.46
X-0.246 Y0.745
X-0.257 Y1.031
X-0.266 Y1.316
X-0.274 Y1.601
X-0.28 Y1.887
X-0.285 Y2.173
X-0.289 Y2.458
X-0.292 Y2.744
X-0.294 Y3.029
X-0.297 Y3.315
X-0.298 Y3.6
X-0.3 Y3.886
X-0.301 Y4.172
X-0.303 Y4.743
X-0.304 Y5.314
X-0.305 Y6.171
Y7.599
X-0.306 Y10.74
X-0.308 Y38.156
X-0.216 Y38.426
X-0.053 Y38.661
X0.152 Y38.86
X0.383 Y39.026
X0.633 Y39.166
X0.894 Y39.281
X1.163 Y39.376
X1.438 Y39.455
X1.716 Y39.519
X1.997 Y39.572
X2.279 Y39.615
X2.562 Y39.651
X2.847 Y39.68
X3.131 Y39.703
X3.416 Y39.722
X3.701 Y39.738
X3.987 Y39.751
X4.272 Y39.761
X4.557 Y39.769
X4.843 Y39.776
X5.128 Y39.782
X5.414 Y39.786
X5.7 Y39.79
X5.985 Y39.793
X6.271 Y39.795
X6.556 Y39.797
X6.842 Y39.799
X7.127 Y39.8
X7.699 Y39.802
X8.27 Y39.804
X9.126 Y39.805
X9.412
X10.84 Y39.806
X14.267
X53.106 Y39.808
X53.386 Y39.75
X53.631 Y39.603
X53.84 Y39.409
X54.015 Y39.184
X54.162 Y38.939
X54.284 Y38.68
X54.385 Y38.413
X54.468 Y38.14
X54.536 Y37.863
X54.592 Y37.583
X54.638 Y37.301
X54.676 Y37.018
X54.706 Y36.734
X54.731 Y36.449
X54.752 Y36.164
X54.768 Y35.879
X54.782 Y35.594
X54.793 Y35.309
X54.802 Y35.023
X54.809 Y34.738
X54.815 Y34.452
X54.82 Y34.167
X54.824 Y33.881
X54.827 Y33.596
X54.829 Y33.31
X54.831 Y33.024
X54.833 Y32.739
X54.835 Y32.453
X54.836 Y32.168
X54.837 Y31.596
X54.838 Y31.025
X54.84 Y30.169
Y28.741
X54.841 Y25.599
X54.842 Y1.325
X54.746 Y1.056
X54.58 Y0.824
X54.373 Y0.627
X54.14 Y0.461
X53.89 Y0.323
X53.628 Y0.209
X53.359 Y0.115
X53.084 Y0.037
X52.806 Y-0.027
X52.525 Y-0.079
X52.243 Y-0.122
X51.959 Y-0.157
X51.675 Y-0.185
X51.39 Y-0.208
X51.105 Y-0.227
X50.82 Y-0.243
X50.535 Y-0.255
X50.25 Y-0.266
X49.964 Y-0.274
X49.679 Y-0.281
X49.393 Y-0.286
X49.108 Y-0.29
X48.822 Y-0.294
X48.536 Y-0.297
X48.251 Y-0.299
X47.965 Y-0.301
X47.68 Y-0.303
X47.394 Y-0.304
X46.823 Y-0.306
X46.252 Y-0.307
X45.395 Y-0.308
X44.253 Y-0.309
X41.968
X37.684
X2.843 Y-0.308
X2.701 Y-0.3
X2.424 Y-0.228
X2.182 Y-0.077
X1.974 Y0.119
X1.798 Y0.343
X1.649 Y0.587
X1.525 Y0.844
X1.421 Y1.111
X1.335 Y1.383
X1.264 Y1.659
X1.205 Y1.939
X1.157 Y2.22
X1.117 Y2.503
X1.084 Y2.787
X1.057 Y3.071
X1.035 Y3.356
X1.016 Y3.641
X1.001 Y3.926
X0.989 Y4.211
X0.979 Y4.497
X0.971 Y4.782
X0.964 Y5.068
X0.959 Y5.353
X0.954 Y5.639
X0.951 Y5.924
X0.948 Y6.21
X0.945 Y6.495
X0.943 Y6.781
X0.941 Y7.067
X0.94 Y7.352
X0.939 Y7.638
X0.937 Y8.209
X0.936 Y8.78
X0.935 Y9.637
X0.934 Y11.065
Y14.206
X0.932 Y36.481
X1 Y36.759
X1.127 Y37.015
X1.297 Y37.244
X1.5 Y37.445
X1.726 Y37.619
X1.969 Y37.769
X2.225 Y37.897
X2.489 Y38.006
X2.759 Y38.098
X3.034 Y38.175
X3.312 Y38.24
X3.592 Y38.295
X3.874 Y38.34
X4.157 Y38.379
X4.441 Y38.411
X4.725 Y38.437
X5.01 Y38.459
X5.295 Y38.477
X5.58 Y38.493
X5.866 Y38.505
X6.151 Y38.516
X6.436 Y38.525
X6.722 Y38.532
X7.007 Y38.538
X7.293 Y38.543
X7.579 Y38.547
X7.864 Y38.55
X8.15 Y38.553
X8.435 Y38.555
X8.721 Y38.557
X9.006 Y38.559
X9.292 Y38.56
X9.863 Y38.562
X10.434 Y38.563
X11.291 Y38.565
X12.433
X14.432 Y38.566
X23.571 Y38.567
X28.14
X51.272 Y38.568
X51.558 Y38.561
X51.833 Y38.484
X52.085 Y38.35
X52.31 Y38.174
X52.507 Y37.967
X52.677 Y37.738
X52.824 Y37.493
X52.949 Y37.236
X53.055 Y36.971
X53.144 Y36.7
X53.22 Y36.424
X53.283 Y36.146
X53.336 Y35.865
X53.381 Y35.583
X53.418 Y35.3
X53.449 Y35.016
X53.475 Y34.732
X53.496 Y34.447
X53.514 Y34.162
X53.529 Y33.877
X53.541 Y33.591
X53.552 Y33.306
X53.56 Y33.021
X53.567 Y32.735
X53.573 Y32.45
X53.578 Y32.164
X53.582 Y31.878
X53.585 Y31.593
X53.588 Y31.307
X53.59 Y31.022
X53.592 Y30.736
X53.593 Y30.451
X53.595 Y30.165
X53.597 Y29.594
X53.598 Y29.023
X53.599 Y28.166
X53.6 Y27.024
X53.601 Y25.025
Y15.315
X53.602 Y12.459
Y3.035
X53.54 Y2.756
X53.417 Y2.498
X53.249 Y2.267
X53.049 Y2.064
X52.824 Y1.888
X52.582 Y1.736
X52.327 Y1.607
X52.063 Y1.497
X51.793 Y1.404
X51.519 Y1.326
X51.241 Y1.26
X50.961 Y1.205
X50.679 Y1.158
X50.396 Y1.12
X50.112 Y1.088
X49.828 Y1.061
X49.543 Y1.038
X49.258 Y1.02
X48.973 Y1.004
X48.688 Y0.992
X48.402 Y0.981
X48.117 Y0.972
X47.831 Y0.965
X47.546 Y0.959
X47.26 Y0.954
X46.975 Y0.95
X46.689 Y0.946
X46.404 Y0.944
X46.118 Y0.941
X45.833 Y0.939
X45.547 Y0.938
X45.261 Y0.936
X44.69 Y0.935
X44.119 Y0.933
X43.262 Y0.932
X42.12 Y0.931
X40.121
X31.268
X13.562 Y0.932
X4.423
X4.14 Y0.97
X3.873 Y1.071
X3.631 Y1.222
X3.415 Y1.409
X3.227 Y1.624
X3.064 Y1.859
X2.924 Y2.108
X2.805 Y2.367
X2.704 Y2.634
X2.618 Y2.906
X2.545 Y3.183
X2.484 Y3.462
X2.433 Y3.742
X2.39 Y4.025
X2.354 Y4.308
X2.323 Y4.592
X2.298 Y4.877
X2.277 Y5.161
X2.26 Y5.446
X2.245 Y5.732
X2.233 Y6.017
X2.223 Y6.302
X2.215 Y6.588
X2.208 Y6.873
X2.202 Y7.159
X2.197 Y7.444
X2.193 Y7.73
X2.19 Y8.015
X2.187 Y8.301
X2.185 Y8.587
X2.183 Y8.872
X2.181 Y9.158
X2.18 Y9.443
X2.178 Y10.014
X2.177 Y10.586
X2.175 Y11.442
Y12.585
X2.174 Y14.584
X2.173 Y22.866
Y34.86
X2.198 Y35.145
X2.279 Y35.418
X2.41 Y35.672
X2.58 Y35.901
X2.78 Y36.105
X3.003 Y36.284
X3.242 Y36.44
X3.494 Y36.574
X3.756 Y36.689
X4.024 Y36.788
X4.296 Y36.872
X4.573 Y36.944
X4.852 Y37.005
X5.133 Y37.056
X5.415 Y37.099
X5.698 Y37.136
X5.982 Y37.167
X6.267 Y37.193
X6.551 Y37.214
X6.836 Y37.233
X7.122 Y37.248
X7.407 Y37.261
X7.692 Y37.272
X7.978 Y37.281
X8.263 Y37.288
X8.549 Y37.294
X8.834 Y37.3
X9.12 Y37.304
X9.405 Y37.308
X9.691 Y37.311
X9.977 Y37.313
X10.262 Y37.316
X10.548 Y37.317
X10.833 Y37.319
X11.119 Y37.32
X11.69 Y37.322
X12.261 Y37.323
X13.118 Y37.325
X14.26
X16.259 Y37.326
X23.684 Y37.327
X49.958 Y37.328
X50.241 Y37.29
X50.511 Y37.196
X50.759 Y37.055
X50.983 Y36.878
X51.181 Y36.672
X51.355 Y36.446
X51.505 Y36.203
X51.635 Y35.949
X51.747 Y35.686
X51.842 Y35.417
X51.924 Y35.143
X51.993 Y34.866
X52.051 Y34.586
X52.101 Y34.305
X52.142 Y34.022
X52.178 Y33.739
X52.207 Y33.455
X52.232 Y33.17
X52.253 Y32.886
X52.271 Y32.601
X52.286 Y32.315
X52.298 Y32.03
X52.308 Y31.745
X52.317 Y31.459
X52.324 Y31.174
X52.33 Y30.888
X52.335 Y30.603
X52.34 Y30.317
X52.343 Y30.032
X52.346 Y29.746
X52.349 Y29.46
X52.351 Y29.175
X52.352 Y28.889
X52.354 Y28.604
X52.356 Y28.033
X52.357 Y27.461
X52.359 Y26.605
X52.36 Y25.462
X52.361 Y23.749
Y18.894
X52.362 Y4.615
X52.333 Y4.331
X52.247 Y4.058
X52.113 Y3.806
X51.94 Y3.579
X51.738 Y3.377
X51.514 Y3.2
X51.274 Y3.046
X51.021 Y2.913
X50.759 Y2.799
X50.491 Y2.701
X50.217 Y2.618
X49.941 Y2.547
X49.662 Y2.487
X49.38 Y2.437
X49.098 Y2.394
X48.815 Y2.358
X48.531 Y2.327
X48.246 Y2.302
X47.962 Y2.28
X47.677 Y2.262
X47.391 Y2.247
X47.106 Y2.235
X46.821 Y2.224
X46.535 Y2.215
X46.25 Y2.208
X45.964 Y2.201
X45.679 Y2.196
X45.393 Y2.192
X45.108 Y2.188
X44.822 Y2.185
X44.537 Y2.183
X44.251 Y2.181
X43.965 Y2.179
X43.68 Y2.178
X43.394 Y2.176
X42.823 Y2.175
X42.252 Y2.173
X41.395 Y2.172
X40.253 Y2.171
X39.361
X39.196 Y2.152
X39.04 Y2.095
X38.902 Y2.004
X38.879 Y1.986
X38.786 Y1.922
X38.768 Y1.911
X38.595 Y1.818
X38.507 Y1.783
X38.414 Y1.748
X38.339 Y1.725
X38.229 Y1.692
X38.136 Y1.669
X37.857 Y1.604
X37.764 Y1.583
X37.671 Y1.563
X37.578 Y1.549
X37.482 Y1.539
X36.928 Y1.49
X36.835 Y1.482
X36.742 Y1.474
X36.557 Y1.463
X36.464 Y1.46
X36.092 Y1.455
X35.813 Y1.451
X35.721 Y1.45
X35.628
X34.606
X32.469
X32.284 Y1.451
X32.098 Y1.453
X31.912 Y1.455
X31.819 Y1.456
X31.633 Y1.465
X31.355 Y1.478
X31.262 Y1.482
X31.169 Y1.487
X30.983 Y1.506
X30.89 Y1.517
X30.797 Y1.531
X30.748 Y1.539
X30.333 Y1.615
X30.24 Y1.633
X30.147 Y1.658
X30.054 Y1.687
X29.961 Y1.717
X29.94 Y1.725
X29.683 Y1.812
X29.406 Y1.881
X29.126 Y1.937
X28.844 Y1.981
X28.561 Y2.018
X28.277 Y2.047
X27.992 Y2.07
X27.707 Y2.089
X27.422 Y2.105
X27.137 Y2.117
X26.851 Y2.128
X26.566 Y2.136
X26.28 Y2.142
X25.995 Y2.148
X25.709 Y2.152
X25.424 Y2.156
X25.138 Y2.159
X24.852 Y2.161
X24.567 Y2.163
X24.281 Y2.165
X23.996 Y2.166
X23.425 Y2.168
X22.853 Y2.169
X21.997 Y2.17
X20.854 Y2.171
X18.57
X6.004 Y2.172
X5.719 Y2.181
X5.44 Y2.243
X5.178 Y2.357
X4.939 Y2.514
X4.725 Y2.703
X4.537 Y2.917
X4.372 Y3.15
X4.229 Y3.398
X4.105 Y3.655
X3.999 Y3.92
X3.909 Y4.191
X3.832 Y4.466
X3.766 Y4.744
X3.71 Y5.024
X3.663 Y5.306
X3.624 Y5.589
X3.59 Y5.872
X3.562 Y6.156
X3.538 Y6.441
X3.518 Y6.726
X3.501 Y7.011
X3.487 Y7.296
X3.475 Y7.582
X3.465 Y7.867
X3.457 Y8.152
X3.45 Y8.438
X3.444 Y8.723
X3.439 Y9.009
X3.435 Y9.295
X3.431 Y9.58
X3.428 Y9.866
X3.426 Y10.151
X3.424 Y10.437
X3.422 Y10.722
X3.421 Y11.008
X3.419 Y11.579
X3.417 Y12.15
X3.416 Y13.007
X3.415 Y14.149
X3.414 Y15.863
X3.413 Y20.432
Y27.286
Y33.283
Y33.569
X3.451 Y33.852
X3.54 Y34.123
X3.673 Y34.376
X3.844 Y34.605
X4.043 Y34.81
X4.264 Y34.99
X4.502 Y35.149
X4.752 Y35.286
X5.012 Y35.405
X5.278 Y35.507
X5.55 Y35.595
X5.826 Y35.67
X6.104 Y35.734
X6.384 Y35.788
X6.666 Y35.834
X6.949 Y35.874
X7.233 Y35.907
X7.517 Y35.935
X7.801 Y35.959
X8.086 Y35.979
X8.371 Y35.996
X8.656 Y36.01
X8.942 Y36.023
X9.227 Y36.033
X9.513 Y36.041
X9.798 Y36.048
X10.084 Y36.055
X10.369 Y36.06
X10.655 Y36.064
X10.94 Y36.068
X11.226 Y36.071
X11.511 Y36.073
X11.797 Y36.075
X12.083 Y36.077
X12.368 Y36.079
X12.654 Y36.08
X13.225 Y36.082
X13.796 Y36.083
X14.653 Y36.084
X15.795 Y36.085
X17.794 Y36.086
X23.791 Y36.087
X46.352 Y36.088
X48.351
X48.637 Y36.087
X48.919 Y36.043
X49.189 Y35.948
X49.438 Y35.81
X49.665 Y35.636
X49.866 Y35.434
X50.044 Y35.21
X50.2 Y34.971
X50.335 Y34.719
X50.452 Y34.459
X50.552 Y34.191
X50.639 Y33.919
X50.712 Y33.643
X50.775 Y33.364
X50.828 Y33.084
X50.874 Y32.802
X50.912 Y32.519
X50.945 Y32.235
X50.973 Y31.951
X50.996 Y31.666
X51.016 Y31.382
X51.032 Y31.096
X51.046 Y30.811
X51.058 Y30.526
X51.068 Y30.24
X51.077 Y29.955
X51.084 Y29.67
X51.09 Y29.384
X51.095 Y29.098
X51.099 Y28.813
X51.102 Y28.527
X51.105 Y28.242
X51.108 Y27.956
X51.11 Y27.671
X51.112 Y27.385
X51.113 Y27.099
X51.116 Y26.528
X51.117 Y25.957
X51.119 Y25.1
X51.12 Y23.958
X51.121 Y22.245
Y18.246
X51.122 Y5.966
X51.091 Y5.683
X51.009 Y5.409
X50.881 Y5.154
X50.715 Y4.921
X50.519 Y4.713
X50.301 Y4.529
X50.065 Y4.368
X49.817 Y4.228
X49.558 Y4.106
X49.292 Y4.002
X49.021 Y3.913
X48.746 Y3.836
X48.468 Y3.771
X48.188 Y3.715
X47.906 Y3.668
X47.623 Y3.627
X47.34 Y3.593
X47.056 Y3.565
X46.771 Y3.54
X46.486 Y3.52
X46.201 Y3.502
X45.916 Y3.488
X45.631 Y3.475
X45.345 Y3.465
X45.06 Y3.456
X44.774 Y3.449
X44.489 Y3.443
X44.203 Y3.437
X43.918 Y3.433
X43.632 Y3.429
X43.347 Y3.426
X43.061 Y3.424
X42.776 Y3.422
X42.49 Y3.42
X42.204 Y3.418
X41.919 Y3.417
X41.348 Y3.415
X40.777 Y3.414
X40.491 Y3.413
X40.205 Y3.405
X40.202
X39.998 Y3.361
X39.816 Y3.261
X39.669 Y3.112
X39.571 Y2.929
X39.539 Y2.84
X39.529 Y2.813
X39.502 Y2.747
X39.399 Y2.561
X39.343 Y2.48
X39.335 Y2.468
X39.263 Y2.375
X39.25 Y2.36
X39.187 Y2.282
G3 X39.529 Y1.8 I0.247 J-0.188
G1 X39.595 Y1.821 Z-0.98
X39.657 Y1.841 Z-0.957
X39.713 Y1.859 Z-0.92
X39.76 Y1.874 Z-0.871
X39.795 Y1.885 Z-0.812
X39.817 Y1.893 Z-0.747
X39.824 Y1.895 Z-0.678
G0 Z3
X30.75 Y0.998
Z-0.368
G1 Z-0.678 F1000
X30.745 Y1.004 Z-0.747
X30.731 Y1.022 Z-0.812
X30.708 Y1.051 Z-0.871
X30.678 Y1.09 Z-0.92
X30.642 Y1.136 Z-0.957
X30.602 Y1.188 Z-0.98
X30.56 Y1.243 Z-0.988
G3 X29.94 Y1.725 I-1.251 J-0.969
G1 X29.775 Y1.79
X29.71 Y1.818
X29.59 Y1.871
X29.516 Y1.911
X29.404 Y1.975
X29.359 Y2.004
X29.218 Y2.115
X29.137 Y2.19
X29.032 Y2.302
X28.968 Y2.37
X28.868 Y2.461
X28.741 Y2.559
X28.58 Y2.663
X28.376 Y2.774
X28.114 Y2.889
X27.845 Y2.982
X27.57 Y3.059
X27.291 Y3.122
X27.01 Y3.173
X26.728 Y3.215
X26.444 Y3.25
X26.16 Y3.279
X25.875 Y3.302
X25.59 Y3.321
X25.305 Y3.337
X25.02 Y3.35
X24.735 Y3.361
X24.449 Y3.37
X24.164 Y3.377
X23.878 Y3.383
X23.593 Y3.388
X23.307 Y3.392
X23.022 Y3.396
X22.736 Y3.398
X22.45 Y3.401
X22.165 Y3.403
X21.879 Y3.404
X21.594 Y3.405
X21.022 Y3.407
X20.451 Y3.409
X19.595 Y3.41
X18.452 Y3.411
X16.453
X7.315 Y3.412
X7.029 Y3.428
X6.752 Y3.494
X6.49 Y3.608
X6.249 Y3.763
X6.033 Y3.949
X5.841 Y4.16
X5.672 Y4.39
X5.524 Y4.635
X5.397 Y4.89
X5.286 Y5.154
X5.191 Y5.423
X5.11 Y5.697
X5.041 Y5.974
X4.981 Y6.253
X4.931 Y6.534
X4.888 Y6.817
X4.852 Y7.1
X4.821 Y7.384
X4.795 Y7.668
X4.772 Y7.953
X4.754 Y8.238
X4.738 Y8.523
X4.725 Y8.808
X4.713 Y9.094
X4.704 Y9.379
X4.696 Y9.665
X4.689 Y9.95
X4.684 Y10.236
X4.679 Y10.521
X4.675 Y10.807
X4.671 Y11.092
X4.669 Y11.378
X4.666 Y11.663
X4.664 Y11.949
X4.662 Y12.235
X4.661 Y12.52
X4.659 Y13.091
X4.657 Y13.662
X4.656 Y14.519
X4.655 Y15.662
X4.654 Y17.375
X4.653 Y21.373
Y30.512
Y32.225
X4.685 Y32.509
X4.765 Y32.783
X4.891 Y33.04
X5.053 Y33.275
X5.245 Y33.486
X5.46 Y33.674
X5.693 Y33.839
X5.94 Y33.983
X6.197 Y34.108
X6.461 Y34.216
X6.731 Y34.31
X7.005 Y34.39
X7.282 Y34.458
X7.562 Y34.517
X7.843 Y34.567
X8.125 Y34.609
X8.408 Y34.646
X8.692 Y34.676
X8.977 Y34.703
X9.262 Y34.725
X9.546 Y34.744
X9.832 Y34.76
X10.117 Y34.773
X10.402 Y34.785
X10.688 Y34.794
X10.973 Y34.802
X11.259 Y34.809
X11.544 Y34.815
X11.83 Y34.82
X12.115 Y34.824
X12.401 Y34.828
X12.686 Y34.831
X12.972 Y34.833
X13.257 Y34.835
X13.543 Y34.837
X13.829 Y34.838
X14.4 Y34.841
X14.971 Y34.842
X15.828 Y34.844
X16.684 Y34.845
X18.112 Y34.846
X20.968
X47.242 Y34.848
X47.526 Y34.818
X47.801 Y34.741
X48.059 Y34.619
X48.295 Y34.458
X48.508 Y34.268
X48.697 Y34.054
X48.863 Y33.822
X49.009 Y33.576
X49.135 Y33.32
X49.245 Y33.056
X49.339 Y32.787
X49.419 Y32.513
X49.489 Y32.236
X49.548 Y31.956
X49.598 Y31.675
X49.642 Y31.393
X49.678 Y31.11
X49.709 Y30.826
X49.736 Y30.541
X49.758 Y30.257
X49.777 Y29.972
X49.793 Y29.687
X49.807 Y29.401
X49.818 Y29.116
X49.828 Y28.831
X49.836 Y28.545
X49.843 Y28.26
X49.849 Y27.974
X49.854 Y27.689
X49.859 Y27.403
X49.862 Y27.118
X49.865 Y26.832
X49.868 Y26.546
X49.87 Y26.261
X49.871 Y25.975
X49.873 Y25.69
X49.875 Y25.118
X49.877 Y24.547
X49.879 Y23.691
X49.88 Y22.834
X49.881 Y21.406
Y18.55
X49.882 Y7.412
X49.871 Y7.127
X49.815 Y6.847
X49.711 Y6.581
X49.566 Y6.335
X49.388 Y6.112
X49.183 Y5.913
X48.958 Y5.737
X48.718 Y5.582
X48.466 Y5.448
X48.205 Y5.332
X47.938 Y5.231
X47.665 Y5.145
X47.39 Y5.071
X47.111 Y5.007
X46.831 Y4.953
X46.549 Y4.907
X46.266 Y4.868
X45.982 Y4.834
X45.698 Y4.806
X45.414 Y4.782
X45.129 Y4.762
X44.844 Y4.744
X44.559 Y4.73
X44.273 Y4.717
X43.988 Y4.707
X43.702 Y4.698
X43.417 Y4.691
X43.131 Y4.684
X42.846 Y4.679
X42.56 Y4.674
X42.275 Y4.671
X41.989 Y4.667
X41.704 Y4.665
X41.418 Y4.661
X41.133 Y4.652
X40.848 Y4.633
X40.565 Y4.596
X40.323 Y4.545
X40.123 Y4.486
X40.11 Y4.481
X39.921 Y4.374
X39.773 Y4.216
X39.679 Y4.021
X39.646 Y3.806
Y3.49
X39.644 Y3.397
G3 X40.211 Y3.228 I0.31 J0.004
G1 X40.25 Y3.285 Z-0.98
X40.286 Y3.339 Z-0.957
X40.319 Y3.388 Z-0.92
X40.347 Y3.428 Z-0.871
X40.367 Y3.459 Z-0.812
X40.38 Y3.478 Z-0.747
X40.385 Y3.484 Z-0.678
G0 Z3
X29.403 Y1.279
Z-0.368
G1 Z-0.678 F1000
X29.402 Y1.287 Z-0.747
X29.398 Y1.309 Z-0.812
X29.392 Y1.346 Z-0.871
X29.384 Y1.394 Z-0.92
X29.374 Y1.452 Z-0.957
X29.363 Y1.516 Z-0.98
X29.352 Y1.585 Z-0.988
G3 X29.032 Y2.302 I-1.56 J-0.264
G1 X28.97 Y2.375
X28.846 Y2.551
X28.84 Y2.561
X28.79 Y2.654
X28.754 Y2.721
X28.741 Y2.747
X28.704 Y2.84
X28.668 Y2.933
X28.654 Y2.97
X28.616 Y3.049
X28.562 Y3.14
X28.496 Y3.235
X28.409 Y3.341
X28.302 Y3.45
X28.169 Y3.567
X28.003 Y3.69
X27.798 Y3.819
X27.544 Y3.95
X27.281 Y4.061
X27.011 Y4.154
X26.737 Y4.233
X26.459 Y4.299
X26.179 Y4.355
X25.897 Y4.403
X25.615 Y4.442
X25.331 Y4.476
X25.047 Y4.504
X24.762 Y4.528
X24.477 Y4.548
X24.192 Y4.564
X23.907 Y4.578
X23.622 Y4.59
X23.336 Y4.6
X23.051 Y4.609
X22.765 Y4.616
X22.48 Y4.621
X22.194 Y4.626
X21.909 Y4.63
X21.623 Y4.634
X21.338 Y4.637
X21.052 Y4.639
X20.766 Y4.641
X20.481 Y4.643
X20.195 Y4.644
X19.624 Y4.646
X19.053 Y4.648
X18.196 Y4.649
X17.054 Y4.651
X15.34
X10.771 Y4.652
X8.772
X8.486 Y4.653
X8.204 Y4.692
X7.931 Y4.779
X7.677 Y4.909
X7.445 Y5.075
X7.237 Y5.27
X7.052 Y5.488
X6.889 Y5.722
X6.747 Y5.97
X6.623 Y6.228
X6.517 Y6.493
X6.425 Y6.763
X6.346 Y7.037
X6.278 Y7.315
X6.22 Y7.594
X6.171 Y7.876
X6.129 Y8.158
X6.093 Y8.442
X6.062 Y8.726
X6.036 Y9.01
X6.014 Y9.295
X5.996 Y9.58
X5.98 Y9.865
X5.967 Y10.15
X5.955 Y10.435
X5.946 Y10.721
X5.938 Y11.006
X5.931 Y11.292
X5.925 Y11.577
X5.92 Y11.863
X5.916 Y12.148
X5.912 Y12.434
X5.909 Y12.72
X5.907 Y13.005
X5.905 Y13.291
X5.903 Y13.576
X5.902 Y13.862
X5.899 Y14.433
X5.898 Y15.004
X5.896 Y15.861
X5.895 Y16.718
X5.894 Y18.146
X5.893 Y21.001
Y30.711
X5.896 Y30.997
X5.937 Y31.279
X6.025 Y31.551
X6.155 Y31.805
X6.322 Y32.037
X6.517 Y32.246
X6.734 Y32.432
X6.968 Y32.595
X7.215 Y32.738
X7.472 Y32.862
X7.737 Y32.97
X8.007 Y33.063
X8.281 Y33.143
X8.558 Y33.212
X8.837 Y33.27
X9.119 Y33.321
X9.401 Y33.364
X9.684 Y33.4
X9.968 Y33.431
X10.252 Y33.458
X10.537 Y33.481
X10.822 Y33.5
X11.107 Y33.516
X11.392 Y33.53
X11.678 Y33.542
X11.963 Y33.552
X12.249 Y33.56
X12.534 Y33.567
X12.82 Y33.573
X13.105 Y33.578
X13.391 Y33.583
X13.676 Y33.586
X13.962 Y33.589
X14.247 Y33.592
X14.533 Y33.594
X14.818 Y33.596
X15.104 Y33.598
X15.39 Y33.599
X15.961 Y33.601
X16.532 Y33.603
X17.389 Y33.604
X18.531 Y33.605
X20.244 Y33.606
X24.243 Y33.607
X45.661 Y33.608
X45.947 Y33.607
X46.231 Y33.579
X46.507 Y33.505
X46.766 Y33.386
X47.005 Y33.23
X47.221 Y33.043
X47.414 Y32.832
X47.584 Y32.602
X47.732 Y32.359
X47.862 Y32.104
X47.975 Y31.842
X48.072 Y31.573
X48.155 Y31.3
X48.227 Y31.023
X48.289 Y30.745
X48.341 Y30.464
X48.386 Y30.182
X48.425 Y29.899
X48.457 Y29.615
X48.485 Y29.331
X48.509 Y29.046
X48.529 Y28.762
X48.546 Y28.476
X48.561 Y28.191
X48.573 Y27.906
X48.583 Y27.621
X48.592 Y27.335
X48.6 Y27.05
X48.606 Y26.764
X48.612 Y26.479
X48.616 Y26.193
X48.62 Y25.907
X48.623 Y25.622
X48.626 Y25.336
X48.628 Y25.051
X48.63 Y24.765
X48.632 Y24.48
X48.633 Y24.194
X48.636 Y23.623
X48.637 Y23.052
X48.639 Y22.195
X48.64 Y21.053
X48.641 Y19.339
Y15.627
X48.642 Y8.773
X48.638 Y8.487
X48.594 Y8.205
X48.504 Y7.934
X48.372 Y7.681
X48.204 Y7.45
X48.009 Y7.242
X47.791 Y7.057
X47.556 Y6.895
X47.308 Y6.752
X47.051 Y6.629
X46.786 Y6.522
X46.516 Y6.429
X46.241 Y6.35
X45.964 Y6.282
X45.685 Y6.223
X45.403 Y6.174
X45.121 Y6.131
X44.838 Y6.095
X44.554 Y6.064
X44.269 Y6.037
X43.985 Y6.015
X43.7 Y5.996
X43.415 Y5.98
X43.129 Y5.966
X42.844 Y5.954
X42.273 Y5.934
X41.988 Y5.921
X41.703 Y5.905
X41.418 Y5.883
X41.134 Y5.853
X40.852 Y5.811
X40.572 Y5.753
X40.337 Y5.687
X40.125 Y5.608
X40.064 Y5.58
X39.892 Y5.468
X39.759 Y5.312
X39.675 Y5.125
X39.646 Y4.922
Y4.791
Y3.806
G3 X40.217 Y3.649 I0.31 J0.011
G1 X40.254 Y3.707 Z-0.98
X40.289 Y3.762 Z-0.957
X40.321 Y3.811 Z-0.92
X40.348 Y3.853 Z-0.871
X40.368 Y3.884 Z-0.812
X40.38 Y3.903 Z-0.747
X40.385 Y3.909 Z-0.678
G0 Z3
X28.594 Y1.847
Z-0.368
G1 Z-0.678 F1000
X28.596 Y1.855 Z-0.747
X28.601 Y1.877 Z-0.812
X28.61 Y1.913 Z-0.871
X28.622 Y1.96 Z-0.92
X28.637 Y2.017 Z-0.957
X28.653 Y2.081 Z-0.98
X28.67 Y2.147 Z-0.988
G3 X28.668 Y2.933 I-1.534 J0.389
G1 X28.661 Y2.958
X28.642 Y3.026
X28.623 Y3.119
X28.61 Y3.212
X28.6 Y3.305
X28.597 Y3.397
X28.595 Y3.49
X28.593 Y3.537
X28.582 Y3.617
X28.564 Y3.698
X28.535 Y3.794
X28.496 Y3.894
X28.443 Y4.003
X28.373 Y4.12
X28.286 Y4.244
X28.178 Y4.373
X28.042 Y4.511
X27.879 Y4.653
X27.679 Y4.8
X27.436 Y4.95
X27.182 Y5.08
X26.92 Y5.193
X26.652 Y5.291
X26.379 Y5.376
X26.103 Y5.449
X25.824 Y5.512
X25.544 Y5.566
X25.262 Y5.613
X24.979 Y5.653
X24.696 Y5.688
X24.412 Y5.718
X24.127 Y5.743
X23.843 Y5.765
X23.558 Y5.784
X23.273 Y5.8
X22.987 Y5.813
X22.702 Y5.825
X22.417 Y5.835
X22.131 Y5.844
X21.846 Y5.851
X21.56 Y5.857
X21.275 Y5.862
X20.989 Y5.867
X20.704 Y5.871
X20.418 Y5.874
X20.132 Y5.877
X19.847 Y5.879
X19.561 Y5.881
X19.276 Y5.882
X18.99 Y5.884
X18.419 Y5.886
X17.848 Y5.888
X16.991 Y5.889
X15.849 Y5.89
X14.135 Y5.891
X10.423 Y5.892
X9.852
X9.567 Y5.917
X9.291 Y5.989
X9.03 Y6.104
X8.789 Y6.259
X8.572 Y6.444
X8.378 Y6.653
X8.206 Y6.881
X8.056 Y7.124
X7.924 Y7.378
X7.81 Y7.64
X7.712 Y7.908
X7.627 Y8.181
X7.555 Y8.457
X7.492 Y8.735
X7.439 Y9.016
X7.393 Y9.298
X7.354 Y9.581
X7.321 Y9.864
X7.292 Y10.149
X7.268 Y10.433
X7.248 Y10.718
X7.23 Y11.003
X7.216 Y11.288
X7.203 Y11.574
X7.193 Y11.859
X7.183 Y12.144
X7.176 Y12.43
X7.169 Y12.715
X7.164 Y13.001
X7.159 Y13.286
X7.155 Y13.572
X7.152 Y13.858
X7.149 Y14.143
X7.147 Y14.429
X7.145 Y14.714
X7.143 Y15
X7.141 Y15.285
X7.139 Y15.857
X7.138 Y16.428
X7.136 Y17.284
X7.135 Y18.427
X7.134 Y20.14
X7.133 Y23.853
Y29.279
Y29.564
X7.15 Y29.85
X7.21 Y30.129
X7.316 Y30.394
X7.461 Y30.64
X7.639 Y30.863
X7.843 Y31.064
X8.066 Y31.241
X8.305 Y31.397
X8.556 Y31.534
X8.816 Y31.653
X9.082 Y31.755
X9.354 Y31.844
X9.629 Y31.92
X9.907 Y31.986
X10.187 Y32.042
X10.469 Y32.09
X10.751 Y32.132
X11.035 Y32.167
X11.319 Y32.197
X11.603 Y32.222
X11.888 Y32.244
X12.173 Y32.262
X12.458 Y32.278
X12.743 Y32.292
X13.028 Y32.303
X13.314 Y32.313
X13.599 Y32.321
X13.885 Y32.328
X14.17 Y32.334
X14.456 Y32.339
X14.741 Y32.343
X15.027 Y32.346
X15.313 Y32.35
X15.598 Y32.352
X15.884 Y32.354
X16.169 Y32.356
X16.455 Y32.358
X16.74 Y32.359
X17.312 Y32.361
X17.883 Y32.363
X18.74 Y32.364
X19.882 Y32.365
X21.595 Y32.366
X25.308 Y32.367
X44.442
X44.727 Y32.366
X45.011 Y32.33
X45.285 Y32.249
X45.542 Y32.124
X45.778 Y31.963
X45.991 Y31.773
X46.181 Y31.56
X46.348 Y31.329
X46.496 Y31.084
X46.624 Y30.829
X46.735 Y30.566
X46.831 Y30.297
X46.914 Y30.024
X46.986 Y29.747
X47.047 Y29.468
X47.099 Y29.188
X47.144 Y28.906
X47.182 Y28.623
X47.215 Y28.339
X47.243 Y28.055
X47.267 Y27.77
X47.287 Y27.485
X47.304 Y27.2
X47.319 Y26.915
X47.331 Y26.63
X47.342 Y26.344
X47.351 Y26.059
X47.359 Y25.773
X47.365 Y25.488
X47.371 Y25.202
X47.375 Y24.917
X47.379 Y24.631
X47.383 Y24.346
X47.385 Y24.06
X47.388 Y23.775
X47.39 Y23.489
X47.392 Y23.203
X47.393 Y22.918
X47.395 Y22.347
X47.397 Y21.775
X47.399 Y20.919
X47.4 Y20.062
X47.401 Y18.634
Y16.349
X47.402 Y10.067
X47.399 Y9.781
X47.36 Y9.498
X47.275 Y9.226
X47.147 Y8.97
X46.984 Y8.736
X46.792 Y8.524
X46.577 Y8.336
X46.345 Y8.17
X46.099 Y8.025
X45.843 Y7.898
X45.58 Y7.788
X45.31 Y7.693
X45.037 Y7.611
X44.76 Y7.54
X44.481 Y7.48
X44.2 Y7.428
X43.918 Y7.384
X43.635 Y7.346
X43.351 Y7.312
X43.067 Y7.283
X42.783 Y7.256
X42.499 Y7.229
X42.214 Y7.202
X41.93 Y7.172
X41.647 Y7.138
X41.364 Y7.097
X41.082 Y7.049
X40.803 Y6.99
X40.527 Y6.917
X40.27 Y6.831
X40.058 Y6.74
X39.864 Y6.638
X39.766 Y6.575
X39.605 Y6.437
X39.492 Y6.257
X39.435 Y6.052
X39.441 Y5.84
X39.508 Y5.638
G0 Z3
X28.219 Y2.469
Z-0.368
G1 Z-0.678 F1000
X28.223 Y2.476 Z-0.747
X28.234 Y2.496 Z-0.812
X28.253 Y2.527 Z-0.871
X28.278 Y2.57 Z-0.92
X28.308 Y2.62 Z-0.957
X28.341 Y2.677 Z-0.98
X28.376 Y2.736 Z-0.988
G3 X28.595 Y3.49 I-1.363 J0.805
G1 X28.593 Y4.327
X28.587 Y4.432
X28.574 Y4.529
X28.553 Y4.627
X28.518 Y4.742
X28.472 Y4.86
X28.408 Y4.989
X28.329 Y5.124
X28.225 Y5.271
X28.101 Y5.419
X27.947 Y5.576
X27.757 Y5.74
X27.528 Y5.909
X27.285 Y6.059
X27.032 Y6.192
X26.772 Y6.309
X26.506 Y6.413
X26.235 Y6.504
X25.961 Y6.584
X25.685 Y6.655
X25.406 Y6.717
X25.125 Y6.771
X24.844 Y6.819
X24.561 Y6.86
X24.278 Y6.896
X23.994 Y6.928
X23.71 Y6.955
X23.425 Y6.979
X23.14 Y7
X22.855 Y7.018
X22.57 Y7.034
X22.285 Y7.047
X22 Y7.059
X21.714 Y7.069
X21.429 Y7.078
X21.143 Y7.086
X20.858 Y7.092
X20.572 Y7.098
X20.287 Y7.103
X20.001 Y7.107
X19.716 Y7.11
X19.43 Y7.114
X19.144 Y7.116
X18.859 Y7.118
X18.573 Y7.12
X18.288 Y7.122
X18.002 Y7.123
X17.431 Y7.126
X16.86 Y7.127
X16.003 Y7.129
X15.146 Y7.13
X13.718 Y7.131
X11.148 Y7.132
X10.863 Y7.153
X10.586 Y7.219
X10.322 Y7.329
X10.078 Y7.478
X9.857 Y7.659
X9.659 Y7.865
X9.484 Y8.09
X9.33 Y8.331
X9.195 Y8.582
X9.078 Y8.843
X8.977 Y9.11
X8.889 Y9.382
X8.814 Y9.657
X8.749 Y9.935
X8.694 Y10.215
X8.646 Y10.497
X8.606 Y10.78
X8.571 Y11.063
X8.542 Y11.347
X8.516 Y11.632
X8.495 Y11.917
X8.477 Y12.202
X8.461 Y12.487
X8.448 Y12.772
X8.437 Y13.057
X8.427 Y13.343
X8.419 Y13.628
X8.412 Y13.914
X8.406 Y14.199
X8.401 Y14.485
X8.397 Y14.77
X8.393 Y15.056
X8.39 Y15.341
X8.388 Y15.627
X8.386 Y15.913
X8.384 Y16.198
X8.382 Y16.484
X8.381 Y16.769
X8.379 Y17.34
X8.377 Y17.912
X8.376 Y18.768
X8.375 Y19.911
X8.374 Y21.624
X8.373 Y25.337
Y28.193
X8.378 Y28.478
X8.421 Y28.76
X8.509 Y29.032
X8.638 Y29.287
X8.803 Y29.52
X8.996 Y29.73
X9.212 Y29.918
X9.444 Y30.083
X9.69 Y30.228
X9.946 Y30.355
X10.21 Y30.465
X10.479 Y30.56
X10.753 Y30.642
X11.029 Y30.713
X11.308 Y30.773
X11.589 Y30.825
X11.871 Y30.87
X12.154 Y30.908
X12.438 Y30.94
X12.722 Y30.968
X13.007 Y30.992
X13.292 Y31.012
X13.577 Y31.029
X13.862 Y31.044
X14.147 Y31.056
X14.433 Y31.067
X14.718 Y31.076
X15.004 Y31.083
X15.289 Y31.09
X15.575 Y31.095
X15.86 Y31.1
X16.146 Y31.104
X16.431 Y31.108
X16.717 Y31.11
X17.002 Y31.113
X17.288 Y31.115
X17.574 Y31.117
X17.859 Y31.118
X18.43 Y31.121
X19.001 Y31.122
X19.858 Y31.124
X20.715 Y31.125
X22.143 Y31.126
X24.713 Y31.127
X42.419
X43.276
X43.561 Y31.118
X43.842 Y31.067
X44.112 Y30.972
X44.363 Y30.836
X44.592 Y30.666
X44.799 Y30.469
X44.982 Y30.25
X45.144 Y30.015
X45.286 Y29.767
X45.41 Y29.509
X45.517 Y29.245
X45.609 Y28.975
X45.689 Y28.7
X45.758 Y28.423
X45.817 Y28.144
X45.868 Y27.863
X45.911 Y27.581
X45.948 Y27.297
X45.98 Y27.014
X46.007 Y26.729
X46.03 Y26.445
X46.05 Y26.16
X46.066 Y25.875
X46.081 Y25.589
X46.093 Y25.304
X46.103 Y25.019
X46.112 Y24.733
X46.119 Y24.448
X46.126 Y24.162
X46.131 Y23.877
X46.136 Y23.591
X46.139 Y23.306
X46.143 Y23.02
X46.146 Y22.734
X46.148 Y22.449
X46.15 Y22.163
X46.152 Y21.878
X46.153 Y21.592
X46.155 Y21.021
X46.157 Y20.45
X46.159 Y19.593
X46.16 Y18.736
X46.161 Y17.308
Y14.738
X46.162 Y11.311
X46.157 Y11.026
X46.116 Y10.743
X46.03 Y10.471
X45.901 Y10.216
X45.737 Y9.982
X45.544 Y9.771
X45.33 Y9.583
X45.097 Y9.417
X44.852 Y9.271
X44.596 Y9.144
X44.333 Y9.034
X44.064 Y8.938
X43.791 Y8.854
X43.515 Y8.78
X43.237 Y8.715
X42.957 Y8.656
X42.677 Y8.601
X42.396 Y8.549
X42.115 Y8.498
X41.835 Y8.445
X41.554 Y8.39
X41.275 Y8.331
X40.997 Y8.265
X40.722 Y8.19
X40.449 Y8.104
X40.181 Y8.006
X39.92 Y7.89
X39.716 Y7.782
X39.521 Y7.657
X39.363 Y7.537
X39.232 Y7.42
X39.101 Y7.283
X38.999 Y7.157
X38.981 Y7.13
X38.888 Y6.939
X38.854 Y6.729
X38.883 Y6.519
X38.972 Y6.326
X39.112 Y6.167
G3 X39.6 Y6.503 I0.191 J0.244
G1 X39.579 Y6.569 Z-0.98
X39.56 Y6.631 Z-0.957
X39.543 Y6.687 Z-0.92
X39.528 Y6.734 Z-0.871
X39.517 Y6.77 Z-0.812
X39.51 Y6.792 Z-0.747
X39.508 Y6.799 Z-0.678
G0 Z3
X28.216 Y3.305
Z-0.368
G1 Z-0.678 F1000
X28.22 Y3.312 Z-0.747
X28.232 Y3.332 Z-0.812
X28.25 Y3.364 Z-0.871
X28.275 Y3.406 Z-0.92
X28.305 Y3.456 Z-0.957
X28.339 Y3.513 Z-0.98
X28.374 Y3.572 Z-0.988
G3 X28.593 Y4.327 I-1.363 J0.805
G1 X28.591 Y4.791
Y4.884
X28.592 Y4.977
X28.596 Y5.07
X28.601 Y5.163
X28.603 Y5.178
X28.609 Y5.234
X28.612 Y5.313
X28.607 Y5.409
X28.595 Y5.507
X28.57 Y5.622
X28.535 Y5.74
X28.484 Y5.873
X28.417 Y6.011
X28.328 Y6.163
X28.221 Y6.317
X28.084 Y6.482
X27.915 Y6.656
X27.71 Y6.835
X27.481 Y7.006
X27.24 Y7.159
X26.989 Y7.296
X26.731 Y7.418
X26.468 Y7.528
X26.199 Y7.626
X25.927 Y7.713
X25.653 Y7.791
X25.375 Y7.86
X25.096 Y7.921
X24.816 Y7.975
X24.535 Y8.024
X24.252 Y8.066
X23.969 Y8.104
X23.686 Y8.137
X23.402 Y8.167
X23.117 Y8.193
X22.832 Y8.215
X22.548 Y8.235
X22.263 Y8.253
X21.977 Y8.268
X21.692 Y8.282
X21.407 Y8.294
X21.121 Y8.304
X20.836 Y8.313
X20.55 Y8.321
X20.265 Y8.328
X19.979 Y8.334
X19.694 Y8.339
X19.408 Y8.343
X19.123 Y8.347
X18.837 Y8.35
X18.552 Y8.353
X18.266 Y8.356
X17.981 Y8.358
X17.695 Y8.36
X17.409 Y8.362
X16.838 Y8.364
X16.267 Y8.366
X15.696 Y8.368
X14.839 Y8.369
X13.697 Y8.37
X12.555 Y8.371
X12.269 Y8.376
X11.987 Y8.418
X11.715 Y8.505
X11.46 Y8.634
X11.226 Y8.798
X11.015 Y8.991
X10.827 Y9.206
X10.661 Y9.439
X10.516 Y9.684
X10.389 Y9.94
X10.279 Y10.203
X10.183 Y10.473
X10.101 Y10.746
X10.03 Y11.023
X9.969 Y11.302
X9.917 Y11.582
X9.872 Y11.865
X9.834 Y12.148
X9.801 Y12.431
X9.773 Y12.715
X9.749 Y13
X9.729 Y13.285
X9.712 Y13.57
X9.697 Y13.855
X9.684 Y14.14
X9.674 Y14.426
X9.665 Y14.711
X9.657 Y14.997
X9.65 Y15.282
X9.645 Y15.568
X9.64 Y15.853
X9.636 Y16.139
X9.633 Y16.424
X9.63 Y16.71
X9.627 Y16.996
X9.625 Y17.281
X9.623 Y17.567
X9.622 Y17.852
X9.619 Y18.423
X9.618 Y18.995
X9.616 Y19.851
X9.615 Y20.708
X9.614 Y22.136
X9.613 Y24.706
Y26.705
Y26.991
X9.624 Y27.276
X9.674 Y27.557
X9.769 Y27.827
X9.905 Y28.078
X10.074 Y28.308
X10.271 Y28.515
X10.49 Y28.699
X10.724 Y28.861
X10.972 Y29.004
X11.229 Y29.128
X11.494 Y29.235
X11.764 Y29.329
X12.038 Y29.409
X12.315 Y29.478
X12.594 Y29.538
X12.875 Y29.589
X13.157 Y29.633
X13.44 Y29.67
X13.724 Y29.702
X14.008 Y29.73
X14.293 Y29.753
X14.578 Y29.773
X14.863 Y29.79
X15.148 Y29.804
X15.433 Y29.816
X15.719 Y29.827
X16.004 Y29.836
X16.29 Y29.843
X16.575 Y29.85
X16.861 Y29.855
X17.146 Y29.86
X17.432 Y29.864
X17.717 Y29.867
X18.003 Y29.87
X18.289 Y29.873
X18.574 Y29.875
X18.86 Y29.877
X19.145 Y29.878
X19.716 Y29.88
X20.288 Y29.882
X21.144 Y29.884
X22.001 Y29.885
X23.429 Y29.886
X25.999 Y29.887
X41.421
X41.992
X42.277 Y29.88
X42.559 Y29.835
X42.83 Y29.745
X43.084 Y29.614
X43.316 Y29.448
X43.526 Y29.254
X43.713 Y29.038
X43.878 Y28.804
X44.022 Y28.558
X44.148 Y28.302
X44.258 Y28.038
X44.353 Y27.769
X44.435 Y27.495
X44.505 Y27.219
X44.566 Y26.94
X44.618 Y26.659
X44.663 Y26.377
X44.701 Y26.094
X44.733 Y25.81
X44.761 Y25.526
X44.785 Y25.241
X44.805 Y24.956
X44.822 Y24.671
X44.837 Y24.386
X44.85 Y24.101
X44.86 Y23.815
X44.87 Y23.53
X44.877 Y23.244
X44.884 Y22.959
X44.89 Y22.673
X44.894 Y22.388
X44.898 Y22.102
X44.902 Y21.817
X44.905 Y21.531
X44.907 Y21.246
X44.909 Y20.96
X44.911 Y20.674
X44.913 Y20.389
X44.915 Y19.818
X44.917 Y19.247
X44.919 Y18.39
X44.92 Y17.533
X44.921 Y16.105
Y13.821
X44.922 Y12.678
X44.921 Y12.393
X44.897 Y12.108
X44.829 Y11.831
X44.717 Y11.568
X44.567 Y11.325
X44.386 Y11.104
X44.181 Y10.905
X43.957 Y10.728
X43.719 Y10.57
X43.47 Y10.431
X43.213 Y10.306
X42.95 Y10.194
X42.683 Y10.092
X42.413 Y9.999
X42.142 Y9.911
X41.869 Y9.828
X41.595 Y9.746
X41.322 Y9.663
X41.049 Y9.579
X40.777 Y9.49
X40.508 Y9.396
X40.241 Y9.295
X39.978 Y9.183
X39.72 Y9.06
X39.469 Y8.924
X39.226 Y8.774
X38.993 Y8.609
X38.797 Y8.446
X38.626 Y8.28
X38.499 Y8.136
X38.377 Y7.972
X38.283 Y7.822
X38.21 Y7.68
X38.142 Y7.519
X38.093 Y7.371
X38.084 Y7.335
X38.065 Y7.118
X38.112 Y6.906
X38.219 Y6.717
X38.378 Y6.568
X38.574 Y6.473
G3 X38.892 Y6.972 I0.081 J0.299
G1 X38.848 Y7.025 Z-0.98
X38.806 Y7.075 Z-0.957
X38.768 Y7.12 Z-0.92
X38.737 Y7.157 Z-0.871
X38.713 Y7.186 Z-0.812
X38.698 Y7.203 Z-0.747
X38.693 Y7.209 Z-0.678
G0 Z3
X28.063 Y4.233
Z-0.368
G1 Z-0.678 F1000
X28.068 Y4.239 Z-0.747
X28.083 Y4.257 Z-0.812
X28.107 Y4.285 Z-0.871
X28.138 Y4.323 Z-0.92
X28.176 Y4.368 Z-0.957
X28.218 Y4.418 Z-0.98
X28.263 Y4.47 Z-0.988
G3 X28.603 Y5.178 I-1.211 J1.019
G1 X28.631 Y5.349
X28.657 Y5.441
X28.661 Y5.454
X28.688 Y5.534
X28.754 Y5.687
X28.763 Y5.705
X28.783 Y5.752
X28.806 Y5.817
X28.825 Y5.889
X28.839 Y5.973
X28.848 Y6.066
X28.849 Y6.169
X28.842 Y6.284
X28.823 Y6.407
X28.792 Y6.544
X28.746 Y6.688
X28.682 Y6.844
X28.598 Y7.011
X28.493 Y7.182
X28.359 Y7.365
X28.194 Y7.558
X27.995 Y7.755
X27.776 Y7.939
X27.545 Y8.107
X27.304 Y8.26
X27.054 Y8.398
X26.798 Y8.524
X26.536 Y8.638
X26.269 Y8.74
X25.999 Y8.833
X25.726 Y8.917
X25.451 Y8.993
X25.173 Y9.061
X24.894 Y9.122
X24.614 Y9.177
X24.333 Y9.226
X24.051 Y9.27
X23.768 Y9.309
X23.484 Y9.344
X23.201 Y9.375
X22.916 Y9.403
X22.632 Y9.428
X22.347 Y9.45
X22.062 Y9.47
X21.777 Y9.487
X21.492 Y9.502
X21.207 Y9.516
X20.921 Y9.528
X20.636 Y9.538
X20.35 Y9.547
X20.065 Y9.555
X19.78 Y9.563
X19.494 Y9.569
X19.208 Y9.574
X18.923 Y9.579
X18.637 Y9.583
X18.352 Y9.587
X18.066 Y9.59
X17.781 Y9.593
X17.495 Y9.596
X17.21 Y9.598
X16.924 Y9.6
X16.638 Y9.601
X16.067 Y9.604
X15.496 Y9.606
X14.925 Y9.607
X14.068 Y9.609
X13.783
X13.497 Y9.617
X13.215 Y9.663
X12.944 Y9.753
X12.691 Y9.885
X12.459 Y10.051
X12.249 Y10.245
X12.063 Y10.461
X11.898 Y10.694
X11.753 Y10.941
X11.627 Y11.197
X11.517 Y11.46
X11.422 Y11.73
X11.34 Y12.003
X11.27 Y12.28
X11.209 Y12.559
X11.157 Y12.84
X11.113 Y13.122
X11.074 Y13.405
X11.042 Y13.689
X11.014 Y13.973
X10.99 Y14.258
X10.97 Y14.542
X10.952 Y14.827
X10.938 Y15.113
X10.925 Y15.398
X10.914 Y15.683
X10.905 Y15.969
X10.897 Y16.254
X10.891 Y16.54
X10.885 Y16.825
X10.88 Y17.111
X10.876 Y17.396
X10.873 Y17.682
X10.87 Y17.968
X10.867 Y18.253
X10.865 Y18.539
X10.864 Y18.824
X10.862 Y19.11
X10.86 Y19.681
X10.858 Y20.252
X10.856 Y21.109
X10.855 Y21.966
X10.854 Y23.394
X10.853 Y25.678
X10.858 Y25.964
X10.899 Y26.246
X10.984 Y26.519
X11.111 Y26.775
X11.273 Y27.01
X11.464 Y27.222
X11.677 Y27.412
X11.909 Y27.579
X12.153 Y27.727
X12.408 Y27.855
X12.671 Y27.967
X12.94 Y28.064
X13.213 Y28.148
X13.489 Y28.22
X13.768 Y28.282
X14.048 Y28.335
X14.33 Y28.381
X14.613 Y28.42
X14.897 Y28.453
X15.181 Y28.482
X15.466 Y28.506
X15.75 Y28.527
X16.035 Y28.545
X16.321 Y28.56
X16.606 Y28.573
X16.891 Y28.584
X17.177 Y28.593
X17.462 Y28.601
X17.748 Y28.608
X18.033 Y28.614
X18.319 Y28.619
X18.604 Y28.623
X18.89 Y28.626
X19.175 Y28.629
X19.461 Y28.632
X19.746 Y28.634
X20.032 Y28.636
X20.318 Y28.638
X20.603 Y28.639
X21.174 Y28.641
X21.746 Y28.643
X22.602 Y28.644
X23.745 Y28.645
X25.173 Y28.646
X28.314 Y28.647
X40.594
X40.879
X41.164 Y28.623
X41.442 Y28.557
X41.705 Y28.447
X41.949 Y28.299
X42.171 Y28.119
X42.37 Y27.914
X42.547 Y27.69
X42.702 Y27.45
X42.839 Y27.199
X42.957 Y26.939
X43.06 Y26.673
X43.149 Y26.402
X43.226 Y26.126
X43.292 Y25.849
X43.348 Y25.569
X43.397 Y25.287
X43.439 Y25.005
X43.474 Y24.721
X43.505 Y24.437
X43.531 Y24.153
X43.553 Y23.868
X43.572 Y23.583
X43.588 Y23.298
X43.602 Y23.013
X43.614 Y22.728
X43.624 Y22.442
X43.633 Y22.157
X43.64 Y21.871
X43.646 Y21.586
X43.651 Y21.3
X43.656 Y21.015
X43.66 Y20.729
X43.663 Y20.444
X43.666 Y20.158
X43.668 Y19.873
X43.67 Y19.587
X43.672 Y19.301
X43.673 Y19.016
X43.675 Y18.445
X43.677 Y17.873
X43.679 Y17.017
X43.68 Y16.16
X43.681 Y14.732
Y13.875
X43.679 Y13.59
X43.648 Y13.306
X43.573 Y13.03
X43.457 Y12.769
X43.307 Y12.526
X43.128 Y12.304
X42.927 Y12.101
X42.709 Y11.916
X42.478 Y11.749
X42.237 Y11.595
X41.989 Y11.454
X41.736 Y11.322
X41.478 Y11.198
X41.219 Y11.08
X40.957 Y10.964
X40.696 Y10.85
X40.434 Y10.734
X40.174 Y10.617
X39.916 Y10.495
X39.66 Y10.368
X39.408 Y10.234
X39.16 Y10.092
X38.918 Y9.94
X38.683 Y9.779
X38.456 Y9.605
X38.239 Y9.419
X38.034 Y9.22
X37.843 Y9.008
X37.668 Y8.782
X37.536 Y8.582
X37.42 Y8.369
X37.338 Y8.186
X37.277 Y8.016
X37.227 Y7.83
X37.198 Y7.669
X37.182 Y7.514
X37.179 Y7.345
X37.188 Y7.197
X37.192 Y7.172
X37.249 Y6.974
X37.361 Y6.8
X37.516 Y6.665
X37.704 Y6.579
X37.908 Y6.55
X38.043
G3 X38.2 Y7.12 I-0.011 J0.31
G1 X38.142 Y7.158 Z-0.98
X38.087 Y7.193 Z-0.957
X38.038 Y7.225 Z-0.92
X37.996 Y7.252 Z-0.871
X37.965 Y7.272 Z-0.812
X37.946 Y7.284 Z-0.747
X37.94 Y7.288 Z-0.678
G0 Z3
X27.966 Y4.964
Z-0.368
G1 Z-0.678 F1000
X27.972 Y4.968 Z-0.747
X27.992 Y4.981 Z-0.812
X28.023 Y5 Z-0.871
X28.064 Y5.027 Z-0.92
X28.114 Y5.059 Z-0.957
X28.169 Y5.094 Z-0.98
X28.227 Y5.131 Z-0.988
G3 X28.763 Y5.705 I-0.853 J1.333
G1 X28.77 Y5.72
X28.823 Y5.813
X28.846 Y5.851
X28.887 Y5.906
X28.962 Y5.999
X29.032 Y6.081
X29.038 Y6.087
X29.059 Y6.109
X29.095 Y6.157
X29.131 Y6.211
X29.167 Y6.276
X29.199 Y6.349
X29.229 Y6.434
X29.254 Y6.528
X29.273 Y6.633
X29.285 Y6.75
X29.287 Y6.878
X29.278 Y7.02
X29.257 Y7.169
X29.219 Y7.337
X29.166 Y7.507
X29.09 Y7.696
X28.993 Y7.889
X28.871 Y8.091
X28.717 Y8.305
X28.532 Y8.523
X28.331 Y8.725
X28.115 Y8.913
X27.889 Y9.086
X27.652 Y9.246
X27.408 Y9.394
X27.156 Y9.529
X26.899 Y9.654
X26.637 Y9.768
X26.372 Y9.872
X26.102 Y9.968
X25.831 Y10.055
X25.556 Y10.134
X25.28 Y10.207
X25.002 Y10.272
X24.723 Y10.332
X24.442 Y10.386
X24.161 Y10.435
X23.879 Y10.479
X23.596 Y10.519
X23.313 Y10.555
X23.029 Y10.588
X22.745 Y10.617
X22.461 Y10.643
X22.176 Y10.666
X21.891 Y10.687
X21.606 Y10.706
X21.321 Y10.723
X21.036 Y10.738
X20.751 Y10.751
X20.465 Y10.763
X20.18 Y10.774
X19.894 Y10.783
X19.609 Y10.791
X19.324 Y10.799
X19.038 Y10.805
X18.752 Y10.811
X18.467 Y10.816
X18.181 Y10.82
X17.896 Y10.824
X17.61 Y10.828
X17.325 Y10.831
X17.039 Y10.833
X16.754 Y10.836
X16.468 Y10.838
X16.182 Y10.84
X15.611 Y10.842
X15.04 Y10.845
X14.755 Y10.852
X14.473 Y10.897
X14.201 Y10.986
X13.947 Y11.116
X13.714 Y11.281
X13.503 Y11.474
X13.316 Y11.689
X13.149 Y11.921
X13.004 Y12.167
X12.877 Y12.423
X12.766 Y12.686
X12.67 Y12.955
X12.587 Y13.228
X12.516 Y13.505
X12.455 Y13.784
X12.402 Y14.065
X12.357 Y14.347
X12.318 Y14.629
X12.285 Y14.913
X12.257 Y15.197
X12.233 Y15.482
X12.212 Y15.767
X12.195 Y16.052
X12.18 Y16.337
X12.167 Y16.622
X12.156 Y16.908
X12.146 Y17.193
X12.139 Y17.478
X12.132 Y17.764
X12.126 Y18.049
X12.121 Y18.335
X12.117 Y18.621
X12.113 Y18.906
X12.11 Y19.192
X12.108 Y19.477
X12.106 Y19.763
X12.104 Y20.048
X12.102 Y20.334
X12.101 Y20.62
X12.099 Y21.191
X12.097 Y21.762
X12.096 Y22.619
X12.094 Y23.761
Y24.332
X12.095 Y24.618
X12.121 Y24.902
X12.19 Y25.179
X12.302 Y25.442
X12.452 Y25.685
X12.634 Y25.905
X12.84 Y26.103
X13.065 Y26.278
X13.305 Y26.433
X13.557 Y26.568
X13.817 Y26.686
X14.084 Y26.788
X14.355 Y26.877
X14.63 Y26.953
X14.908 Y27.018
X15.188 Y27.075
X15.47 Y27.123
X15.752 Y27.165
X16.036 Y27.2
X16.32 Y27.231
X16.604 Y27.256
X16.889 Y27.279
X17.174 Y27.298
X17.459 Y27.314
X17.744 Y27.327
X18.029 Y27.339
X18.315 Y27.349
X18.6 Y27.358
X18.886 Y27.365
X19.171 Y27.371
X19.457 Y27.376
X19.742 Y27.381
X20.028 Y27.385
X20.313 Y27.388
X20.599 Y27.391
X20.885 Y27.393
X21.17 Y27.395
X21.456 Y27.397
X21.741 Y27.398
X22.313 Y27.401
X22.884 Y27.402
X23.74 Y27.404
X24.597 Y27.405
X26.025 Y27.406
X28.595 Y27.407
X29.166
X39.447
X39.733 Y27.404
X40.016 Y27.366
X40.29 Y27.284
X40.547 Y27.16
X40.784 Y27.001
X40.998 Y26.812
X41.189 Y26.6
X41.359 Y26.37
X41.507 Y26.126
X41.638 Y25.872
X41.751 Y25.61
X41.849 Y25.341
X41.934 Y25.069
X42.007 Y24.793
X42.07 Y24.514
X42.124 Y24.234
X42.17 Y23.952
X42.21 Y23.669
X42.244 Y23.386
X42.273 Y23.101
X42.298 Y22.817
X42.319 Y22.532
X42.337 Y22.247
X42.353 Y21.962
X42.366 Y21.677
X42.377 Y21.391
X42.387 Y21.106
X42.395 Y20.82
X42.402 Y20.535
X42.408 Y20.249
X42.413 Y19.964
X42.417 Y19.678
X42.421 Y19.393
X42.424 Y19.107
X42.426 Y18.822
X42.429 Y18.536
X42.43 Y18.251
X42.432 Y17.965
X42.434 Y17.679
X42.436 Y17.108
X42.437 Y16.537
X42.439 Y15.68
X42.44 Y15.109
X42.438 Y14.824
X42.409 Y14.539
X42.342 Y14.262
X42.237 Y13.996
X42.101 Y13.745
X41.937 Y13.511
X41.752 Y13.294
X41.55 Y13.092
X41.335 Y12.904
X41.11 Y12.728
X40.877 Y12.562
X40.639 Y12.405
X40.397 Y12.254
X40.152 Y12.107
X39.906 Y11.962
X39.659 Y11.818
X39.413 Y11.673
X39.168 Y11.526
X38.926 Y11.376
X38.686 Y11.221
X38.45 Y11.059
X38.219 Y10.891
X37.994 Y10.716
X37.776 Y10.532
X37.565 Y10.339
X37.363 Y10.137
X37.172 Y9.925
X36.993 Y9.703
X36.826 Y9.47
X36.675 Y9.228
X36.541 Y8.976
X36.426 Y8.714
X36.332 Y8.446
X36.269 Y8.208
X36.229 Y7.985
X36.208 Y7.775
X36.205 Y7.598
X36.217 Y7.408
X36.241 Y7.242
X36.275 Y7.093
X36.287 Y7.056
X36.389 Y6.852
X36.549 Y6.69
X36.752 Y6.586
X36.977 Y6.55
X37.908
G3 X38.065 Y7.12 I-0.011 J0.31
G1 X38.007 Y7.158 Z-0.98
X37.952 Y7.193 Z-0.957
X37.903 Y7.225 Z-0.92
X37.862 Y7.252 Z-0.871
X37.83 Y7.272 Z-0.812
X37.811 Y7.284 Z-0.747
X37.805 Y7.288 Z-0.678
G0 Z3
X28.045 Y5.642
Z-0.368
G1 Z-0.678 F1000
X28.053 Y5.643 Z-0.747
X28.075 Y5.649 Z-0.812
X28.111 Y5.658 Z-0.871
X28.159 Y5.669 Z-0.92
X28.216 Y5.684 Z-0.957
X28.279 Y5.699 Z-0.98
X28.346 Y5.716 Z-0.988
G3 X29.038 Y6.087 I-0.379 J1.537
G1 X29.043 Y6.092
X29.125 Y6.169
X29.144 Y6.185
X29.218 Y6.244
X29.311 Y6.305
X29.404 Y6.361
X29.43 Y6.376
X29.477 Y6.412
X29.523 Y6.453
X29.573 Y6.505
X29.621 Y6.564
X29.671 Y6.635
X29.717 Y6.715
X29.761 Y6.807
X29.801 Y6.912
X29.834 Y7.026
X29.862 Y7.158
X29.879 Y7.296
X29.886 Y7.454
X29.879 Y7.619
X29.858 Y7.8
X29.818 Y7.997
X29.761 Y8.198
X29.679 Y8.418
X29.57 Y8.649
X29.434 Y8.887
X29.273 Y9.122
X29.094 Y9.345
X28.901 Y9.555
X28.694 Y9.752
X28.476 Y9.937
X28.249 Y10.109
X28.013 Y10.271
X27.77 Y10.421
X27.522 Y10.561
X27.267 Y10.691
X27.008 Y10.812
X26.745 Y10.923
X26.479 Y11.027
X26.21 Y11.122
X25.938 Y11.21
X25.664 Y11.291
X25.389 Y11.365
X25.111 Y11.433
X24.833 Y11.496
X24.553 Y11.553
X24.272 Y11.606
X23.991 Y11.654
X23.708 Y11.697
X23.426 Y11.737
X23.142 Y11.773
X22.859 Y11.806
X22.575 Y11.835
X22.29 Y11.862
X22.006 Y11.887
X21.721 Y11.909
X21.436 Y11.928
X21.151 Y11.946
X20.866 Y11.962
X20.581 Y11.976
X20.295 Y11.989
X20.01 Y12.001
X19.725 Y12.011
X19.439 Y12.02
X19.154 Y12.029
X18.868 Y12.036
X18.583 Y12.042
X18.297 Y12.048
X18.012 Y12.053
X17.726 Y12.058
X17.441 Y12.062
X17.155 Y12.066
X16.869 Y12.069
X16.584 Y12.071
X16.298 Y12.074
X16.013 Y12.082
X15.731 Y12.126
X15.459 Y12.213
X15.204 Y12.342
X14.97 Y12.505
X14.758 Y12.697
X14.569 Y12.911
X14.402 Y13.142
X14.255 Y13.387
X14.126 Y13.642
X14.015 Y13.905
X13.918 Y14.174
X13.834 Y14.447
X13.762 Y14.723
X13.7 Y15.002
X13.647 Y15.283
X13.601 Y15.565
X13.562 Y15.847
X13.529 Y16.131
X13.5 Y16.415
X13.475 Y16.7
X13.454 Y16.985
X13.436 Y17.27
X13.421 Y17.555
X13.408 Y17.84
X13.397 Y18.125
X13.388 Y18.411
X13.38 Y18.696
X13.373 Y18.982
X13.367 Y19.267
X13.362 Y19.553
X13.358 Y19.838
X13.354 Y20.124
X13.351 Y20.409
X13.348 Y20.695
X13.346 Y20.981
X13.344 Y21.266
X13.342 Y21.552
X13.341 Y21.837
X13.339 Y22.409
X13.337 Y22.98
Y23.265
X13.349 Y23.551
X13.401 Y23.831
X13.497 Y24.1
X13.633 Y24.351
X13.803 Y24.581
X14 Y24.787
X14.219 Y24.971
X14.454 Y25.134
X14.701 Y25.276
X14.958 Y25.401
X15.223 Y25.509
X15.492 Y25.602
X15.766 Y25.683
X16.043 Y25.753
X16.322 Y25.813
X16.603 Y25.864
X16.885 Y25.908
X17.169 Y25.946
X17.452 Y25.978
X17.737 Y26.006
X18.021 Y26.03
X18.306 Y26.05
X18.591 Y26.067
X18.876 Y26.082
X19.162 Y26.094
X19.447 Y26.105
X19.732 Y26.114
X20.018 Y26.122
X20.303 Y26.129
X20.589 Y26.134
X20.874 Y26.139
X21.16 Y26.143
X21.446 Y26.147
X21.731 Y26.15
X22.017 Y26.152
X22.302 Y26.154
X22.588 Y26.156
X22.873 Y26.158
X23.445 Y26.16
X24.016 Y26.162
X24.872 Y26.164
X25.729 Y26.165
X27.157 Y26.166
X29.442 Y26.167
X32.869
X38.009
X38.295
X38.58 Y26.155
X38.861 Y26.104
X39.13 Y26.008
X39.381 Y25.872
X39.611 Y25.702
X39.818 Y25.506
X40.003 Y25.288
X40.165 Y25.053
X40.308 Y24.806
X40.433 Y24.549
X40.541 Y24.285
X40.635 Y24.015
X40.716 Y23.741
X40.786 Y23.464
X40.846 Y23.185
X40.898 Y22.904
X40.942 Y22.622
X40.98 Y22.339
X41.013 Y22.055
X41.04 Y21.771
X41.064 Y21.487
X41.084 Y21.202
X41.102 Y20.917
X41.116 Y20.631
X41.129 Y20.346
X41.14 Y20.061
X41.149 Y19.775
X41.157 Y19.49
X41.163 Y19.204
X41.169 Y18.919
X41.174 Y18.633
X41.178 Y18.348
X41.181 Y18.062
X41.184 Y17.777
X41.187 Y17.491
X41.189 Y17.205
X41.191 Y16.92
X41.193 Y16.634
X41.194 Y16.349
X41.193 Y16.063
X41.174 Y15.778
X41.125 Y15.497
X41.042 Y15.224
X40.929 Y14.961
X40.79 Y14.712
X40.629 Y14.476
X40.45 Y14.253
X40.257 Y14.043
X40.053 Y13.843
X39.84 Y13.652
X39.621 Y13.47
X39.397 Y13.293
X39.169 Y13.12
X38.939 Y12.951
X38.478 Y12.614
X38.248 Y12.445
X38.02 Y12.273
X37.795 Y12.097
X37.572 Y11.918
X37.354 Y11.734
X37.141 Y11.544
X36.934 Y11.347
X36.733 Y11.144
X36.54 Y10.934
X36.355 Y10.716
X36.179 Y10.491
X36.014 Y10.258
X35.86 Y10.018
X35.718 Y9.77
X35.59 Y9.515
X35.476 Y9.253
X35.378 Y8.984
X35.298 Y8.71
X35.237 Y8.431
X35.197 Y8.148
X35.181 Y7.899
X35.184 Y7.664
X35.205 Y7.449
X35.236 Y7.275
X35.284 Y7.091
X35.304 Y7.034
X35.409 Y6.838
X35.568 Y6.683
X35.767 Y6.584
X35.987 Y6.55
X36.977
G3 X37.134 Y7.12 I-0.011 J0.31
G1 X37.076 Y7.158 Z-0.98
X37.021 Y7.193 Z-0.957
X36.972 Y7.225 Z-0.92
X36.931 Y7.252 Z-0.871
X36.899 Y7.272 Z-0.812
X36.88 Y7.284 Z-0.747
X36.874 Y7.288 Z-0.678
G0 Z3
X28.322 Y6.239
Z-0.368
G1 Z-0.678 F1000
X28.33 Y6.238 Z-0.747
X28.353 Y6.237 Z-0.812
X28.39 Y6.234 Z-0.871
X28.439 Y6.231 Z-0.92
X28.497 Y6.227 Z-0.957
X28.563 Y6.223 Z-0.98
X28.632 Y6.218 Z-0.988
G3 X29.404 Y6.361 I0.107 J1.579
G1 X29.497 Y6.408
X29.59 Y6.448
X29.632 Y6.464
X29.683 Y6.48
X29.775 Y6.505
X29.791 Y6.509
X29.82 Y6.516
X29.871 Y6.534
X29.924 Y6.558
X29.983 Y6.59
X30.041 Y6.628
X30.105 Y6.678
X30.168 Y6.735
X30.233 Y6.805
X30.296 Y6.885
X30.357 Y6.976
X30.417 Y7.084
X30.471 Y7.2
X30.52 Y7.336
X30.56 Y7.48
X30.59 Y7.643
X30.61 Y7.823
X30.615 Y8.011
X30.604 Y8.222
X30.574 Y8.444
X30.524 Y8.676
X30.448 Y8.927
X30.344 Y9.19
X30.219 Y9.447
X30.074 Y9.693
X29.913 Y9.929
X29.738 Y10.154
X29.548 Y10.368
X29.348 Y10.572
X29.137 Y10.764
X28.917 Y10.947
X28.69 Y11.119
X28.455 Y11.281
X28.213 Y11.434
X27.967 Y11.578
X27.715 Y11.712
X27.458 Y11.838
X27.198 Y11.956
X26.935 Y12.066
X26.668 Y12.169
X26.399 Y12.265
X26.128 Y12.354
X25.855 Y12.437
X25.58 Y12.513
X25.303 Y12.584
X25.025 Y12.65
X24.746 Y12.711
X24.466 Y12.767
X24.185 Y12.819
X23.904 Y12.866
X23.621 Y12.91
X23.338 Y12.95
X23.055 Y12.986
X22.772 Y13.02
X22.488 Y13.05
X22.203 Y13.078
X21.919 Y13.103
X21.634 Y13.126
X21.35 Y13.147
X21.065 Y13.166
X20.78 Y13.183
X20.494 Y13.199
X20.209 Y13.213
X19.924 Y13.226
X19.638 Y13.237
X19.353 Y13.247
X19.068 Y13.257
X18.782 Y13.265
X18.497 Y13.272
X18.211 Y13.279
X17.926 Y13.285
X17.64 Y13.29
X17.355 Y13.296
X17.071 Y13.328
X16.795 Y13.401
X16.534 Y13.517
X16.292 Y13.67
X16.073 Y13.852
X15.876 Y14.059
X15.702 Y14.285
X15.548 Y14.526
X15.413 Y14.778
X15.295 Y15.038
X15.193 Y15.305
X15.105 Y15.576
X15.029 Y15.851
X14.963 Y16.129
X14.907 Y16.409
X14.858 Y16.691
X14.817 Y16.973
X14.781 Y17.257
X14.751 Y17.541
X14.725 Y17.825
X14.703 Y18.11
X14.683 Y18.395
X14.667 Y18.68
X14.653 Y18.965
X14.642 Y19.25
X14.631 Y19.536
X14.623 Y19.821
X14.615 Y20.107
X14.609 Y20.392
X14.604 Y20.678
X14.599 Y20.963
X14.595 Y21.249
X14.592 Y21.534
X14.589 Y21.82
X14.588 Y22.106
X14.609 Y22.39
X14.673 Y22.669
X14.781 Y22.933
X14.927 Y23.178
X15.106 Y23.401
X15.309 Y23.602
X15.533 Y23.779
X15.771 Y23.936
X16.022 Y24.073
X16.281 Y24.193
X16.547 Y24.297
X16.818 Y24.386
X17.093 Y24.464
X17.371 Y24.531
X17.651 Y24.588
X17.932 Y24.637
X18.214 Y24.68
X18.498 Y24.716
X18.782 Y24.747
X19.066 Y24.773
X19.351 Y24.796
X19.636 Y24.815
X19.921 Y24.831
X20.206 Y24.846
X20.491 Y24.858
X20.777 Y24.868
X21.062 Y24.877
X21.348 Y24.884
X21.633 Y24.89
X21.919 Y24.896
X22.204 Y24.9
X22.49 Y24.904
X22.775 Y24.908
X23.061 Y24.91
X23.346 Y24.913
X23.632 Y24.915
X23.918 Y24.917
X24.203 Y24.918
X24.774 Y24.921
X25.345 Y24.922
X26.202 Y24.924
X27.059 Y24.925
X28.487 Y24.926
X30.771 Y24.927
X36.198
X36.769
X37.054
X37.34 Y24.915
X37.62 Y24.863
X37.889 Y24.767
X38.141 Y24.631
X38.37 Y24.461
X38.577 Y24.265
X38.762 Y24.047
X38.924 Y23.812
X39.067 Y23.565
X39.192 Y23.308
X39.3 Y23.044
X39.394 Y22.774
X39.475 Y22.5
X39.545 Y22.223
X39.606 Y21.944
X39.657 Y21.663
X39.701 Y21.381
X39.739 Y21.098
X39.772 Y20.814
X39.8 Y20.53
X39.824 Y20.245
X39.844 Y19.961
X39.861 Y19.676
X39.876 Y19.39
X39.889 Y19.105
X39.899 Y18.82
X39.909 Y18.534
X39.916 Y18.249
X39.923 Y17.963
X39.929 Y17.678
X39.933 Y17.392
X39.932 Y17.107
X39.912 Y16.822
X39.866 Y16.54
X39.792 Y16.264
X39.692 Y15.997
X39.568 Y15.74
X39.423 Y15.493
X39.262 Y15.257
X39.087 Y15.032
X38.901 Y14.815
X38.706 Y14.607
X38.503 Y14.405
X38.296 Y14.209
X38.085 Y14.016
X37.871 Y13.827
X37.656 Y13.639
X37.441 Y13.452
X37.226 Y13.264
X37.012 Y13.074
X36.801 Y12.882
X36.592 Y12.687
X36.387 Y12.488
X36.186 Y12.285
X35.99 Y12.078
X35.8 Y11.865
X35.616 Y11.646
X35.44 Y11.422
X35.27 Y11.191
X35.11 Y10.955
X34.958 Y10.714
X34.816 Y10.466
X34.685 Y10.212
X34.565 Y9.953
X34.457 Y9.688
X34.363 Y9.419
X34.282 Y9.145
X34.217 Y8.867
X34.168 Y8.585
X34.136 Y8.302
X34.123 Y8.016
X34.13 Y7.761
X34.157 Y7.506
X34.195 Y7.305
X34.245 Y7.122
X34.28 Y7.027
X34.385 Y6.834
X34.544 Y6.681
X34.742 Y6.584
X34.96 Y6.55
X35.987
G3 X36.144 Y7.12 I-0.011 J0.31
G1 X36.086 Y7.158 Z-0.98
X36.031 Y7.193 Z-0.957
X35.982 Y7.225 Z-0.92
X35.94 Y7.252 Z-0.871
X35.909 Y7.272 Z-0.812
X35.89 Y7.284 Z-0.747
X35.884 Y7.288 Z-0.678
G0 Z3
X28.714 Y6.669
Z-0.368
G1 Z-0.678 F1000
X28.722 Y6.667 Z-0.747
X28.743 Y6.66 Z-0.812
X28.778 Y6.648 Z-0.871
X28.825 Y6.632 Z-0.92
X28.881 Y6.613 Z-0.957
X28.943 Y6.592 Z-0.98
X29.008 Y6.569 Z-0.988
G3 X29.791 Y6.509 I0.51 J1.498
G1 X29.868 Y6.525
X29.961 Y6.539
X30.054 Y6.547
X30.147 Y6.549
X30.24 Y6.55
X30.284 Y6.552
X30.314 Y6.554
X30.344 Y6.557
X30.374 Y6.561
X30.403 Y6.567
X30.432 Y6.574
X30.461 Y6.582
X30.49 Y6.59
X30.518 Y6.6
X30.546 Y6.611
X30.574 Y6.622
X30.601 Y6.635
X30.628 Y6.648
X30.655 Y6.662
X30.681 Y6.677
X30.707 Y6.692
X30.732 Y6.708
X30.757 Y6.725
X30.782 Y6.742
X30.806 Y6.76
X30.829 Y6.778
X30.852 Y6.797
X30.875 Y6.817
X30.898 Y6.837
X30.92 Y6.857
X30.941 Y6.878
X30.962 Y6.9
X30.983 Y6.921
X31.003 Y6.944
X31.023 Y6.966
X31.042 Y6.989
X31.061 Y7.012
X31.079 Y7.036
X31.097 Y7.06
X31.115 Y7.084
X31.132 Y7.109
X31.149 Y7.134
X31.165 Y7.159
X31.181 Y7.185
X31.196 Y7.21
X31.211 Y7.236
X31.226 Y7.262
X31.24 Y7.289
X31.254 Y7.315
X31.267 Y7.342
X31.28 Y7.369
X31.293 Y7.397
X31.305 Y7.424
X31.317 Y7.452
X31.328 Y7.479
X31.339 Y7.507
X31.35 Y7.535
X31.36 Y7.564
X31.37 Y7.592
X31.379 Y7.62
X31.388 Y7.649
X31.397 Y7.678
X31.405 Y7.707
X31.413 Y7.735
X31.421 Y7.765
X31.428 Y7.794
X31.435 Y7.823
X31.441 Y7.852
X31.447 Y7.882
X31.453 Y7.911
X31.459 Y7.94
X31.464 Y7.97
X31.469 Y8
X31.473 Y8.029
X31.477 Y8.059
X31.481 Y8.089
X31.484 Y8.119
X31.487 Y8.148
X31.49 Y8.178
X31.492 Y8.208
X31.494 Y8.238
X31.496 Y8.268
X31.498 Y8.298
X31.499 Y8.328
X31.5 Y8.358
Y8.388
X31.501 Y8.418
Y8.448
X31.5 Y8.478
Y8.508
X31.499 Y8.538
X31.497 Y8.568
X31.496 Y8.598
X31.494 Y8.628
X31.492 Y8.658
X31.49 Y8.688
X31.487 Y8.718
X31.484 Y8.747
X31.481 Y8.777
X31.477 Y8.807
X31.474 Y8.837
X31.47 Y8.867
X31.465 Y8.896
X31.461 Y8.926
X31.456 Y8.956
X31.451 Y8.985
X31.446 Y9.015
X31.44 Y9.044
X31.435 Y9.074
X31.428 Y9.103
X31.422 Y9.132
X31.416 Y9.162
X31.409 Y9.191
X31.402 Y9.22
X31.395 Y9.249
X31.387 Y9.278
X31.379 Y9.307
X31.372 Y9.336
X31.363 Y9.365
X31.355 Y9.394
X31.346 Y9.423
X31.338 Y9.451
X31.329 Y9.48
X31.319 Y9.508
X31.31 Y9.537
X31.3 Y9.566
X31.289 Y9.597
X31.278 Y9.626
X31.268 Y9.654
X31.258 Y9.682
X31.247 Y9.71
X31.236 Y9.738
X31.225 Y9.766
X31.213 Y9.795
X31.201 Y9.824
X31.188 Y9.855
X31.174 Y9.885
X31.16 Y9.917
X31.147 Y9.947
X31.133 Y9.976
X31.12 Y10.004
X31.107 Y10.032
X31.092 Y10.061
X31.078 Y10.09
X31.062 Y10.121
X31.046 Y10.152
X31.03 Y10.183
X31.012 Y10.216
X30.995 Y10.247
X30.979 Y10.277
X30.962 Y10.306
X30.946 Y10.335
X30.928 Y10.365
X30.91 Y10.396
X30.891 Y10.428
X30.871 Y10.46
X30.85 Y10.493
X30.829 Y10.526
X30.809 Y10.557
X30.79 Y10.587
X30.77 Y10.617
X30.749 Y10.648
X30.727 Y10.679
X30.705 Y10.712
X30.681 Y10.745
X30.657 Y10.779
X30.632 Y10.812
X30.61 Y10.843
X30.587 Y10.873
X30.563 Y10.904
X30.538 Y10.936
X30.512 Y10.969
X30.485 Y11.003
X30.457 Y11.037
X30.429 Y11.071
X30.403 Y11.102
X30.377 Y11.133
X30.349 Y11.165
X30.321 Y11.198
X30.291 Y11.231
X30.26 Y11.266
X30.228 Y11.301
X30.197 Y11.334
X30.168 Y11.365
X30.138 Y11.397
X30.106 Y11.429
X30.073 Y11.463
X30.038 Y11.498
X30.002 Y11.533
X29.968 Y11.566
X29.935 Y11.598
X29.901 Y11.63
X29.866 Y11.663
X29.829 Y11.697
X29.79 Y11.731
X29.75 Y11.767
X29.714 Y11.799
X29.677 Y11.831
X29.639 Y11.863
X29.599 Y11.897
X29.557 Y11.932
X29.513 Y11.967
X29.472 Y12
X29.432 Y12.032
X29.39 Y12.064
X29.346 Y12.098
X29.3 Y12.132
X29.252 Y12.168
X29.208 Y12.2
X29.164 Y12.232
X29.118 Y12.265
X29.069 Y12.299
X29.018 Y12.334
X28.968 Y12.368
X28.921 Y12.399
X28.871 Y12.432
X28.819 Y12.465
X28.765 Y12.5
X28.709 Y12.535
X28.658 Y12.566
X28.605 Y12.598
X28.549 Y12.631
X28.49 Y12.666
X28.431 Y12.7
X28.376 Y12.731
X28.318 Y12.763
X28.257 Y12.796
X28.192 Y12.831
X28.131 Y12.863
X28.071 Y12.895
X28.007 Y12.927
X27.939 Y12.961
X27.871 Y12.994
X27.807 Y13.025
X27.739 Y13.057
X27.668 Y13.09
X27.594 Y13.123
X27.526 Y13.154
X27.453 Y13.185
X27.377 Y13.218
X27.299 Y13.251
X27.225 Y13.281
X27.147 Y13.313
X27.063 Y13.345
X26.984 Y13.376
X26.903 Y13.407
X26.817 Y13.438
X26.728 Y13.47
X26.644 Y13.5
X26.554 Y13.531
X26.458 Y13.563
X26.369 Y13.592
X26.275 Y13.622
X26.173 Y13.654
X26.078 Y13.682
X25.977 Y13.712
X25.869 Y13.743
X25.768 Y13.771
X25.658 Y13.801
X25.546 Y13.831
X25.435 Y13.859
X25.314 Y13.889
X25.198 Y13.917
X25.075 Y13.945
X24.948 Y13.974
X24.82 Y14.002
X24.684 Y14.03
X24.55 Y14.057
X24.404 Y14.085
X24.261 Y14.112
X24.106 Y14.139
X23.953 Y14.166
X23.788 Y14.193
X23.621 Y14.219
X23.445 Y14.245
X23.259 Y14.271
X23.071 Y14.296
X22.869 Y14.322
X22.655 Y14.347
X22.435 Y14.371
X22.2 Y14.396
X21.949 Y14.42
X21.681 Y14.444
X21.396 Y14.467
X21.111 Y14.488
X20.826 Y14.507
X20.541 Y14.525
X20.256 Y14.541
X19.971 Y14.555
X19.686 Y14.568
X19.4 Y14.58
X19.115 Y14.591
X18.829 Y14.601
X18.544 Y14.614
X18.263 Y14.661
X17.992 Y14.752
X17.739 Y14.885
X17.508 Y15.053
X17.301 Y15.249
X17.116 Y15.468
X16.954 Y15.702
X16.811 Y15.95
X16.687 Y16.207
X16.58 Y16.472
X16.487 Y16.742
X16.407 Y17.016
X16.337 Y17.293
X16.278 Y17.572
X16.227 Y17.853
X16.183 Y18.135
X16.146 Y18.419
X16.113 Y18.702
X16.086 Y18.987
X16.062 Y19.271
X16.042 Y19.556
X16.025 Y19.841
X16.01 Y20.126
X15.998 Y20.412
X15.987 Y20.697
X15.984 Y20.983
X16.023 Y21.266
X16.11 Y21.537
X16.242 Y21.791
X16.411 Y22.021
X16.608 Y22.228
X16.827 Y22.411
X17.064 Y22.571
X17.312 Y22.711
X17.571 Y22.833
X17.836 Y22.939
X18.107 Y23.03
X18.381 Y23.108
X18.659 Y23.176
X18.938 Y23.234
X19.22 Y23.284
X19.502 Y23.326
X19.785 Y23.363
X20.069 Y23.394
X20.353 Y23.42
X20.638 Y23.443
X20.923 Y23.463
X21.208 Y23.479
X21.493 Y23.493
X21.779 Y23.505
X22.064 Y23.516
X22.35 Y23.524
X22.635 Y23.532
X22.921 Y23.538
X23.206 Y23.544
X23.492 Y23.548
X23.777 Y23.552
X24.063 Y23.556
X24.348 Y23.559
X24.634 Y23.561
X24.919 Y23.563
X25.205 Y23.565
X25.491 Y23.566
X26.062 Y23.569
X26.633 Y23.571
X27.49 Y23.572
X28.346 Y23.574
X29.774 Y23.575
X32.059
X35.771
X36.057 Y23.565
X36.338 Y23.515
X36.606 Y23.417
X36.855 Y23.277
X37.082 Y23.103
X37.285 Y22.902
X37.464 Y22.68
X37.622 Y22.442
X37.759 Y22.192
X37.879 Y21.932
X37.983 Y21.666
X38.072 Y21.395
X38.15 Y21.12
X38.216 Y20.842
X38.273 Y20.563
X38.322 Y20.281
X38.364 Y19.999
X38.4 Y19.715
X38.431 Y19.431
X38.457 Y19.147
X38.479 Y18.862
X38.498 Y18.577
X38.512 Y18.292
X38.513 Y18.007
X38.493 Y17.722
X38.448 Y17.44
X38.377 Y17.163
X38.282 Y16.894
X38.166 Y16.633
X38.032 Y16.381
X37.882 Y16.138
X37.719 Y15.903
X37.546 Y15.676
X37.365 Y15.455
X37.177 Y15.24
X36.984 Y15.03
X36.787 Y14.823
X36.588 Y14.618
X36.388 Y14.414
X36.187 Y14.211
X35.987 Y14.007
X35.888 Y13.905
X35.751 Y13.762
X35.624 Y13.629
X35.529 Y13.527
X35.432 Y13.422
X35.344 Y13.325
X35.267 Y13.24
X35.185 Y13.146
X35.116 Y13.067
X35.05 Y12.99
X34.98 Y12.908
X34.917 Y12.831
X34.861 Y12.763
X34.802 Y12.69
X34.74 Y12.612
X34.69 Y12.548
X34.641 Y12.485
X34.59 Y12.417
X34.536 Y12.345
X34.491 Y12.285
X34.449 Y12.226
X34.404 Y12.163
X34.358 Y12.097
X34.313 Y12.033
X34.276 Y11.978
X34.237 Y11.921
X34.197 Y11.86
X34.156 Y11.796
X34.118 Y11.737
X34.084 Y11.684
X34.05 Y11.628
X34.014 Y11.57
X33.977 Y11.508
X33.943 Y11.449
X33.906 Y11.385
X33.868 Y11.318
X33.836 Y11.261
X33.804 Y11.201
X33.773 Y11.145
X33.748 Y11.096
X33.682 Y10.969
X33.593 Y10.857
X33.484 Y10.766
X33.358 Y10.697
X33.222 Y10.655
X33.08 Y10.64
X32.938 Y10.653
X32.801 Y10.694
X32.549 Y10.828
X32.349 Y11.032
X32.152 Y11.239
X31.955 Y11.446
X31.81 Y11.597
X31.697 Y11.713
X31.598 Y11.813
X31.508 Y11.902
X31.425 Y11.985
X31.345 Y12.062
X31.269 Y12.134
X31.196 Y12.203
X31.123 Y12.27
X31.054 Y12.334
X30.985 Y12.396
X30.917 Y12.456
X30.85 Y12.514
X30.783 Y12.571
X30.717 Y12.627
X30.652 Y12.682
X30.587 Y12.736
X30.522 Y12.788
X30.457 Y12.84
X30.392 Y12.891
X30.327 Y12.941
X30.262 Y12.991
X30.197 Y13.04
X30.132 Y13.088
X30.066 Y13.136
X30.001 Y13.183
X29.934 Y13.229
X29.868 Y13.275
X29.802 Y13.321
X29.734 Y13.366
X29.667 Y13.411
X29.599 Y13.455
X29.531 Y13.499
X29.462 Y13.543
X29.392 Y13.586
X29.322 Y13.629
X29.251 Y13.672
X29.18 Y13.714
X29.107 Y13.756
X29.035 Y13.798
X28.961 Y13.839
X28.887 Y13.88
X28.812 Y13.921
X28.736 Y13.961
X28.66 Y14.001
X28.582 Y14.041
X28.504 Y14.081
X28.424 Y14.12
X28.344 Y14.159
X28.262 Y14.198
X28.18 Y14.237
X28.097 Y14.275
X28.013 Y14.313
X27.927 Y14.351
X27.84 Y14.389
X27.752 Y14.426
X27.663 Y14.463
X27.573 Y14.5
X27.481 Y14.537
X27.388 Y14.573
X27.293 Y14.61
X27.197 Y14.646
X27.1 Y14.681
X27.001 Y14.717
X26.9 Y14.752
X26.797 Y14.787
X26.692 Y14.822
X26.586 Y14.856
X26.478 Y14.89
X26.368 Y14.924
X26.255 Y14.958
X26.14 Y14.992
X26.024 Y15.025
X25.905 Y15.058
X25.782 Y15.091
X25.657 Y15.124
X25.531 Y15.156
X25.401 Y15.188
X25.266 Y15.219
X25.128 Y15.251
X24.989 Y15.282
X24.845 Y15.313
X24.696 Y15.344
X24.543 Y15.374
X24.388 Y15.404
X24.226 Y15.434
X24.056 Y15.464
X23.884 Y15.493
X23.707 Y15.521
X23.52 Y15.55
X23.324 Y15.579
X23.126 Y15.606
X22.915 Y15.634
X22.694 Y15.662
X22.464 Y15.688
X22.224 Y15.714
X21.969 Y15.74
X21.698 Y15.766
X21.413 Y15.791
X21.128 Y15.813
X20.844 Y15.834
X20.559 Y15.853
X20.274 Y15.87
X19.988 Y15.887
X19.705 Y15.92
X19.429 Y15.995
X19.17 Y16.114
X18.931 Y16.271
X18.716 Y16.459
X18.524 Y16.67
X18.354 Y16.9
X18.206 Y17.144
X18.076 Y17.398
X17.963 Y17.661
X17.866 Y17.929
X17.782 Y18.202
X17.709 Y18.478
X17.647 Y18.757
X17.594 Y19.038
X17.548 Y19.319
X17.509 Y19.602
X17.512 Y19.888
X17.575 Y20.166
X17.691 Y20.427
X17.851 Y20.664
X18.043 Y20.876
X18.259 Y21.062
X18.493 Y21.226
X18.741 Y21.368
X18.999 Y21.491
X19.264 Y21.597
X19.534 Y21.688
X19.809 Y21.766
X20.087 Y21.833
X20.366 Y21.891
X20.648 Y21.94
X20.93 Y21.982
X21.214 Y22.017
X21.498 Y22.048
X21.782 Y22.074
X22.067 Y22.096
X22.352 Y22.115
X22.637 Y22.131
X22.922 Y22.145
X23.207 Y22.157
X23.493 Y22.167
X23.778 Y22.175
X24.064 Y22.182
X24.349 Y22.188
X24.635 Y22.194
X24.92 Y22.198
X25.206 Y22.202
X25.491 Y22.205
X25.777 Y22.208
X26.062 Y22.21
X26.348 Y22.212
X26.634 Y22.214
X26.919 Y22.215
X27.49 Y22.218
X28.062 Y22.219
X28.918 Y22.221
X29.775 Y22.222
X31.203 Y22.223
X33.773 Y22.224
X34.344
X34.63 Y22.223
X34.914 Y22.192
X35.193 Y22.131
X35.457 Y22.022
X35.699 Y21.871
X35.919 Y21.688
X36.114 Y21.48
X36.286 Y21.252
X36.437 Y21.01
X36.569 Y20.756
X36.683 Y20.495
X36.782 Y20.227
X36.867 Y19.954
X36.94 Y19.678
X37.001 Y19.399
X37.047 Y19.117
X37.074 Y18.833
X37.075 Y18.547
X37.05 Y18.263
X36.999 Y17.982
X36.923 Y17.706
X36.826 Y17.438
X36.711 Y17.176
X36.58 Y16.923
X36.436 Y16.676
X36.281 Y16.436
X36.117 Y16.203
X35.946 Y15.974
X35.769 Y15.749
X35.589 Y15.528
X35.405 Y15.309
X35.22 Y15.092
X34.848 Y14.658
X34.663 Y14.441
X34.479 Y14.222
X34.298 Y14.002
X34.119 Y13.779
X34.031 Y13.666
X33.923 Y13.573
X33.675 Y13.433
X33.394 Y13.38
X33.108 Y13.377
X32.825 Y13.413
X32.547 Y13.478
X32.275 Y13.564
X32.008 Y13.666
X31.746 Y13.78
X31.488 Y13.903
X31.233 Y14.032
X30.98 Y14.164
X30.728 Y14.299
X30.477 Y14.434
X30.225 Y14.568
X29.972 Y14.702
X29.719 Y14.833
X29.463 Y14.961
X29.207 Y15.086
X28.948 Y15.207
X28.688 Y15.325
X28.426 Y15.438
X28.162 Y15.548
X27.896 Y15.652
X27.629 Y15.753
X27.36 Y15.849
X27.09 Y15.941
X26.818 Y16.028
X26.545 Y16.111
X26.27 Y16.19
X25.994 Y16.265
X25.718 Y16.335
X25.44 Y16.402
X25.162 Y16.465
X24.882 Y16.525
X24.602 Y16.581
X24.321 Y16.633
X24.04 Y16.682
X23.758 Y16.728
X23.476 Y16.772
X23.193 Y16.812
X22.91 Y16.849
X22.627 Y16.884
X22.343 Y16.917
X22.059 Y16.947
X21.775 Y16.975
X21.49 Y17.001
X21.206 Y17.027
X20.925 Y17.078
X20.655 Y17.169
X20.4 Y17.3
X20.167 Y17.464
X19.955 Y17.656
X19.766 Y17.87
X19.598 Y18.101
X19.451 Y18.345
X19.407 Y18.481
X19.372 Y18.765
X19.426 Y19.045
X19.545 Y19.305
X19.709 Y19.539
X19.906 Y19.745
X20.128 Y19.926
X20.367 Y20.082
X20.619 Y20.216
X20.88 Y20.332
X21.148 Y20.43
X21.421 Y20.515
X21.697 Y20.586
X21.976 Y20.647
X22.257 Y20.699
X22.539 Y20.742
X22.822 Y20.78
X23.106 Y20.811
X23.391 Y20.838
X23.675 Y20.86
X23.96 Y20.879
X24.245 Y20.895
X24.531 Y20.909
X24.816 Y20.92
X25.101 Y20.93
X25.387 Y20.938
X25.672 Y20.945
X25.958 Y20.951
X26.243 Y20.956
X26.529 Y20.96
X26.815 Y20.964
X27.1 Y20.967
X27.386 Y20.969
X27.671 Y20.972
X27.957 Y20.973
X28.242 Y20.975
X28.528 Y20.976
X29.099 Y20.978
X29.67 Y20.98
X30.527 Y20.981
X31.669 Y20.983
X33.097
X33.383 Y20.982
X33.667 Y20.957
X33.944 Y20.887
X34.206 Y20.772
X34.447 Y20.619
X34.665 Y20.435
X34.86 Y20.227
X35.031 Y19.998
X35.173 Y19.75
X35.281 Y19.485
X35.351 Y19.209
X35.384 Y18.925
X35.382 Y18.639
X35.349 Y18.356
X35.289 Y18.076
X35.207 Y17.803
X35.105 Y17.536
X34.987 Y17.276
X34.856 Y17.022
X34.715 Y16.774
X34.565 Y16.531
X34.408 Y16.293
X34.246 Y16.057
X34.08 Y15.825
X33.867 Y15.635
X33.615 Y15.5
X33.342 Y15.415
X33.06 Y15.371
X32.775 Y15.361
X32.49 Y15.379
X32.207 Y15.418
X31.932 Y15.496
X31.66 Y15.584
X31.391 Y15.679
X31.124 Y15.781
X30.859 Y15.887
X30.595 Y15.995
X30.331 Y16.105
X30.068 Y16.215
X29.804 Y16.325
X29.541 Y16.435
X29.276 Y16.542
X29.143 Y16.595
X28.927 Y16.68
X28.741 Y16.751
X28.557 Y16.821
X28.373 Y16.888
X28.209 Y16.947
X28.037 Y17.008
X27.876 Y17.063
X27.712 Y17.118
X27.55 Y17.171
X27.392 Y17.221
X27.227 Y17.272
X27.072 Y17.319
X26.906 Y17.368
X26.751 Y17.412
X26.586 Y17.458
X26.426 Y17.501
X26.261 Y17.545
X26.093 Y17.587
X25.927 Y17.628
X25.751 Y17.671
X25.584 Y17.709
X25.406 Y17.749
X25.227 Y17.788
X25.047 Y17.825
X24.833 Y17.868
X24.644 Y17.905
X24.45 Y17.94
X24.247 Y17.976
X24.042 Y18.011
X23.833 Y18.045
X23.614 Y18.079
X23.386 Y18.112
X23.153 Y18.145
X22.87 Y18.182
X22.586 Y18.218
X22.569 Y18.221
G3 X22.268 Y17.737 I-0.047 J-0.306
G1 X22.304 Y17.686
X29.711 Y7.09
X29.996 Y6.682
G3 X30.24 Y6.55 I0.254 J0.178
G1 X30.333
X30.941
X30.997 Y6.553
X31.067 Y6.562
X31.143 Y6.578
X31.416 Y6.66
X31.701 Y6.647
X31.978 Y6.577
X32.043 Y6.562
X32.108 Y6.553
X32.174 Y6.55
G3 X32.152 Y7.17 I-0.011 J0.31
X30.898 Y6.67 I0.07 J-1.999
G1 X30.88 Y6.643
X30.875 Y6.611
X30.886 Y6.581
X30.91 Y6.559
X30.941 Y6.55
X34.96
G3 X35.161 Y7.086 I-0.011 J0.31
G1 X35.12 Y7.124
X24.845 Y16.724
G2 X24.778 Y17.087 I0.212 J0.227
G3 X25.047 Y17.825 I-3.273 J1.606
G1 X25.053 Y17.855
X25.057 Y17.998
X25.09 Y18.137
X25.208 Y18.397
X25.399 Y18.609
X25.622 Y18.787
X25.866 Y18.935
X26.124 Y19.059
X26.391 Y19.16
X26.663 Y19.244
X26.941 Y19.314
X27.22 Y19.371
X27.502 Y19.418
X27.785 Y19.456
X28.069 Y19.488
X28.353 Y19.514
X28.638 Y19.535
X28.923 Y19.552
X29.208 Y19.567
X29.494 Y19.578
X29.779 Y19.588
X30.065 Y19.596
X30.35 Y19.602
X30.636 Y19.608
X30.921 Y19.612
X31.207 Y19.616
X31.492 Y19.619
X31.778 Y19.621
X32.063 Y19.623
X32.348 Y19.603
X32.625 Y19.533
X32.864 Y19.376
X33.035 Y19.148
X33.041 Y19.131
X33.146 Y18.865
X33.197 Y18.584
Y18.566
X33.2 Y18.424
X33.186 Y18.282
X33.144 Y18.145
X33.075 Y18.02
X32.984 Y17.91
X32.761 Y17.731
X32.492 Y17.635
X32.212 Y17.579
X31.928 Y17.555
X31.642 Y17.556
X31.357 Y17.578
X31.216 Y17.597
X31.198 Y17.6
G3 X30.855 Y17.34 I-0.037 J-0.308
G1 X30.851 Y17.292 Z-0.984
X30.865 Y17.238 Z-0.969
X30.878 Y17.187 Z-0.944
X30.889 Y17.142 Z-0.91
X30.917 Y17.108 Z-0.862
X30.938 Y17.082 Z-0.805
X30.95 Y17.066 Z-0.743
X30.955 Y17.06 Z-0.678
G0 Z3
X36.071 Y7.232
Z-0.337
G1 Z-0.647 F1000
X36.078 Y7.228 Z-0.716
X36.097 Y7.216 Z-0.781
X36.129 Y7.196 Z-0.84
X36.17 Y7.17 Z-0.889
X36.22 Y7.139 Z-0.926
X36.276 Y7.104 Z-0.949
X36.334 Y7.068 Z-0.957
G3 X37.958 Y6.55 I1.823 J2.912
G1 X38.043 Y6.548
X38.136 Y6.54
X38.229 Y6.527
X38.322 Y6.508
X38.414 Y6.483
X38.507 Y6.448
X38.6 Y6.412
X38.693 Y6.364
X38.786 Y6.313
X38.879 Y6.25
X38.962 Y6.185
X39.065 Y6.088
X39.147 Y5.999
X39.22 Y5.906
X39.25 Y5.863
X39.282 Y5.813
X39.336 Y5.72
X39.343 Y5.707
X39.418 Y5.534
X39.436 Y5.478
X39.474 Y5.349
X39.493 Y5.256
X39.505 Y5.163
X39.514 Y4.977
Y4.884
Y3.49
X39.512 Y3.397
X39.51 Y3.305
X39.501 Y3.212
X39.488 Y3.119
X39.465 Y3.026
X39.441 Y2.933
X39.436 Y2.916
X39.369 Y2.747
X39.343 Y2.695
X39.322 Y2.654
X39.267 Y2.561
X39.131 Y2.375
X39.055 Y2.282
X38.972 Y2.181
X38.884 Y2.097
X38.777 Y2.004
X38.693 Y1.945
X38.6 Y1.886
X38.507 Y1.835
X38.472 Y1.818
X38.414 Y1.792
X38.322 Y1.758
X38.229 Y1.73
X38.212 Y1.725
X38.043 Y1.685
X37.578 Y1.578
X37.485 Y1.559
X37.393 Y1.546
X37.114 Y1.521
X36.835 Y1.496
X36.742 Y1.489
X36.278 Y1.462
X36.185 Y1.46
X35.906 Y1.456
X35.535 Y1.452
G3 X35.304 Y1.345 I0.003 J-0.31
G1 X35.263 Y1.306
X35.216 Y1.275
X34.854 Y1.082
X34.593 Y0.944
G2 X34.286 Y0.953 I-0.145 J0.274
G3 X32.655 Y1.45 I-1.787 J-2.934
G1 X32.098 Y1.456
X32.005 Y1.458
X31.819 Y1.462
X31.633 Y1.471
X31.447 Y1.48
X31.355 Y1.484
X31.262 Y1.492
X31.169 Y1.502
X30.983 Y1.524
X30.797 Y1.557
X30.519 Y1.608
X30.426 Y1.626
X30.393 Y1.632
X30.333 Y1.647
X30.24 Y1.674
X30.147 Y1.703
X30.054 Y1.737
X29.961 Y1.772
X29.775 Y1.852
X29.59 Y1.947
X29.5 Y2.004
X29.404 Y2.076
X29.311 Y2.159
X29.278 Y2.19
X29.218 Y2.252
X29.125 Y2.358
X29.111 Y2.375
X29.042 Y2.468
X29.032 Y2.482
X28.984 Y2.561
X28.933 Y2.654
X28.883 Y2.747
X28.846 Y2.833
X28.844 Y2.84
X28.812 Y2.933
X28.788 Y3.026
X28.766 Y3.119
X28.753 Y3.212
X28.743 Y3.305
X28.74 Y3.397
X28.738 Y3.49
X28.734 Y4.884
Y4.977
G3 X28.425 Y5.276 I-0.31 J-0.011
G1 X28.424
X28.372 Y5.263 Z-0.952
X28.322 Y5.25 Z-0.937
X28.274 Y5.238 Z-0.914
X28.237 Y5.203 Z-0.876
X28.206 Y5.174 Z-0.828
X28.183 Y5.152 Z-0.772
X28.169 Y5.139 Z-0.711
X28.164 Y5.135 Z-0.647
G0 Z3
X35.986 Y7.276
Z-0.306
G1 Z-0.616 F1000
X35.993 Y7.271 Z-0.685
X36.012 Y7.259 Z-0.75
X36.043 Y7.238 Z-0.809
X36.084 Y7.211 Z-0.858
X36.133 Y7.179 Z-0.895
X36.187 Y7.143 Z-0.918
X36.245 Y7.105 Z-0.926
G3 X37.857 Y6.55 I1.89 J2.869
G1 X37.95 Y6.545
X38.043 Y6.536
X38.136 Y6.52
X38.229 Y6.498
X38.322 Y6.47
X38.34 Y6.464
X38.414 Y6.436
X38.507 Y6.394
X38.554 Y6.371
X38.6 Y6.343
X38.704 Y6.278
X38.786 Y6.219
X38.932 Y6.092
X38.954 Y6.07
X38.972 Y6.048
X39.086 Y5.906
X39.148 Y5.813
X39.203 Y5.72
X39.246 Y5.627
X39.286 Y5.534
X39.315 Y5.441
X39.343 Y5.343
X39.358 Y5.256
X39.373 Y5.163
X39.378 Y5.07
X39.382 Y4.977
X39.383 Y4.884
Y3.49
X39.381 Y3.397
X39.378 Y3.305
X39.368 Y3.212
X39.355 Y3.119
X39.343 Y3.064
X39.309 Y2.933
X39.276 Y2.84
X39.237 Y2.747
X39.187 Y2.654
X39.135 Y2.561
X39.069 Y2.468
X38.999 Y2.375
X38.972 Y2.341
X38.925 Y2.282
X38.879 Y2.231
X38.841 Y2.19
X38.786 Y2.137
X38.742 Y2.097
X38.693 Y2.059
X38.621 Y2.004
X38.6 Y1.989
X38.507 Y1.93
X38.414 Y1.875
X38.322 Y1.824
X38.308 Y1.818
X38.229 Y1.785
X38.136 Y1.751
X38.043 Y1.725
X37.95 Y1.702
X37.578 Y1.616
X37.393 Y1.574
X37.3 Y1.556
X37.207 Y1.544
X37.114 Y1.536
X36.928 Y1.519
X36.835 Y1.511
X36.742 Y1.503
X36.092 Y1.466
X35.999 Y1.461
X35.906 Y1.459
X35.721 Y1.457
X35.256 Y1.452
X35.163
G3 X35.167 Y0.832 I0.002 J-0.31
X35.163 Y1.452 I-0.002 J0.31
X35.007 Y1.409 I0.002 J-0.31
G1 X34.248 Y0.961
G3 X34.563 Y0.427 I0.157 J-0.267
X34.716 Y0.694 I-0.157 J0.267
X34.566 Y0.959 I-0.31 J0
X32.934 Y1.451 I-1.777 J-2.941
G1 X32.841 Y1.452
X32.098 Y1.46
X32.005 Y1.461
X31.819 Y1.468
X31.633 Y1.478
X31.54 Y1.482
X31.447 Y1.488
X31.355 Y1.498
X31.262 Y1.509
X31.169 Y1.52
X31.042 Y1.539
X30.983 Y1.548
X30.797 Y1.584
X30.611 Y1.618
X30.538 Y1.632
X30.519 Y1.636
X30.426 Y1.659
X30.333 Y1.688
X30.225 Y1.725
X30.147 Y1.755
X30 Y1.818
X29.961 Y1.835
X29.798 Y1.911
X29.775 Y1.923
X29.642 Y2.004
X29.59 Y2.042
X29.519 Y2.097
X29.497 Y2.117
X29.419 Y2.19
X29.331 Y2.282
X29.251 Y2.375
X29.218 Y2.424
X29.188 Y2.468
X29.126 Y2.561
X29.074 Y2.654
X29.032 Y2.734
X28.99 Y2.84
X28.955 Y2.933
X28.931 Y3.026
X28.909 Y3.119
X28.896 Y3.212
X28.886 Y3.305
X28.883 Y3.397
X28.881 Y3.49
X28.877 Y4.791
Y4.884
Y4.977
G3 X28.569 Y5.277 I-0.31 J-0.01
G1 X28.567
X28.515 Y5.263 Z-0.921
X28.465 Y5.25 Z-0.906
X28.418 Y5.238 Z-0.883
X28.38 Y5.203 Z-0.845
X28.349 Y5.174 Z-0.797
X28.326 Y5.153 Z-0.741
X28.312 Y5.14 Z-0.68
X28.307 Y5.135 Z-0.616
G0 Z3
X35.778 Y7.216
Z-0.275
G1 Z-0.585 F1000
X35.785 Y7.212 Z-0.654
X35.804 Y7.2 Z-0.719
X35.836 Y7.18 Z-0.778
X35.878 Y7.155 Z-0.827
X35.928 Y7.124 Z-0.864
X35.984 Y7.089 Z-0.887
X36.042 Y7.053 Z-0.895
G3 X37.671 Y6.55 I1.797 J2.928
G1 X37.764 Y6.549
X37.857 Y6.542
X37.95 Y6.529
X38.043 Y6.511
X38.136 Y6.487
X38.208 Y6.464
X38.322 Y6.42
X38.414 Y6.372
X38.507 Y6.32
X38.577 Y6.278
X38.6 Y6.261
X38.693 Y6.189
X38.698 Y6.185
X38.786 Y6.104
X38.798 Y6.092
X38.879 Y6.005
X38.884 Y5.999
X38.957 Y5.906
X38.972 Y5.886
X39.016 Y5.813
X39.071 Y5.72
X39.115 Y5.627
X39.158 Y5.527
X39.183 Y5.441
X39.21 Y5.349
X39.226 Y5.256
X39.242 Y5.163
X39.246 Y5.07
X39.25 Y4.977
X39.251 Y4.884
Y3.49
X39.25 Y3.46
X39.246 Y3.305
X39.236 Y3.212
X39.223 Y3.119
X39.202 Y3.026
X39.177 Y2.933
X39.158 Y2.878
X39.105 Y2.747
X39.065 Y2.669
X39.003 Y2.561
X38.972 Y2.517
X38.937 Y2.468
X38.879 Y2.39
X38.867 Y2.375
X38.784 Y2.282
X38.699 Y2.19
X38.585 Y2.097
X38.507 Y2.037
X38.458 Y2.004
X38.414 Y1.975
X38.322 Y1.915
X38.229 Y1.864
X38.144 Y1.818
X38.136 Y1.814
X38.043 Y1.778
X37.95 Y1.746
X37.857 Y1.721
X37.764 Y1.697
X37.393 Y1.611
X37.3 Y1.59
X37.207 Y1.57
X37.114 Y1.553
X37.021 Y1.542
X36.928 Y1.534
X36.835 Y1.526
X36.742 Y1.518
X35.813 Y1.465
X35.721 Y1.461
X35.628 Y1.459
X35.442 Y1.457
X35.163 Y1.455
X34.792 Y1.453
X34.327 Y1.452
G3 X34.297 Y0.833 I0.001 J-0.31
X34.33 Y1.158 I0.016 J0.162
X34.155 Y1.034 I-0.016 J-0.162
X34.757 Y0.889 I0.301 J-0.072
X34.615 Y1.227 I-0.301 J0.072
X33.863 Y1.451 I-0.814 J-1.357
G1 X33.12 Y1.454
X32.934 Y1.455
X32.748 Y1.457
X32.469 Y1.46
X32.376 Y1.461
X32.098 Y1.472
X32.005 Y1.476
X31.633 Y1.489
X31.54 Y1.497
X31.447 Y1.506
X31.355 Y1.517
X31.262 Y1.529
X31.184 Y1.539
X30.983 Y1.575
X30.797 Y1.61
X30.689 Y1.632
X30.611 Y1.648
X30.519 Y1.675
X30.426 Y1.704
X30.368 Y1.725
X30.24 Y1.778
X30.146 Y1.818
X30.054 Y1.858
X29.961 Y1.903
X29.868 Y1.955
X29.785 Y2.004
X29.665 Y2.097
X29.59 Y2.16
X29.56 Y2.19
X29.473 Y2.282
X29.404 Y2.362
X29.311 Y2.498
X29.268 Y2.561
X29.218 Y2.655
X29.17 Y2.747
X29.125 Y2.859
X29.097 Y2.933
X29.071 Y3.026
X29.052 Y3.119
X29.032 Y3.258
X29.029 Y3.305
X29.026 Y3.397
X29.024 Y3.49
X29.021 Y4.605
X29.02 Y4.791
Y4.884
X29.021 Y4.977
G3 X28.712 Y5.277 I-0.31 J-0.01
G1 X28.711
X28.659 Y5.264 Z-0.89
X28.608 Y5.251 Z-0.875
X28.561 Y5.239 Z-0.852
X28.524 Y5.204 Z-0.813
X28.493 Y5.175 Z-0.765
X28.47 Y5.154 Z-0.71
X28.456 Y5.141 Z-0.649
X28.451 Y5.136 Z-0.585
G0 Z3
X37.23 Y7.79
Z-0.244
G1 Z-0.554 F1000
X37.234 Y7.783 Z-0.623
X37.247 Y7.764 Z-0.688
X37.268 Y7.734 Z-0.747
X37.295 Y7.693 Z-0.796
X37.328 Y7.645 Z-0.833
X37.365 Y7.59 Z-0.856
X37.404 Y7.533 Z-0.864
G3 X38.507 Y6.234 I6.55 J4.442
G1 X38.562 Y6.185
X38.693 Y6.065
X38.749 Y5.999
X38.823 Y5.906
X38.879 Y5.828
X38.888 Y5.813
X38.94 Y5.72
X38.972 Y5.652
X39.022 Y5.534
X39.053 Y5.441
X39.065 Y5.404
X39.079 Y5.349
X39.11 Y5.163
X39.114 Y5.07
X39.119 Y4.977
Y4.884
Y3.49
X39.117 Y3.397
X39.114 Y3.305
X39.104 Y3.212
X39.091 Y3.119
X39.072 Y3.026
X39.065 Y2.995
X39.046 Y2.933
X39.01 Y2.84
X38.972 Y2.743
X38.924 Y2.654
X38.879 Y2.572
X38.872 Y2.561
X38.734 Y2.375
X38.693 Y2.33
X38.552 Y2.19
X38.507 Y2.155
X38.414 Y2.088
X38.322 Y2.022
X38.294 Y2.004
X38.136 Y1.901
X38.043 Y1.852
X37.976 Y1.818
X37.95 Y1.805
X37.764 Y1.738
X37.578 Y1.692
X37.393 Y1.649
X37.207 Y1.606
X37.114 Y1.585
X37.021 Y1.565
X36.928 Y1.55
X36.835 Y1.54
X36.742 Y1.533
X35.721 Y1.475
X35.628 Y1.47
X35.535 Y1.466
X35.442 Y1.463
X35.349 Y1.46
X34.884 Y1.457
X34.606 Y1.456
X34.234 Y1.454
X34.141
X33.584 Y1.455
X33.12 Y1.457
X32.841 Y1.46
X32.748 Y1.461
X32.098 Y1.487
X32.005 Y1.491
X31.819 Y1.497
X31.633 Y1.507
X31.54 Y1.516
X31.447 Y1.527
X31.345 Y1.539
X31.262 Y1.55
X31.169 Y1.565
X30.89 Y1.62
X30.797 Y1.638
X30.704 Y1.66
X30.611 Y1.688
X30.426 Y1.76
X30.333 Y1.8
X30.24 Y1.84
X30.147 Y1.884
X30.054 Y1.93
X29.961 Y1.982
X29.927 Y2.004
X29.868 Y2.046
X29.805 Y2.097
X29.775 Y2.123
X29.7 Y2.19
X29.683 Y2.207
X29.614 Y2.282
X29.59 Y2.311
X29.535 Y2.375
X29.497 Y2.429
X29.468 Y2.468
X29.412 Y2.561
X29.362 Y2.654
X29.312 Y2.747
X29.273 Y2.84
X29.241 Y2.933
X29.216 Y3.026
X29.195 Y3.119
X29.182 Y3.212
X29.172 Y3.305
X29.169 Y3.397
X29.167 Y3.49
X29.164 Y4.512
Y4.884
Y4.977
G3 X28.856 Y5.277 I-0.31 J-0.01
G1 X28.854
X28.802 Y5.264 Z-0.859
X28.752 Y5.251 Z-0.844
X28.705 Y5.239 Z-0.821
X28.667 Y5.204 Z-0.782
X28.636 Y5.175 Z-0.734
X28.613 Y5.154 Z-0.679
X28.599 Y5.141 Z-0.618
X28.594 Y5.136 Z-0.554
G0 Z3
X35.508 Y7.217
Z-0.213
G1 Z-0.523 F1000
X35.515 Y7.212 Z-0.592
X35.534 Y7.2 Z-0.657
X35.566 Y7.181 Z-0.716
X35.608 Y7.155 Z-0.765
X35.658 Y7.125 Z-0.802
X35.714 Y7.09 Z-0.825
X35.772 Y7.054 Z-0.833
G3 X37.401 Y6.55 I1.799 J2.927
G1 X37.485 Y6.549
X37.578 Y6.542
X37.671 Y6.53
X37.764 Y6.512
X37.857 Y6.488
X37.933 Y6.464
X37.95 Y6.458
X38.043 Y6.421
X38.136 Y6.377
X38.147 Y6.371
X38.322 Y6.264
X38.414 Y6.189
X38.507 Y6.109
X38.525 Y6.092
X38.6 Y6.005
X38.682 Y5.906
X38.693 Y5.891
X38.74 Y5.813
X38.795 Y5.72
X38.841 Y5.627
X38.879 Y5.537
X38.88 Y5.534
X38.908 Y5.441
X38.934 Y5.349
X38.951 Y5.256
X38.966 Y5.163
X38.972 Y5.045
X38.975 Y4.977
Y4.884
Y3.49
X38.973 Y3.397
X38.971 Y3.305
X38.961 Y3.212
X38.948 Y3.119
X38.926 Y3.026
X38.902 Y2.933
X38.879 Y2.865
X38.87 Y2.84
X38.831 Y2.747
X38.779 Y2.654
X38.728 Y2.561
X38.693 Y2.509
X38.662 Y2.468
X38.6 Y2.391
X38.588 Y2.375
X38.507 Y2.291
X38.499 Y2.282
X38.414 Y2.207
X38.394 Y2.19
X38.322 Y2.133
X38.129 Y2.004
X38.043 Y1.949
X37.95 Y1.891
X37.857 Y1.84
X37.813 Y1.818
X37.764 Y1.796
X37.671 Y1.761
X37.578 Y1.732
X37.552 Y1.725
X37.393 Y1.688
X37.114 Y1.623
X37.021 Y1.602
X36.928 Y1.583
X36.742 Y1.554
X36.649 Y1.543
X36.557 Y1.537
X35.721 Y1.49
X35.628 Y1.485
X35.535 Y1.481
X35.442 Y1.477
X34.792 Y1.462
X34.699 Y1.46
X34.42 Y1.458
X34.234
X34.048
X33.212 Y1.46
X33.12 Y1.461
X32.934 Y1.468
X32.098 Y1.502
X32.005 Y1.506
X31.819 Y1.512
X31.633 Y1.526
X31.54 Y1.536
X31.447 Y1.547
X31.355 Y1.56
X31.262 Y1.574
X31.169 Y1.59
X30.983 Y1.628
X30.966 Y1.632
X30.89 Y1.649
X30.797 Y1.675
X30.656 Y1.725
X30.611 Y1.742
X30.426 Y1.822
X30.23 Y1.911
X30.147 Y1.958
X30.069 Y2.004
X30.054 Y2.014
X29.952 Y2.097
X29.868 Y2.165
X29.841 Y2.19
X29.775 Y2.258
X29.753 Y2.282
X29.683 Y2.367
X29.677 Y2.375
X29.59 Y2.507
X29.554 Y2.561
X29.497 Y2.664
X29.456 Y2.747
X29.404 Y2.877
X29.384 Y2.933
X29.359 Y3.026
X29.337 Y3.119
X29.325 Y3.212
X29.315 Y3.305
X29.311 Y3.433
X29.31 Y3.49
X29.307 Y4.327
Y4.884
Y4.977
G3 X28.999 Y5.277 I-0.31 J-0.01
G1 X28.998
X28.946 Y5.264 Z-0.828
X28.895 Y5.251 Z-0.813
X28.848 Y5.239 Z-0.79
X28.811 Y5.204 Z-0.751
X28.78 Y5.175 Z-0.703
X28.757 Y5.154 Z-0.648
X28.743 Y5.141 Z-0.587
X28.738 Y5.136 Z-0.523
G0 Z3
X35.431 Y7.281
Z-0.187
G1 Z-0.497 F1000
X35.437 Y7.277 Z-0.566
X35.457 Y7.264 Z-0.632
X35.487 Y7.244 Z-0.69
X35.528 Y7.217 Z-0.739
X35.577 Y7.184 Z-0.776
X35.632 Y7.148 Z-0.799
X35.689 Y7.11 Z-0.807
G3 X37.3 Y6.549 I1.899 J2.863
G1 X37.393 Y6.545
X37.485 Y6.535
X37.578 Y6.519
X37.671 Y6.496
X37.764 Y6.468
X37.857 Y6.432
X37.95 Y6.39
X38.043 Y6.338
X38.136 Y6.284
X38.144 Y6.278
X38.229 Y6.215
X38.266 Y6.185
X38.322 Y6.135
X38.366 Y6.092
X38.414 Y6.042
X38.452 Y5.999
X38.507 Y5.93
X38.525 Y5.906
X38.583 Y5.813
X38.639 Y5.72
X38.683 Y5.627
X38.722 Y5.534
X38.751 Y5.441
X38.778 Y5.349
X38.786 Y5.304
X38.809 Y5.163
X38.814 Y5.07
X38.818 Y4.977
Y4.884
Y3.49
X38.816 Y3.397
X38.814 Y3.305
X38.804 Y3.212
X38.791 Y3.119
X38.786 Y3.089
X38.745 Y2.933
X38.71 Y2.84
X38.673 Y2.747
X38.624 Y2.654
X38.571 Y2.561
X38.505 Y2.468
X38.43 Y2.375
X38.322 Y2.266
X38.241 Y2.19
X38.125 Y2.097
X38.043 Y2.039
X37.991 Y2.004
X37.95 Y1.977
X37.857 Y1.919
X37.764 Y1.865
X37.676 Y1.818
X37.671 Y1.816
X37.578 Y1.778
X37.485 Y1.746
X37.412 Y1.725
X37.393 Y1.72
X37.3 Y1.698
X37.207 Y1.676
X37.114 Y1.655
X37.009 Y1.632
X36.928 Y1.615
X36.742 Y1.587
X36.557 Y1.559
X36.464 Y1.547
X36.367 Y1.539
X36.278 Y1.534
X35.721 Y1.502
X35.628 Y1.498
X35.535 Y1.493
X35.442 Y1.49
X34.42 Y1.465
X34.327 Y1.464
X34.234
X34.141 Y1.465
X33.305 Y1.471
X33.12 Y1.473
X33.027 Y1.477
X32.005 Y1.518
X31.912 Y1.522
X31.819 Y1.526
X31.633 Y1.543
X31.54 Y1.554
X31.447 Y1.564
X31.355 Y1.578
X31.262 Y1.595
X31.169 Y1.612
X31.079 Y1.632
X30.983 Y1.659
X30.89 Y1.686
X30.797 Y1.717
X30.704 Y1.754
X30.611 Y1.793
X30.557 Y1.818
X30.426 Y1.875
X30.24 Y1.972
X30.189 Y2.004
X30.063 Y2.097
X30.054 Y2.104
X29.961 Y2.187
X29.871 Y2.282
X29.796 Y2.375
X29.733 Y2.468
X29.683 Y2.546
X29.59 Y2.718
X29.575 Y2.747
X29.538 Y2.84
X29.503 Y2.933
X29.479 Y3.026
X29.457 Y3.119
X29.444 Y3.212
X29.434 Y3.305
X29.431 Y3.397
X29.429 Y3.49
X29.427 Y4.141
Y4.419
Y4.884
Y4.977
G3 X29.119 Y5.277 I-0.31 J-0.01
G1 X29.118
X29.065 Y5.264 Z-0.802
X29.015 Y5.251 Z-0.787
X28.968 Y5.239 Z-0.764
X28.931 Y5.204 Z-0.725
X28.9 Y5.175 Z-0.677
X28.877 Y5.154 Z-0.622
X28.862 Y5.141 Z-0.561
X28.858 Y5.136 Z-0.497
G0 Z3
X35.233 Y7.249
Z-0.161
G1 Z-0.471 F1000
X35.239 Y7.245 Z-0.54
X35.259 Y7.233 Z-0.606
X35.29 Y7.213 Z-0.664
X35.331 Y7.186 Z-0.713
X35.381 Y7.155 Z-0.75
X35.436 Y7.119 Z-0.773
X35.494 Y7.082 Z-0.781
G3 X37.114 Y6.55 I1.849 J2.896
G1 X37.207 Y6.547
X37.3 Y6.538
X37.393 Y6.524
X37.485 Y6.504
X37.578 Y6.476
X37.671 Y6.442
X37.764 Y6.403
X37.857 Y6.355
X37.95 Y6.301
X38.043 Y6.239
X38.108 Y6.185
X38.229 Y6.072
X38.294 Y5.999
X38.367 Y5.906
X38.414 Y5.837
X38.43 Y5.813
X38.484 Y5.72
X38.507 Y5.669
X38.565 Y5.534
X38.594 Y5.441
X38.621 Y5.349
X38.639 Y5.256
X38.653 Y5.163
X38.661 Y4.977
X38.662 Y4.884
Y3.49
X38.66 Y3.397
X38.657 Y3.305
X38.647 Y3.212
X38.634 Y3.119
X38.613 Y3.026
X38.588 Y2.933
X38.553 Y2.84
X38.516 Y2.747
X38.507 Y2.727
X38.469 Y2.654
X38.414 Y2.561
X38.274 Y2.375
X38.229 Y2.328
X38.185 Y2.282
X38.136 Y2.236
X38.085 Y2.19
X37.95 Y2.079
X37.857 Y2.006
X37.711 Y1.911
X37.671 Y1.889
X37.536 Y1.818
X37.485 Y1.797
X37.393 Y1.763
X37.3 Y1.733
X37.207 Y1.709
X37.114 Y1.687
X37.021 Y1.667
X36.928 Y1.647
X36.742 Y1.619
X36.371 Y1.564
X36.278 Y1.551
X36.185 Y1.541
X36.154 Y1.539
X35.721 Y1.515
X35.628 Y1.51
X35.535 Y1.506
X35.442 Y1.502
X34.42 Y1.477
X34.327
X34.234
X34.141
X33.305 Y1.484
X33.12 Y1.486
X33.027 Y1.489
X32.098 Y1.527
X32.005 Y1.531
X31.838 Y1.539
X31.819 Y1.541
X31.633 Y1.56
X31.447 Y1.582
X31.355 Y1.596
X31.262 Y1.617
X31.207 Y1.632
X31.076 Y1.67
X30.983 Y1.698
X30.89 Y1.728
X30.797 Y1.762
X30.704 Y1.802
X30.669 Y1.818
X30.472 Y1.911
X30.426 Y1.934
X30.308 Y2.004
X30.24 Y2.053
X30.147 Y2.13
X30.077 Y2.19
X29.961 Y2.32
X29.913 Y2.375
X29.868 Y2.443
X29.852 Y2.468
X29.794 Y2.561
X29.743 Y2.654
X29.695 Y2.747
X29.658 Y2.84
X29.623 Y2.933
X29.59 Y3.059
X29.576 Y3.119
X29.564 Y3.212
X29.554 Y3.305
X29.551 Y3.397
X29.549 Y3.49
X29.547 Y4.048
Y4.327
Y4.884
Y4.977
G3 X29.239 Y5.277 I-0.31 J-0.01
G1 X29.238
X29.185 Y5.264 Z-0.776
X29.135 Y5.251 Z-0.761
X29.088 Y5.239 Z-0.738
X29.05 Y5.204 Z-0.699
X29.02 Y5.175 Z-0.652
X28.997 Y5.154 Z-0.596
X28.982 Y5.141 Z-0.535
X28.978 Y5.136 Z-0.472
G0 Z3
X35.035 Y7.215
Z-0.135
G1 Z-0.445 F1000
X35.041 Y7.211 Z-0.514
X35.061 Y7.199 Z-0.58
X35.092 Y7.18 Z-0.639
X35.134 Y7.154 Z-0.688
X35.184 Y7.123 Z-0.725
X35.24 Y7.089 Z-0.747
X35.299 Y7.053 Z-0.755
G3 X36.928 Y6.55 I1.797 J2.928
G1 X37.021 Y6.548
X37.114 Y6.542
X37.207 Y6.529
X37.3 Y6.51
X37.393 Y6.484
X37.485 Y6.454
X37.578 Y6.419
X37.676 Y6.371
X37.764 Y6.317
X37.857 Y6.257
X37.95 Y6.187
X37.953 Y6.185
X38.043 Y6.103
X38.054 Y6.092
X38.136 Y5.997
X38.229 Y5.882
X38.272 Y5.813
X38.326 Y5.72
X38.369 Y5.627
X38.414 Y5.521
X38.439 Y5.441
X38.465 Y5.349
X38.481 Y5.256
X38.496 Y5.163
X38.501 Y5.07
X38.505 Y4.977
Y4.884
Y3.49
X38.503 Y3.397
X38.501 Y3.305
X38.491 Y3.212
X38.478 Y3.119
X38.456 Y3.026
X38.432 Y2.933
X38.414 Y2.883
X38.36 Y2.747
X38.322 Y2.676
X38.258 Y2.561
X38.229 Y2.52
X38.118 Y2.375
X38.043 Y2.297
X37.928 Y2.19
X37.857 Y2.125
X37.71 Y2.004
X37.671 Y1.976
X37.567 Y1.911
X37.485 Y1.86
X37.393 Y1.814
X37.3 Y1.776
X37.207 Y1.744
X37.138 Y1.725
X37.114 Y1.719
X37.021 Y1.699
X36.928 Y1.679
X36.742 Y1.651
X36.092 Y1.555
X35.999 Y1.544
X35.936 Y1.539
X35.721 Y1.527
X35.628 Y1.522
X35.535 Y1.518
X35.442 Y1.515
X34.42 Y1.49
X34.327 Y1.489
X34.234
X34.141 Y1.49
X33.305 Y1.496
X33.12 Y1.498
X33.027 Y1.502
X32.191 Y1.536
X32.098 Y1.54
X32.005 Y1.548
X31.912 Y1.557
X31.819 Y1.567
X31.633 Y1.59
X31.447 Y1.616
X31.369 Y1.632
X31.262 Y1.656
X31.169 Y1.681
X31.076 Y1.708
X31.021 Y1.725
X30.89 Y1.772
X30.797 Y1.809
X30.704 Y1.853
X30.611 Y1.9
X30.519 Y1.951
X30.429 Y2.004
X30.307 Y2.097
X30.24 Y2.154
X30.202 Y2.19
X30.113 Y2.282
X30.054 Y2.351
X30.036 Y2.375
X29.961 Y2.488
X29.913 Y2.561
X29.863 Y2.654
X29.814 Y2.747
X29.775 Y2.844
X29.741 Y2.933
X29.716 Y3.026
X29.696 Y3.119
X29.683 Y3.214
X29.673 Y3.305
X29.67 Y3.397
X29.668 Y3.49
X29.667 Y3.862
Y4.419
Y4.884
Y4.977
G3 X29.359 Y5.277 I-0.31 J-0.01
G1 X29.357
X29.305 Y5.264 Z-0.75
X29.255 Y5.251 Z-0.735
X29.208 Y5.239 Z-0.712
X29.17 Y5.204 Z-0.674
X29.139 Y5.175 Z-0.626
X29.116 Y5.154 Z-0.57
X29.102 Y5.141 Z-0.509
X29.097 Y5.136 Z-0.446
G0 Z3
X34.97 Y7.29
Z-0.109
G1 Z-0.419 F1000
X34.977 Y7.286 Z-0.488
X34.996 Y7.273 Z-0.554
X35.026 Y7.252 Z-0.613
X35.067 Y7.225 Z-0.662
X35.116 Y7.192 Z-0.699
X35.17 Y7.156 Z-0.722
X35.228 Y7.117 Z-0.729
G3 X36.835 Y6.549 I1.912 J2.854
G1 X36.928 Y6.544
X37.021 Y6.534
X37.114 Y6.517
X37.207 Y6.495
X37.3 Y6.466
X37.308 Y6.464
X37.393 Y6.431
X37.485 Y6.389
X37.518 Y6.371
X37.674 Y6.278
X37.764 Y6.209
X37.857 Y6.131
X37.897 Y6.092
X37.95 Y6.035
X38.043 Y5.924
X38.056 Y5.906
X38.113 Y5.813
X38.169 Y5.72
X38.215 Y5.627
X38.229 Y5.595
X38.253 Y5.534
X38.281 Y5.441
X38.308 Y5.349
X38.322 Y5.271
X38.339 Y5.163
X38.344 Y5.07
X38.348 Y4.977
Y4.884
Y3.49
X38.346 Y3.397
X38.344 Y3.305
X38.334 Y3.212
X38.321 Y3.119
X38.299 Y3.026
X38.275 Y2.933
X38.242 Y2.84
X38.229 Y2.806
X38.204 Y2.747
X38.101 Y2.561
X38.043 Y2.477
X38.037 Y2.468
X37.961 Y2.375
X37.857 Y2.268
X37.764 Y2.183
X37.669 Y2.097
X37.578 Y2.023
X37.555 Y2.004
X37.485 Y1.955
X37.408 Y1.911
X37.3 Y1.851
X37.229 Y1.818
X37.207 Y1.809
X37.114 Y1.772
X37.021 Y1.744
X36.928 Y1.717
X36.835 Y1.698
X36.742 Y1.683
X35.906 Y1.56
X35.813 Y1.547
X35.718 Y1.539
X35.628 Y1.535
X35.535 Y1.531
X35.442 Y1.527
X34.42 Y1.502
X34.327
X34.234
X34.141
X33.305 Y1.509
X33.12 Y1.511
X33.027 Y1.514
X32.412 Y1.539
X32.376 Y1.541
X32.284 Y1.55
X31.912 Y1.59
X31.819 Y1.6
X31.633 Y1.622
X31.447 Y1.654
X31.355 Y1.674
X31.262 Y1.695
X31.169 Y1.72
X31.076 Y1.748
X30.983 Y1.781
X30.89 Y1.818
X30.797 Y1.864
X30.704 Y1.911
X30.611 Y1.964
X30.551 Y2.004
X30.519 Y2.027
X30.436 Y2.097
X30.331 Y2.19
X30.244 Y2.282
X30.159 Y2.375
X30.147 Y2.392
X30.092 Y2.468
X30.054 Y2.527
X30.033 Y2.561
X29.961 Y2.693
X29.932 Y2.747
X29.896 Y2.84
X29.868 Y2.91
X29.861 Y2.933
X29.837 Y3.026
X29.815 Y3.119
X29.802 Y3.212
X29.792 Y3.305
X29.79 Y3.397
X29.788 Y3.49
X29.787 Y3.676
Y4.048
Y4.884
Y4.977
G3 X29.479 Y5.277 I-0.31 J-0.01
G1 X29.477
X29.425 Y5.264 Z-0.724
X29.375 Y5.251 Z-0.709
X29.328 Y5.239 Z-0.686
X29.29 Y5.204 Z-0.648
X29.259 Y5.175 Z-0.6
X29.236 Y5.154 Z-0.544
X29.222 Y5.141 Z-0.483
X29.217 Y5.136 Z-0.42
G0 Z3
X34.771 Y7.255
Z-0.083
G1 Z-0.393 F1000
X34.777 Y7.251 Z-0.462
X34.797 Y7.239 Z-0.528
X34.828 Y7.219 Z-0.587
X34.869 Y7.192 Z-0.636
X34.918 Y7.16 Z-0.673
X34.973 Y7.125 Z-0.696
X35.031 Y7.088 Z-0.703
G3 X36.649 Y6.55 I1.859 J2.889
G1 X36.742 Y6.547
X36.835 Y6.538
X36.928 Y6.523
X37.021 Y6.503
X37.114 Y6.476
X37.207 Y6.441
X37.3 Y6.402
X37.393 Y6.351
X37.485 Y6.299
X37.517 Y6.278
X37.578 Y6.234
X37.64 Y6.185
X37.671 Y6.157
X37.764 Y6.067
X37.826 Y5.999
X37.857 Y5.959
X37.898 Y5.906
X37.95 Y5.826
X38.014 Y5.72
X38.043 Y5.656
X38.095 Y5.534
X38.124 Y5.441
X38.151 Y5.349
X38.167 Y5.256
X38.183 Y5.163
X38.187 Y5.07
X38.191 Y4.977
X38.192 Y4.884
Y3.49
X38.19 Y3.397
X38.187 Y3.305
X38.177 Y3.212
X38.164 Y3.119
X38.143 Y3.026
X38.118 Y2.933
X38.083 Y2.84
X38.043 Y2.739
X37.999 Y2.654
X37.945 Y2.561
X37.857 Y2.442
X37.803 Y2.375
X37.671 Y2.244
X37.615 Y2.19
X37.485 Y2.081
X37.393 Y2.01
X37.383 Y2.004
X37.3 Y1.953
X37.216 Y1.911
X37.114 Y1.863
X37.021 Y1.822
X37.011 Y1.818
X36.928 Y1.784
X36.835 Y1.753
X36.738 Y1.725
X36.649 Y1.704
X36.557 Y1.688
X35.906 Y1.592
X35.813 Y1.579
X35.721 Y1.566
X35.628 Y1.555
X35.442 Y1.542
X35.396 Y1.539
X35.349 Y1.537
X34.42 Y1.515
X34.327 Y1.514
X34.234
X34.141
X33.305 Y1.521
X33.12 Y1.523
X33.027 Y1.527
X32.719 Y1.539
X32.655 Y1.544
X32.562 Y1.553
X31.912 Y1.622
X31.819 Y1.632
X31.726 Y1.644
X31.633 Y1.655
X31.447 Y1.692
X31.355 Y1.712
X31.262 Y1.733
X31.169 Y1.761
X31.076 Y1.791
X31.004 Y1.818
X30.89 Y1.872
X30.823 Y1.911
X30.704 Y1.984
X30.677 Y2.004
X30.519 Y2.136
X30.462 Y2.19
X30.333 Y2.323
X30.286 Y2.375
X30.152 Y2.561
X30.147 Y2.57
X30.101 Y2.654
X30.054 Y2.744
X30.016 Y2.84
X29.98 Y2.933
X29.955 Y3.026
X29.935 Y3.119
X29.922 Y3.212
X29.912 Y3.305
X29.909 Y3.397
X29.907 Y3.49
Y3.676
Y4.884
Y4.977
G3 X29.599 Y5.277 I-0.31 J-0.01
G1 X29.597
X29.545 Y5.264 Z-0.698
X29.495 Y5.251 Z-0.684
X29.447 Y5.239 Z-0.66
X29.41 Y5.204 Z-0.622
X29.379 Y5.175 Z-0.574
X29.356 Y5.154 Z-0.518
X29.342 Y5.141 Z-0.457
X29.337 Y5.136 Z-0.394
G0 Z3
X34.574 Y7.225
Z-0.058
G1 Z-0.368 F1000
X34.58 Y7.221 Z-0.437
X34.6 Y7.209 Z-0.502
X34.631 Y7.189 Z-0.561
X34.673 Y7.164 Z-0.61
X34.723 Y7.133 Z-0.647
X34.779 Y7.098 Z-0.67
X34.837 Y7.062 Z-0.678
G3 X36.464 Y6.55 I1.812 J2.919
G1 X36.557 Y6.548
X36.649 Y6.541
X36.742 Y6.528
X36.835 Y6.509
X36.928 Y6.483
X37.021 Y6.451
X37.114 Y6.416
X37.207 Y6.368
X37.3 Y6.316
X37.393 Y6.254
X37.479 Y6.185
X37.58 Y6.092
X37.665 Y5.999
X37.764 Y5.875
X37.804 Y5.813
X37.857 Y5.719
X37.898 Y5.627
X37.938 Y5.534
X37.95 Y5.503
X37.969 Y5.441
X37.995 Y5.349
X38.026 Y5.163
X38.03 Y5.07
X38.035 Y4.977
Y4.884
Y3.49
X38.033 Y3.397
X38.03 Y3.305
X38.02 Y3.212
X38.008 Y3.119
X37.989 Y3.026
X37.962 Y2.933
X37.95 Y2.899
X37.889 Y2.747
X37.857 Y2.684
X37.841 Y2.654
X37.788 Y2.561
X37.647 Y2.375
X37.578 Y2.306
X37.458 Y2.19
X37.393 Y2.139
X37.3 Y2.07
X37.207 Y2.008
X37.114 Y1.959
X37.021 Y1.915
X36.835 Y1.836
X36.793 Y1.818
X36.742 Y1.797
X36.649 Y1.763
X36.521 Y1.725
X36.464 Y1.71
X36.371 Y1.693
X36.278 Y1.679
X35.906 Y1.624
X35.813 Y1.611
X35.721 Y1.598
X35.628 Y1.587
X35.442 Y1.574
X34.977 Y1.545
X34.884 Y1.539
X34.792 Y1.536
X34.42 Y1.527
X34.327
X34.234
X34.141
X33.305 Y1.534
X33.12 Y1.536
X33.027 Y1.539
X32.934 Y1.546
X31.912 Y1.654
X31.819 Y1.665
X31.726 Y1.678
X31.633 Y1.691
X31.447 Y1.731
X31.355 Y1.757
X31.262 Y1.789
X31.193 Y1.818
X31.169 Y1.829
X31.076 Y1.875
X30.89 Y1.98
X30.848 Y2.004
X30.797 Y2.038
X30.704 Y2.1
X30.611 Y2.176
X30.595 Y2.19
X30.519 Y2.262
X30.499 Y2.282
X30.411 Y2.375
X30.333 Y2.474
X30.274 Y2.561
X30.222 Y2.654
X30.171 Y2.747
X30.147 Y2.802
X30.133 Y2.84
X30.1 Y2.933
X30.076 Y3.026
X30.054 Y3.12
X30.041 Y3.212
X30.031 Y3.305
X30.029 Y3.397
X30.027 Y3.49
Y4.884
Y4.977
G3 X29.719 Y5.277 I-0.31 J-0.01
G1 X29.717
X29.665 Y5.264 Z-0.672
X29.615 Y5.251 Z-0.658
X29.567 Y5.239 Z-0.634
X29.53 Y5.204 Z-0.596
X29.499 Y5.175 Z-0.548
X29.476 Y5.154 Z-0.492
X29.462 Y5.141 Z-0.432
X29.457 Y5.136 Z-0.368
G0 Z3
X34.509 Y7.299
Z-0.032
G1 Z-0.342 F1000
X34.516 Y7.294 Z-0.411
X34.535 Y7.282 Z-0.476
X34.565 Y7.261 Z-0.535
X34.606 Y7.233 Z-0.584
X34.654 Y7.2 Z-0.621
X34.709 Y7.164 Z-0.644
X34.766 Y7.125 Z-0.652
G3 X36.371 Y6.549 I1.926 J2.845
G1 X36.464 Y6.544
X36.557 Y6.533
X36.649 Y6.516
X36.742 Y6.493
X36.836 Y6.464
X36.928 Y6.429
X37.021 Y6.385
X37.051 Y6.371
X37.114 Y6.332
X37.207 Y6.273
X37.3 Y6.203
X37.393 Y6.123
X37.428 Y6.092
X37.485 Y6.026
X37.583 Y5.906
X37.643 Y5.813
X37.698 Y5.72
X37.742 Y5.627
X37.783 Y5.534
X37.811 Y5.441
X37.837 Y5.349
X37.854 Y5.256
X37.869 Y5.163
X37.874 Y5.07
X37.878 Y4.977
Y4.884
Y3.49
X37.876 Y3.397
X37.874 Y3.305
X37.864 Y3.212
X37.851 Y3.119
X37.829 Y3.026
X37.805 Y2.933
X37.772 Y2.84
X37.733 Y2.747
X37.682 Y2.654
X37.631 Y2.561
X37.578 Y2.487
X37.491 Y2.375
X37.485 Y2.37
X37.4 Y2.282
X37.3 Y2.192
X37.297 Y2.19
X37.207 Y2.125
X37.114 Y2.066
X37.021 Y2.012
X36.928 Y1.969
X36.835 Y1.928
X36.575 Y1.818
X36.557 Y1.81
X36.464 Y1.773
X36.371 Y1.745
X36.278 Y1.718
X36.185 Y1.698
X36.092 Y1.684
X35.906 Y1.657
X35.813 Y1.643
X35.721 Y1.63
X35.628 Y1.619
X35.442 Y1.607
X34.606 Y1.554
X34.42 Y1.542
X34.327 Y1.541
X34.234
X34.141 Y1.543
X33.12 Y1.564
X32.934 Y1.579
X32.841 Y1.589
X32.005 Y1.677
X31.912 Y1.687
X31.819 Y1.701
X31.726 Y1.721
X31.71 Y1.725
X31.633 Y1.747
X31.54 Y1.778
X31.447 Y1.811
X31.355 Y1.855
X31.262 Y1.903
X31.076 Y2.01
X30.932 Y2.097
X30.89 Y2.123
X30.797 Y2.192
X30.704 Y2.274
X30.605 Y2.375
X30.529 Y2.468
X30.519 Y2.484
X30.465 Y2.561
X30.361 Y2.747
X30.325 Y2.84
X30.291 Y2.933
X30.266 Y3.026
X30.245 Y3.119
X30.232 Y3.212
X30.222 Y3.305
X30.219 Y3.397
X30.217 Y3.49
Y4.884
Y4.977
G3 X29.909 Y5.277 I-0.31 J-0.01
G1 X29.908
X29.856 Y5.264 Z-0.646
X29.805 Y5.251 Z-0.632
X29.758 Y5.239 Z-0.608
X29.721 Y5.204 Z-0.57
X29.69 Y5.175 Z-0.522
X29.667 Y5.154 Z-0.466
X29.653 Y5.141 Z-0.406
X29.648 Y5.136 Z-0.342
G0 Z3
X34.325 Y7.302
Z-0.012
G1 Z-0.322 F1000
X34.331 Y7.298 Z-0.391
X34.35 Y7.285 Z-0.456
X34.381 Y7.264 Z-0.515
X34.421 Y7.236 Z-0.564
X34.47 Y7.203 Z-0.601
X34.524 Y7.167 Z-0.624
X34.581 Y7.128 Z-0.632
G3 X36.185 Y6.549 I1.931 J2.842
G1 X36.278 Y6.544
X36.371 Y6.533
X36.464 Y6.515
X36.557 Y6.49
X36.649 Y6.462
X36.742 Y6.427
X36.835 Y6.385
X36.86 Y6.371
X37.021 Y6.274
X37.114 Y6.202
X37.207 Y6.123
X37.239 Y6.092
X37.3 Y6.024
X37.393 Y5.913
X37.397 Y5.906
X37.455 Y5.813
X37.51 Y5.72
X37.556 Y5.627
X37.578 Y5.576
X37.594 Y5.534
X37.622 Y5.441
X37.649 Y5.349
X37.665 Y5.256
X37.681 Y5.163
X37.685 Y5.07
X37.69 Y4.977
Y4.884
Y3.49
X37.688 Y3.397
X37.685 Y3.305
X37.675 Y3.212
X37.662 Y3.119
X37.641 Y3.026
X37.616 Y2.933
X37.584 Y2.84
X37.578 Y2.826
X37.545 Y2.747
X37.485 Y2.639
X37.442 Y2.561
X37.393 Y2.488
X37.377 Y2.468
X37.302 Y2.375
X37.213 Y2.282
X37.207 Y2.276
X37.114 Y2.195
X37.107 Y2.19
X37.021 Y2.126
X36.928 Y2.07
X36.835 Y2.014
X36.649 Y1.92
X36.629 Y1.911
X36.41 Y1.818
X36.371 Y1.803
X36.278 Y1.767
X36.185 Y1.736
X36.144 Y1.725
X36.092 Y1.713
X35.999 Y1.696
X35.906 Y1.682
X35.813 Y1.668
X35.721 Y1.655
X35.628 Y1.644
X35.442 Y1.631
X34.606 Y1.578
X34.42 Y1.567
X34.327 Y1.566
X34.234
X34.141 Y1.567
X33.12 Y1.589
X32.934 Y1.604
X32.841 Y1.613
X32.191 Y1.682
X32.098 Y1.693
X32.005 Y1.71
X31.942 Y1.725
X31.912 Y1.733
X31.819 Y1.76
X31.726 Y1.789
X31.64 Y1.818
X31.54 Y1.86
X31.447 Y1.908
X31.355 Y1.959
X31.274 Y2.004
X31.262 Y2.011
X31.117 Y2.097
X31.076 Y2.126
X30.983 Y2.194
X30.89 Y2.278
X30.793 Y2.375
X30.719 Y2.468
X30.652 Y2.561
X30.599 Y2.654
X30.55 Y2.747
X30.513 Y2.84
X30.478 Y2.933
X30.454 Y3.026
X30.432 Y3.119
X30.419 Y3.212
X30.409 Y3.305
X30.407 Y3.397
X30.405 Y3.49
Y4.884
Y4.977
G3 X30.097 Y5.277 I-0.31 J-0.01
G1 X30.095
X30.043 Y5.264 Z-0.627
X29.993 Y5.251 Z-0.612
X29.946 Y5.239 Z-0.589
X29.908 Y5.204 Z-0.55
X29.877 Y5.175 Z-0.502
X29.854 Y5.154 Z-0.447
X29.84 Y5.141 Z-0.386
X29.835 Y5.136 Z-0.322
G0 Z3
X34.019 Y7.209
Z0.007
G1 Z-0.303 F1000
X34.026 Y7.205 Z-0.372
X34.045 Y7.193 Z-0.438
X34.077 Y7.174 Z-0.496
X34.119 Y7.148 Z-0.545
X34.169 Y7.117 Z-0.582
X34.225 Y7.083 Z-0.605
X34.284 Y7.048 Z-0.613
G3 X35.915 Y6.55 I1.787 J2.934
G1 X35.999 Y6.549
X36.092 Y6.543
X36.185 Y6.531
X36.278 Y6.513
X36.454 Y6.464
X36.464 Y6.46
X36.557 Y6.424
X36.649 Y6.379
X36.822 Y6.278
X36.835 Y6.269
X36.928 Y6.196
X36.941 Y6.185
X37.021 Y6.115
X37.044 Y6.092
X37.114 Y6.015
X37.128 Y5.999
X37.202 Y5.906
X37.207 Y5.9
X37.26 Y5.813
X37.316 Y5.72
X37.362 Y5.627
X37.4 Y5.534
X37.428 Y5.441
X37.455 Y5.349
X37.471 Y5.256
X37.486 Y5.163
X37.491 Y5.07
X37.495 Y4.977
Y4.884
Y3.49
X37.493 Y3.397
X37.491 Y3.305
X37.485 Y3.244
X37.468 Y3.119
X37.446 Y3.026
X37.422 Y2.933
X37.393 Y2.852
X37.351 Y2.747
X37.248 Y2.561
X37.207 Y2.502
X37.183 Y2.468
X37.114 Y2.382
X37.108 Y2.375
X37.017 Y2.282
X36.928 Y2.202
X36.912 Y2.19
X36.835 Y2.132
X36.78 Y2.097
X36.649 Y2.019
X36.622 Y2.004
X36.449 Y1.911
X36.371 Y1.873
X36.25 Y1.818
X36.185 Y1.793
X36.092 Y1.759
X35.999 Y1.729
X35.984 Y1.725
X35.906 Y1.707
X35.813 Y1.692
X35.721 Y1.679
X35.628 Y1.668
X35.442 Y1.655
X34.606 Y1.602
X34.42 Y1.591
X34.327 Y1.589
X34.234 Y1.59
X34.141 Y1.591
X33.12 Y1.613
X33.027 Y1.618
X32.934 Y1.627
X32.376 Y1.686
X32.284 Y1.699
X32.191 Y1.718
X32.098 Y1.743
X31.912 Y1.8
X31.853 Y1.818
X31.819 Y1.83
X31.726 Y1.864
X31.63 Y1.911
X31.54 Y1.956
X31.447 Y2.008
X31.355 Y2.062
X31.3 Y2.097
X31.169 Y2.19
X31.076 Y2.27
X31.062 Y2.282
X30.973 Y2.375
X30.902 Y2.468
X30.832 Y2.561
X30.797 Y2.619
X30.777 Y2.654
X30.731 Y2.747
X30.694 Y2.84
X30.659 Y2.933
X30.634 Y3.026
X30.611 Y3.119
X30.597 Y3.212
X30.59 Y3.305
X30.587 Y3.397
X30.585 Y3.49
Y4.884
Y4.977
G3 X30.277 Y5.277 I-0.31 J-0.01
G1 X30.276
X30.224 Y5.264 Z-0.608
X30.173 Y5.251 Z-0.593
X30.126 Y5.239 Z-0.57
X30.089 Y5.204 Z-0.531
X30.058 Y5.175 Z-0.483
X30.035 Y5.154 Z-0.428
X30.021 Y5.141 Z-0.367
X30.016 Y5.136 Z-0.304
G0 Z3
X33.836 Y7.215
Z0.026
G1 Z-0.284 F1000
X33.842 Y7.211 Z-0.353
X33.862 Y7.199 Z-0.419
X33.893 Y7.18 Z-0.478
X33.935 Y7.154 Z-0.527
X33.985 Y7.123 Z-0.564
X34.041 Y7.089 Z-0.586
X34.1 Y7.053 Z-0.594
G3 X35.729 Y6.55 I1.796 J2.928
G1 X35.813 Y6.549
X35.906 Y6.542
X35.999 Y6.529
X36.092 Y6.51
X36.185 Y6.485
X36.259 Y6.464
X36.371 Y6.42
X36.464 Y6.373
X36.557 Y6.32
X36.627 Y6.278
X36.649 Y6.262
X36.742 Y6.189
X36.748 Y6.185
X36.835 Y6.105
X36.849 Y6.092
X36.928 Y6.006
X36.934 Y5.999
X37.007 Y5.906
X37.021 Y5.888
X37.066 Y5.813
X37.121 Y5.72
X37.166 Y5.627
X37.207 Y5.529
X37.233 Y5.441
X37.26 Y5.349
X37.277 Y5.256
X37.292 Y5.163
X37.296 Y5.07
X37.301 Y4.977
Y4.884
Y3.49
X37.3 Y3.425
X37.296 Y3.305
X37.286 Y3.212
X37.274 Y3.119
X37.252 Y3.026
X37.227 Y2.933
X37.207 Y2.876
X37.155 Y2.747
X37.114 Y2.668
X37.054 Y2.561
X37.021 Y2.515
X36.987 Y2.468
X36.928 Y2.392
X36.913 Y2.375
X36.821 Y2.282
X36.742 Y2.209
X36.717 Y2.19
X36.649 Y2.14
X36.587 Y2.097
X36.464 Y2.024
X36.427 Y2.004
X36.255 Y1.911
X36.185 Y1.874
X36.066 Y1.818
X35.999 Y1.793
X35.906 Y1.764
X35.813 Y1.737
X35.721 Y1.719
X35.628 Y1.701
X35.535 Y1.687
X35.442 Y1.679
X34.513 Y1.62
X34.42 Y1.614
X34.327 Y1.613
X34.234
X34.141 Y1.615
X33.12 Y1.636
X32.934 Y1.651
X32.841 Y1.66
X32.655 Y1.68
X32.562 Y1.691
X32.469 Y1.707
X32.388 Y1.725
X32.376 Y1.728
X32.284 Y1.754
X32.075 Y1.818
X32.005 Y1.84
X31.912 Y1.871
X31.726 Y1.953
X31.633 Y2.005
X31.54 Y2.058
X31.447 Y2.121
X31.348 Y2.19
X31.262 Y2.27
X31.169 Y2.358
X31.153 Y2.375
X31.013 Y2.561
X30.983 Y2.61
X30.959 Y2.654
X30.911 Y2.747
X30.874 Y2.84
X30.838 Y2.933
X30.812 Y3.026
X30.797 Y3.089
X30.793 Y3.119
X30.78 Y3.212
X30.77 Y3.305
X30.767 Y3.397
X30.765 Y3.49
Y4.884
X30.766 Y4.977
G3 X30.458 Y5.277 I-0.31 J-0.01
G1 X30.456
X30.404 Y5.264 Z-0.589
X30.353 Y5.251 Z-0.574
X30.306 Y5.239 Z-0.551
X30.269 Y5.204 Z-0.513
X30.238 Y5.175 Z-0.465
X30.215 Y5.154 Z-0.409
X30.201 Y5.141 Z-0.348
X30.196 Y5.136 Z-0.285
G0 Z3
X33.643 Y7.22
Z0.045
G1 Z-0.265 F1000
X33.65 Y7.216 Z-0.334
X33.669 Y7.204 Z-0.4
X33.701 Y7.184 Z-0.459
X33.742 Y7.159 Z-0.508
X33.792 Y7.128 Z-0.545
X33.848 Y7.093 Z-0.568
X33.907 Y7.057 Z-0.575
G3 X35.535 Y6.55 I1.804 J2.924
G1 X35.628 Y6.548
X35.721 Y6.541
X35.813 Y6.528
X35.906 Y6.507
X35.999 Y6.483
X36.062 Y6.464
X36.185 Y6.417
X36.278 Y6.368
X36.371 Y6.316
X36.432 Y6.278
X36.464 Y6.256
X36.557 Y6.183
X36.654 Y6.092
X36.742 Y5.997
X36.812 Y5.906
X36.835 Y5.874
X36.928 Y5.72
X36.97 Y5.627
X37.01 Y5.534
X37.021 Y5.503
X37.066 Y5.349
X37.082 Y5.256
X37.097 Y5.163
X37.102 Y5.07
X37.106 Y4.977
X37.107 Y4.884
Y3.49
X37.104 Y3.397
X37.102 Y3.305
X37.092 Y3.212
X37.079 Y3.119
X37.057 Y3.026
X37.033 Y2.933
X37.021 Y2.898
X36.961 Y2.747
X36.928 Y2.679
X36.859 Y2.561
X36.835 Y2.528
X36.792 Y2.468
X36.742 Y2.402
X36.718 Y2.375
X36.625 Y2.282
X36.557 Y2.216
X36.523 Y2.19
X36.394 Y2.097
X36.371 Y2.083
X36.278 Y2.029
X36.233 Y2.004
X36.185 Y1.978
X35.999 Y1.883
X35.906 Y1.847
X35.831 Y1.818
X35.813 Y1.813
X35.628 Y1.768
X35.442 Y1.734
X35.256 Y1.701
X35.163 Y1.687
X35.07 Y1.679
X34.977 Y1.673
X34.606 Y1.649
X34.42 Y1.638
X34.327 Y1.637
X34.234
X34.141 Y1.638
X33.12 Y1.66
X32.934 Y1.675
X32.841 Y1.684
X32.748 Y1.696
X32.655 Y1.717
X32.562 Y1.739
X32.469 Y1.766
X32.191 Y1.851
X32.098 Y1.881
X32.005 Y1.917
X31.912 Y1.955
X31.817 Y2.004
X31.726 Y2.057
X31.633 Y2.117
X31.54 Y2.18
X31.528 Y2.19
X31.447 Y2.263
X31.426 Y2.282
X31.355 Y2.352
X31.333 Y2.375
X31.262 Y2.469
X31.193 Y2.561
X31.142 Y2.654
X31.091 Y2.747
X31.054 Y2.84
X31.019 Y2.933
X30.983 Y3.07
X30.973 Y3.119
X30.96 Y3.212
X30.95 Y3.305
X30.948 Y3.397
X30.946 Y3.49
Y4.884
Y4.977
G3 X30.638 Y5.277 I-0.31 J-0.01
G1 X30.636
X30.584 Y5.264 Z-0.57
X30.534 Y5.251 Z-0.555
X30.486 Y5.239 Z-0.532
X30.449 Y5.204 Z-0.494
X30.418 Y5.175 Z-0.446
X30.395 Y5.154 Z-0.39
X30.381 Y5.141 Z-0.329
X30.376 Y5.136 Z-0.266
G0 Z3
X33.461 Y7.231
Z0.064
G1 Z-0.246 F1000
X33.468 Y7.227 Z-0.315
X33.487 Y7.215 Z-0.381
X33.519 Y7.195 Z-0.44
X33.56 Y7.169 Z-0.489
X33.61 Y7.138 Z-0.526
X33.666 Y7.103 Z-0.549
X33.724 Y7.067 Z-0.556
G3 X35.349 Y6.55 I1.821 J2.913
G1 X35.442 Y6.548
X35.535 Y6.54
X35.628 Y6.527
X35.721 Y6.508
X35.813 Y6.483
X35.906 Y6.448
X35.999 Y6.412
X36.092 Y6.363
X36.185 Y6.313
X36.278 Y6.249
X36.36 Y6.185
X36.464 Y6.087
X36.546 Y5.999
X36.618 Y5.906
X36.649 Y5.861
X36.679 Y5.813
X36.734 Y5.72
X36.742 Y5.705
X36.816 Y5.534
X36.835 Y5.473
X36.871 Y5.349
X36.889 Y5.256
X36.903 Y5.163
X36.912 Y4.977
Y4.884
Y3.49
X36.91 Y3.397
X36.908 Y3.305
X36.9 Y3.212
X36.886 Y3.119
X36.863 Y3.026
X36.835 Y2.92
X36.804 Y2.84
X36.767 Y2.747
X36.742 Y2.697
X36.721 Y2.654
X36.665 Y2.561
X36.557 Y2.416
X36.525 Y2.375
X36.464 Y2.311
X36.435 Y2.282
X36.371 Y2.224
X36.328 Y2.19
X36.185 Y2.088
X36.092 Y2.034
X36.038 Y2.004
X35.999 Y1.983
X35.906 Y1.94
X35.813 Y1.898
X35.721 Y1.868
X35.628 Y1.84
X35.535 Y1.82
X35.442 Y1.802
X35.019 Y1.725
X34.977 Y1.718
X34.792 Y1.687
X34.699 Y1.679
X34.606 Y1.673
X34.42 Y1.662
X34.327 Y1.66
X34.234 Y1.661
X34.141 Y1.662
X33.491 Y1.676
X33.398 Y1.679
X33.212 Y1.69
X33.12 Y1.696
X32.934 Y1.719
X32.748 Y1.757
X32.655 Y1.782
X32.562 Y1.806
X32.521 Y1.818
X32.376 Y1.862
X32.284 Y1.892
X32.191 Y1.923
X32.098 Y1.959
X32.002 Y2.004
X31.912 Y2.054
X31.819 Y2.112
X31.726 Y2.176
X31.709 Y2.19
X31.633 Y2.256
X31.603 Y2.282
X31.54 Y2.347
X31.513 Y2.375
X31.44 Y2.468
X31.374 Y2.561
X31.322 Y2.654
X31.271 Y2.747
X31.231 Y2.84
X31.199 Y2.933
X31.169 Y3.05
X31.153 Y3.119
X31.14 Y3.212
X31.13 Y3.305
X31.128 Y3.397
X31.126 Y3.49
Y4.884
Y4.977
G3 X30.818 Y5.277 I-0.31 J-0.01
G1 X30.816
X30.764 Y5.264 Z-0.551
X30.714 Y5.251 Z-0.537
X30.667 Y5.239 Z-0.513
X30.629 Y5.204 Z-0.475
X30.598 Y5.175 Z-0.427
X30.575 Y5.154 Z-0.371
X30.561 Y5.141 Z-0.31
X30.556 Y5.136 Z-0.247
G0 Z3
X33.279 Y7.241
Z0.082
G1 Z-0.228 F1000
X33.286 Y7.237 Z-0.297
X33.305 Y7.224 Z-0.362
X33.336 Y7.205 Z-0.421
X33.378 Y7.178 Z-0.47
X33.427 Y7.147 Z-0.507
X33.483 Y7.112 Z-0.53
X33.541 Y7.075 Z-0.538
G3 X35.163 Y6.55 I1.836 J2.904
G1 X35.256 Y6.547
X35.349 Y6.539
X35.442 Y6.525
X35.535 Y6.505
X35.628 Y6.478
X35.721 Y6.444
X35.813 Y6.407
X35.906 Y6.359
X35.999 Y6.306
X36.092 Y6.243
X36.164 Y6.185
X36.278 Y6.078
X36.35 Y5.999
X36.423 Y5.906
X36.464 Y5.848
X36.486 Y5.813
X36.539 Y5.72
X36.557 Y5.685
X36.621 Y5.534
X36.65 Y5.441
X36.677 Y5.349
X36.694 Y5.256
X36.709 Y5.163
X36.717 Y4.977
X36.718 Y4.884
Y3.49
X36.716 Y3.397
X36.713 Y3.305
X36.703 Y3.212
G3 X37.32 Y3.146 I0.308 J-0.033
X36.703 Y3.212 I-0.308 J0.033
X36.731 Y3.046 I0.308 J-0.033
G1 X36.938 Y2.609
G3 X37.499 Y2.875 I0.28 J0.133
X37.101 Y3.029 I-0.28 J-0.133
X36.47 Y2.561 I0.598 J-1.465
G1 X36.33 Y2.375
X36.278 Y2.321
X36.241 Y2.282
X36.185 Y2.232
X36.133 Y2.19
X35.999 Y2.096
X35.906 Y2.038
X35.84 Y2.004
X35.813 Y1.991
X35.721 Y1.954
X35.606 Y1.911
X35.535 Y1.894
X35.442 Y1.871
X35.349 Y1.853
X35.256 Y1.836
X35.154 Y1.818
X34.977 Y1.787
X34.599 Y1.725
X34.513 Y1.714
X34.42 Y1.703
X34.327 Y1.698
X34.234
X34.141 Y1.701
X33.584 Y1.735
X33.398 Y1.747
X33.305 Y1.756
X33.212 Y1.77
X33.12 Y1.785
X32.748 Y1.862
X32.655 Y1.883
X32.562 Y1.904
X32.537 Y1.911
X32.376 Y1.967
X32.293 Y2.004
X32.284 Y2.008
X32.191 Y2.057
X32.132 Y2.097
X31.997 Y2.19
X31.912 Y2.268
X31.819 Y2.356
X31.801 Y2.375
X31.661 Y2.561
X31.633 Y2.607
X31.608 Y2.654
X31.559 Y2.747
X31.522 Y2.84
X31.487 Y2.933
X31.46 Y3.026
X31.447 Y3.08
X31.441 Y3.119
X31.428 Y3.212
X31.418 Y3.305
X31.416 Y3.397
X31.414 Y3.49
Y4.884
Y4.977
G3 X31.106 Y5.277 I-0.31 J-0.01
G1 X31.104
X31.052 Y5.264 Z-0.532
X31.002 Y5.251 Z-0.518
X30.955 Y5.239 Z-0.494
X30.917 Y5.204 Z-0.456
X30.886 Y5.175 Z-0.408
X30.863 Y5.154 Z-0.352
X30.849 Y5.141 Z-0.292
X30.844 Y5.136 Z-0.228
G0 Z3
X33.72 Y6.772
Z0.095
G1 Z-0.215 F1000
X33.728 Y6.77 Z-0.284
X33.75 Y6.763 Z-0.349
X33.785 Y6.753 Z-0.408
X33.832 Y6.739 Z-0.457
X33.889 Y6.723 Z-0.494
X33.952 Y6.705 Z-0.517
X34.018 Y6.686 Z-0.525
G3 X34.792 Y6.55 I1.012 J3.502
G1 X34.884 Y6.547
X34.977 Y6.538
X35.07 Y6.522
X35.163 Y6.503
X35.256 Y6.475
X35.349 Y6.445
X35.442 Y6.405
X35.535 Y6.359
X35.628 Y6.3
X35.721 Y6.239
X35.789 Y6.185
X35.813 Y6.165
X35.906 Y6.076
X35.97 Y5.999
X36.045 Y5.906
X36.092 Y5.84
X36.162 Y5.72
X36.185 Y5.673
X36.244 Y5.534
X36.275 Y5.441
X36.301 Y5.349
X36.317 Y5.256
X36.332 Y5.163
X36.336 Y5.07
X36.341 Y4.977
Y4.884
Y3.49
X36.339 Y3.397
X36.337 Y3.305
X36.327 Y3.212
X36.314 Y3.119
G3 X36.928 Y3.033 I0.307 J-0.043
X36.658 Y3.384 I-0.307 J0.043
X36.312 Y3.107 I-0.037 J-0.308
G1 X36.219 Y2.188
G3 X36.836 Y2.126 I0.308 J-0.031
X36.494 Y2.465 I-0.308 J0.031
X35.759 Y2.19 I0.17 J-1.573
G1 X35.721 Y2.161
X35.622 Y2.097
X35.535 Y2.04
X35.46 Y2.004
X35.442 Y1.995
X35.349 Y1.955
X35.213 Y1.911
X35.163 Y1.897
X35.07 Y1.878
X34.977 Y1.86
X34.606 Y1.798
X34.513 Y1.783
X34.42 Y1.769
X34.327 Y1.758
X34.234 Y1.753
X34.141 Y1.751
X34.048 Y1.755
X33.956 Y1.76
X33.584 Y1.782
X33.491 Y1.792
X33.398 Y1.803
X33.311 Y1.818
X33.212 Y1.838
X33.027 Y1.877
X32.934 Y1.899
X32.841 Y1.927
X32.748 Y1.959
X32.645 Y2.004
X32.562 Y2.047
X32.469 Y2.104
X32.376 Y2.166
X32.346 Y2.19
X32.284 Y2.243
X32.239 Y2.282
X32.191 Y2.333
X32.15 Y2.375
X32.076 Y2.468
X32.01 Y2.561
X31.912 Y2.738
X31.907 Y2.747
X31.868 Y2.84
X31.836 Y2.933
X31.812 Y3.026
X31.79 Y3.119
X31.777 Y3.212
X31.767 Y3.305
X31.765 Y3.397
X31.763 Y3.49
Y4.884
Y4.977
G3 X31.455 Y5.277 I-0.31 J-0.01
G1 X31.453
