(302)
(WC links)
(T1  D=3.1 CR=0 - ZMIN=-18.5 - flat end mill)
G90 G94
G17
G21

(Adaptive2)
S10000 M3
G54
G0 Z10
G0 X-0.317 Y-3.541
G1 Z-0.67 F1000
X-0.315 Y-3.533 Z-0.739
X-0.31 Y-3.511 Z-0.804
X-0.301 Y-3.475 Z-0.863
X-0.288 Y-3.428 Z-0.912
X-0.274 Y-3.371 Z-0.949
X-0.258 Y-3.308 Z-0.972
X-0.24 Y-3.241 Z-0.98
G3 X0.002 Y-1.553 I-7.667 J1.964
G1 Y-1.523
X-0.054 Y-1.243
X-0.101 Y-0.961
X-0.139 Y-0.678
X-0.17 Y-0.394
X-0.195 Y-0.11
X-0.216 Y0.175
X-0.233 Y0.46
X-0.246 Y0.745
X-0.257 Y1.031
X-0.266 Y1.316
X-0.274 Y1.601
X-0.28 Y1.887
X-0.285 Y2.173
X-0.289 Y2.458
X-0.292 Y2.744
X-0.294 Y3.029
X-0.297 Y3.315
X-0.298 Y3.6
X-0.3 Y3.886
X-0.301 Y4.172
X-0.303 Y4.743
X-0.304 Y5.314
X-0.305 Y6.171
Y7.599
X-0.306 Y10.74
X-0.308 Y38.156
X-0.216 Y38.426
X-0.053 Y38.661
X0.152 Y38.86
X0.383 Y39.026
X0.633 Y39.166
X0.894 Y39.281
X1.163 Y39.376
X1.438 Y39.455
X1.716 Y39.519
X1.997 Y39.572
X2.279 Y39.615
X2.562 Y39.651
X2.847 Y39.68
X3.131 Y39.703
X3.416 Y39.722
X3.701 Y39.738
X3.987 Y39.751
X4.272 Y39.761
X4.557 Y39.769
X4.843 Y39.776
X5.128 Y39.782
X5.414 Y39.786
X5.7 Y39.79
X5.985 Y39.793
X6.271 Y39.795
X6.556 Y39.797
X6.842 Y39.799
X7.127 Y39.8
X7.699 Y39.802
X8.27 Y39.804
X9.126 Y39.805
X9.412
X10.84 Y39.806
X14.267
X53.106 Y39.808
X53.386 Y39.75
X53.631 Y39.603
X53.84 Y39.409
X54.015 Y39.184
X54.162 Y38.939
X54.284 Y38.68
X54.385 Y38.413
X54.468 Y38.14
X54.536 Y37.863
X54.592 Y37.583
X54.638 Y37.301
X54.676 Y37.018
X54.706 Y36.734
X54.731 Y36.449
X54.752 Y36.164
X54.768 Y35.879
X54.782 Y35.594
X54.793 Y35.309
X54.802 Y35.023
X54.809 Y34.738
X54.815 Y34.452
X54.82 Y34.167
X54.824 Y33.881
X54.827 Y33.596
X54.829 Y33.31
X54.831 Y33.024
X54.833 Y32.739
X54.835 Y32.453
X54.836 Y32.168
X54.837 Y31.596
X54.838 Y31.025
X54.84 Y30.169
Y28.741
X54.841 Y25.599
X54.842 Y1.325
X54.746 Y1.056
X54.58 Y0.824
X54.373 Y0.627
X54.14 Y0.461
X53.89 Y0.323
X53.628 Y0.209
X53.359 Y0.115
X53.084 Y0.037
X52.806 Y-0.027
X52.525 Y-0.079
X52.243 Y-0.122
X51.959 Y-0.157
X51.675 Y-0.185
X51.39 Y-0.208
X51.105 Y-0.227
X50.82 Y-0.243
X50.535 Y-0.255
X50.25 Y-0.266
X49.964 Y-0.274
X49.679 Y-0.281
X49.393 Y-0.286
X49.108 Y-0.29
X48.822 Y-0.294
X48.536 Y-0.297
X48.251 Y-0.299
X47.965 Y-0.301
X47.68 Y-0.303
X47.394 Y-0.304
X46.823 Y-0.306
X46.252 Y-0.307
X45.395 Y-0.308
X44.253 Y-0.309
X41.968
X37.684
X2.843 Y-0.308
X2.701 Y-0.3
X2.424 Y-0.228
X2.182 Y-0.077
X1.974 Y0.119
X1.798 Y0.343
X1.649 Y0.587
X1.525 Y0.844
X1.421 Y1.111
X1.335 Y1.383
X1.264 Y1.659
X1.205 Y1.939
X1.157 Y2.22
X1.117 Y2.503
X1.084 Y2.787
X1.057 Y3.071
X1.035 Y3.356
X1.016 Y3.641
X1.001 Y3.926
X0.989 Y4.211
X0.979 Y4.497
X0.971 Y4.782
X0.964 Y5.068
X0.959 Y5.353
X0.954 Y5.639
X0.951 Y5.924
X0.948 Y6.21
X0.945 Y6.495
X0.943 Y6.781
X0.941 Y7.067
X0.94 Y7.352
X0.939 Y7.638
X0.937 Y8.209
X0.936 Y8.78
X0.935 Y9.637
X0.934 Y11.065
Y14.206
X0.932 Y36.481
X1 Y36.759
X1.127 Y37.015
X1.297 Y37.244
X1.5 Y37.445
X1.726 Y37.619
X1.969 Y37.769
X2.225 Y37.897
X2.489 Y38.006
X2.759 Y38.098
X3.034 Y38.175
X3.312 Y38.24
X3.592 Y38.295
X3.874 Y38.34
X4.157 Y38.379
X4.441 Y38.411
X4.725 Y38.437
X5.01 Y38.459
X5.295 Y38.477
X5.58 Y38.493
X5.866 Y38.505
X6.151 Y38.516
X6.436 Y38.525
X6.722 Y38.532
X7.007 Y38.538
X7.293 Y38.543
X7.579 Y38.547
X7.864 Y38.55
X8.15 Y38.553
X8.435 Y38.555
X8.721 Y38.557
X9.006 Y38.559
X9.292 Y38.56
X9.863 Y38.562
X10.434 Y38.563
X11.291 Y38.565
X12.433
X14.432 Y38.566
X23.571 Y38.567
X28.14
X51.272 Y38.568
X51.558 Y38.561
X51.833 Y38.484
X52.085 Y38.35
X52.31 Y38.174
X52.507 Y37.967
X52.677 Y37.738
X52.824 Y37.493
X52.949 Y37.236
X53.055 Y36.971
X53.144 Y36.7
X53.22 Y36.424
X53.283 Y36.146
X53.336 Y35.865
X53.381 Y35.583
X53.418 Y35.3
X53.449 Y35.016
X53.475 Y34.732
X53.496 Y34.447
X53.514 Y34.162
X53.529 Y33.877
X53.541 Y33.591
X53.552 Y33.306
X53.56 Y33.021
X53.567 Y32.735
X53.573 Y32.45
X53.578 Y32.164
X53.582 Y31.878
X53.585 Y31.593
X53.588 Y31.307
X53.59 Y31.022
X53.592 Y30.736
X53.593 Y30.451
X53.595 Y30.165
X53.597 Y29.594
X53.598 Y29.023
X53.599 Y28.166
X53.6 Y27.024
X53.601 Y25.025
Y15.315
X53.602 Y12.459
Y3.035
X53.54 Y2.756
X53.417 Y2.498
X53.249 Y2.267
X53.049 Y2.064
X52.824 Y1.888
X52.582 Y1.736
X52.327 Y1.607
X52.063 Y1.497
X51.793 Y1.404
X51.519 Y1.326
X51.241 Y1.26
X50.961 Y1.205
X50.679 Y1.158
X50.396 Y1.12
X50.112 Y1.088
X49.828 Y1.061
X49.543 Y1.038
X49.258 Y1.02
X48.973 Y1.004
X48.688 Y0.992
X48.402 Y0.981
X48.117 Y0.972
X47.831 Y0.965
X47.546 Y0.959
X47.26 Y0.954
X46.975 Y0.95
X46.689 Y0.946
X46.404 Y0.944
X46.118 Y0.941
X45.833 Y0.939
X45.547 Y0.938
X45.261 Y0.936
X44.69 Y0.935
X44.119 Y0.933
X43.262 Y0.932
X42.12 Y0.931
X40.121
X31.268
X13.562 Y0.932
X4.423
X4.14 Y0.97
X3.873 Y1.071
X3.631 Y1.222
X3.415 Y1.409
X3.227 Y1.624
X3.064 Y1.859
X2.924 Y2.108
X2.805 Y2.367
X2.704 Y2.634
X2.618 Y2.906
X2.545 Y3.183
X2.484 Y3.462
X2.433 Y3.742
X2.39 Y4.025
X2.354 Y4.308
X2.323 Y4.592
X2.298 Y4.877
X2.277 Y5.161
X2.26 Y5.446
X2.245 Y5.732
X2.233 Y6.017
X2.223 Y6.302
X2.215 Y6.588
X2.208 Y6.873
X2.202 Y7.159
X2.197 Y7.444
X2.193 Y7.73
X2.19 Y8.015
X2.187 Y8.301
X2.185 Y8.587
X2.183 Y8.872
X2.181 Y9.158
X2.18 Y9.443
X2.178 Y10.014
X2.177 Y10.586
X2.175 Y11.442
Y12.585
X2.174 Y14.584
X2.173 Y22.866
Y34.86
X2.198 Y35.145
X2.279 Y35.418
X2.41 Y35.672
X2.58 Y35.901
X2.78 Y36.105
X3.003 Y36.284
X3.242 Y36.44
X3.494 Y36.574
X3.756 Y36.689
X4.024 Y36.788
X4.296 Y36.872
X4.573 Y36.944
X4.852 Y37.005
X5.133 Y37.056
X5.415 Y37.099
X5.698 Y37.136
X5.982 Y37.167
X6.267 Y37.193
X6.551 Y37.214
X6.836 Y37.233
X7.122 Y37.248
X7.407 Y37.261
X7.692 Y37.272
X7.978 Y37.281
X8.263 Y37.288
X8.549 Y37.294
X8.834 Y37.3
X9.12 Y37.304
X9.405 Y37.308
X9.691 Y37.311
X9.977 Y37.313
X10.262 Y37.316
X10.548 Y37.317
X10.833 Y37.319
X11.119 Y37.32
X11.69 Y37.322
X12.261 Y37.323
X13.118 Y37.325
X14.26
X16.259 Y37.326
X23.684 Y37.327
X28.871
X29.03 Y37.344
X29.181 Y37.397
X29.317 Y37.481
X29.337 Y37.496
X29.404 Y37.539
X29.497 Y37.591
X29.59 Y37.64
X29.687 Y37.682
X29.775 Y37.718
X29.961 Y37.787
X30.147 Y37.845
X30.236 Y37.868
X30.333 Y37.887
X30.754 Y37.961
X30.797 Y37.968
X30.89 Y37.982
X30.983 Y37.993
X31.169 Y38.011
X31.262 Y38.018
X31.54 Y38.029
X31.633 Y38.034
X31.819 Y38.042
X32.005 Y38.045
X32.376 Y38.049
X32.469 Y38.05
X35.442
X35.628 Y38.049
X35.721
X35.906 Y38.047
X36.185 Y38.043
X36.371 Y38.04
X36.464 Y38.038
X36.649 Y38.028
X36.742 Y38.022
X36.835 Y38.014
X37.207 Y37.982
X37.485 Y37.957
X37.578 Y37.946
X37.671 Y37.928
X37.764 Y37.908
X38.043 Y37.843
X38.136 Y37.821
X38.229 Y37.798
X38.322 Y37.77
X38.414 Y37.741
X38.687 Y37.656
X38.966 Y37.593
X39.247 Y37.542
X39.529 Y37.501
X39.813 Y37.468
X40.097 Y37.441
X40.382 Y37.42
X40.667 Y37.402
X40.952 Y37.388
X41.238 Y37.377
X41.523 Y37.367
X41.808 Y37.36
X42.094 Y37.354
X42.38 Y37.349
X42.665 Y37.345
X42.951 Y37.342
X43.236 Y37.339
X43.522 Y37.337
X43.807 Y37.335
X44.093 Y37.334
X44.379 Y37.332
X44.95 Y37.331
X45.521 Y37.33
X46.378 Y37.329
X47.805 Y37.328
X49.805
X50.09 Y37.319
X50.368 Y37.255
X50.629 Y37.138
X50.866 Y36.979
X51.078 Y36.787
X51.264 Y36.571
X51.427 Y36.336
X51.568 Y36.088
X51.689 Y35.829
X51.793 Y35.563
X51.882 Y35.292
X51.957 Y35.016
X52.021 Y34.738
X52.075 Y34.458
X52.121 Y34.176
X52.159 Y33.893
X52.192 Y33.609
X52.219 Y33.325
X52.242 Y33.04
X52.262 Y32.755
X52.278 Y32.47
X52.292 Y32.185
X52.303 Y31.9
X52.312 Y31.614
X52.32 Y31.329
X52.327 Y31.043
X52.333 Y30.758
X52.337 Y30.472
X52.341 Y30.187
X52.345 Y29.901
X52.347 Y29.615
X52.349 Y29.33
X52.351 Y29.044
X52.353 Y28.759
X52.354 Y28.473
X52.356 Y27.902
X52.358 Y27.331
X52.359 Y26.474
X52.36 Y25.332
X52.361 Y23.333
Y16.764
X52.362 Y4.77
X52.361 Y4.484
X52.304 Y4.204
X52.195 Y3.941
X52.042 Y3.699
X51.855 Y3.484
X51.642 Y3.293
X51.41 Y3.127
X51.163 Y2.983
X50.906 Y2.859
X50.641 Y2.752
X50.37 Y2.662
X50.095 Y2.584
X49.817 Y2.519
X49.537 Y2.463
X49.255 Y2.416
X48.973 Y2.377
X48.689 Y2.343
X48.405 Y2.315
X48.12 Y2.292
X47.835 Y2.272
X47.55 Y2.255
X47.265 Y2.241
X46.98 Y2.23
X46.694 Y2.22
X46.409 Y2.212
X46.123 Y2.205
X45.838 Y2.199
X45.552 Y2.194
X45.267 Y2.19
X44.981 Y2.187
X44.696 Y2.184
X44.41 Y2.182
X44.124 Y2.18
X43.839 Y2.178
X43.553 Y2.177
X42.982 Y2.175
X42.411 Y2.174
X41.554 Y2.172
X40.412 Y2.171
X38.413
X32.13
X5.857 Y2.172
X5.573 Y2.208
X5.302 Y2.298
X5.052 Y2.435
X4.826 Y2.609
X4.625 Y2.812
X4.448 Y3.037
X4.295 Y3.278
X4.162 Y3.531
X4.048 Y3.793
X3.951 Y4.061
X3.867 Y4.334
X3.796 Y4.611
X3.736 Y4.89
X3.685 Y5.171
X3.642 Y5.453
X3.605 Y5.736
X3.575 Y6.02
X3.549 Y6.305
X3.527 Y6.589
X3.509 Y6.874
X3.493 Y7.16
X3.48 Y7.445
X3.469 Y7.73
X3.46 Y8.016
X3.453 Y8.301
X3.446 Y8.587
X3.441 Y8.872
X3.437 Y9.158
X3.433 Y9.443
X3.43 Y9.729
X3.427 Y10.014
X3.425 Y10.3
X3.423 Y10.586
X3.421 Y10.871
X3.42 Y11.157
X3.418 Y11.728
X3.417 Y12.299
X3.416 Y13.156
X3.415 Y14.298
X3.414 Y16.297
X3.413 Y22.866
Y33.432
X3.427 Y33.717
X3.492 Y33.995
X3.605 Y34.258
X3.759 Y34.498
X3.945 Y34.715
X4.157 Y34.907
X4.387 Y35.076
X4.632 Y35.223
X4.887 Y35.35
X5.151 Y35.46
X5.421 Y35.555
X5.694 Y35.636
X5.972 Y35.705
X6.251 Y35.763
X6.532 Y35.813
X6.815 Y35.856
X7.098 Y35.892
X7.382 Y35.922
X7.666 Y35.948
X7.951 Y35.97
X8.236 Y35.988
X8.521 Y36.004
X8.806 Y36.017
X9.092 Y36.028
X9.377 Y36.037
X9.663 Y36.045
X9.948 Y36.052
X10.234 Y36.057
X10.519 Y36.062
X10.805 Y36.066
X11.09 Y36.069
X11.376 Y36.072
X11.662 Y36.074
X11.947 Y36.076
X12.233 Y36.078
X12.518 Y36.079
X13.089 Y36.081
X13.661 Y36.083
X14.517 Y36.084
X15.66 Y36.085
X17.373 Y36.086
X21.657 Y36.087
X27.654
X27.94 Y36.091
X28.225 Y36.106
X28.358 Y36.142
X28.473 Y36.216
X28.561 Y36.322
X28.612 Y36.45
G3 X28.092 Y36.731 I-0.304 J0.059
G1 X28.042 Y36.683 Z-0.972
X27.995 Y36.638 Z-0.949
X27.953 Y36.597 Z-0.912
X27.918 Y36.563 Z-0.863
X27.891 Y36.537 Z-0.804
X27.875 Y36.521 Z-0.739
X27.869 Y36.515 Z-0.67
G0 Z3
X37.6 Y38.464
Z-0.36
G1 Z-0.67 F1000
X37.605 Y38.457 Z-0.739
X37.619 Y38.439 Z-0.804
X37.642 Y38.41 Z-0.863
X37.672 Y38.372 Z-0.912
X37.708 Y38.325 Z-0.949
X37.749 Y38.274 Z-0.972
X37.791 Y38.22 Z-0.98
G3 X38.414 Y37.741 I1.245 J0.977
G1 X38.507 Y37.705
X38.565 Y37.682
X38.6 Y37.664
X38.733 Y37.589
X38.786 Y37.557
X38.87 Y37.496
X38.879 Y37.489
X38.972 Y37.41
X39.065 Y37.322
X39.075 Y37.31
X39.156 Y37.218
X39.199 Y37.168
X39.29 Y37.08
X39.406 Y36.985
X39.552 Y36.882
X39.737 Y36.774
X39.974 Y36.66
X40.24 Y36.558
X40.513 Y36.474
X40.79 Y36.405
X41.07 Y36.349
X41.352 Y36.302
X41.635 Y36.264
X41.919 Y36.233
X42.203 Y36.207
X42.488 Y36.186
X42.773 Y36.169
X43.058 Y36.154
X43.344 Y36.143
X43.629 Y36.133
X43.915 Y36.125
X44.2 Y36.118
X44.486 Y36.113
X44.771 Y36.108
X45.057 Y36.105
X45.342 Y36.102
X45.628 Y36.099
X45.914 Y36.097
X46.199 Y36.095
X46.485 Y36.094
X46.77 Y36.093
X47.341 Y36.091
X47.913 Y36.09
X48.484 Y36.089
X48.769 Y36.072
X49.046 Y36.004
X49.307 Y35.888
X49.546 Y35.732
X49.761 Y35.544
X49.952 Y35.331
X50.12 Y35.1
X50.265 Y34.855
X50.392 Y34.599
X50.501 Y34.335
X50.594 Y34.065
X50.674 Y33.791
X50.743 Y33.513
X50.801 Y33.234
X50.851 Y32.952
X50.893 Y32.67
X50.928 Y32.387
X50.959 Y32.103
X50.984 Y31.818
X51.006 Y31.534
X51.024 Y31.249
X51.039 Y30.963
X51.052 Y30.678
X51.063 Y30.393
X51.072 Y30.107
X51.08 Y29.822
X51.087 Y29.536
X51.092 Y29.251
X51.097 Y28.965
X51.101 Y28.68
X51.104 Y28.394
X51.107 Y28.109
X51.109 Y27.823
X51.111 Y27.537
X51.113 Y27.252
X51.114 Y26.966
X51.116 Y26.395
X51.118 Y25.824
X51.119 Y24.967
X51.12 Y23.825
X51.121 Y22.111
Y17.828
X51.122 Y6.119
X51.116 Y5.833
X51.061 Y5.553
X50.956 Y5.287
X50.81 Y5.042
X50.629 Y4.821
X50.422 Y4.624
X50.195 Y4.451
X49.953 Y4.3
X49.699 Y4.169
X49.437 Y4.056
X49.168 Y3.959
X48.895 Y3.875
X48.619 Y3.804
X48.339 Y3.743
X48.059 Y3.692
X47.776 Y3.648
X47.493 Y3.611
X47.209 Y3.579
X46.925 Y3.553
X46.64 Y3.53
X46.355 Y3.511
X46.07 Y3.495
X45.785 Y3.482
X45.5 Y3.47
X45.214 Y3.461
X44.929 Y3.453
X44.643 Y3.446
X44.358 Y3.44
X44.072 Y3.435
X43.787 Y3.431
X43.501 Y3.428
X43.216 Y3.425
X42.93 Y3.423
X42.644 Y3.421
X42.359 Y3.419
X42.073 Y3.418
X41.502 Y3.416
X40.931 Y3.414
X40.074 Y3.413
X38.932 Y3.412
X37.218 Y3.411
X32.935
X7.232 Y3.412
X6.948 Y3.442
X6.674 Y3.523
X6.418 Y3.649
X6.185 Y3.813
X5.975 Y4.008
X5.79 Y4.225
X5.627 Y4.46
X5.486 Y4.708
X5.363 Y4.966
X5.257 Y5.231
X5.167 Y5.502
X5.089 Y5.776
X5.022 Y6.054
X4.966 Y6.334
X4.918 Y6.616
X4.877 Y6.898
X4.842 Y7.182
X4.813 Y7.466
X4.788 Y7.75
X4.767 Y8.035
X4.749 Y8.32
X4.734 Y8.605
X4.721 Y8.891
X4.711 Y9.176
X4.702 Y9.461
X4.694 Y9.747
X4.688 Y10.032
X4.682 Y10.318
X4.678 Y10.604
X4.674 Y10.889
X4.671 Y11.175
X4.668 Y11.46
X4.666 Y11.746
X4.664 Y12.031
X4.662 Y12.317
X4.661 Y12.603
X4.659 Y13.174
X4.657 Y13.745
X4.656 Y14.602
X4.655 Y15.744
X4.654 Y16.886
X4.653 Y20.028
Y32.022
X4.657 Y32.308
X4.703 Y32.589
X4.797 Y32.859
X4.934 Y33.11
X5.105 Y33.338
X5.305 Y33.542
X5.526 Y33.723
X5.763 Y33.882
X6.013 Y34.021
X6.272 Y34.141
X6.538 Y34.245
X6.809 Y34.334
X7.084 Y34.411
X7.362 Y34.476
X7.642 Y34.532
X7.924 Y34.58
X8.207 Y34.621
X8.49 Y34.655
X8.774 Y34.685
X9.059 Y34.71
X9.343 Y34.731
X9.628 Y34.749
X9.914 Y34.764
X10.199 Y34.777
X10.484 Y34.788
X10.77 Y34.797
X11.055 Y34.804
X11.341 Y34.811
X11.626 Y34.817
X11.912 Y34.821
X12.197 Y34.825
X12.483 Y34.829
X12.768 Y34.831
X13.054 Y34.834
X13.34 Y34.836
X13.625 Y34.837
X13.911 Y34.839
X14.482 Y34.841
X15.053 Y34.843
X15.91 Y34.844
X17.052 Y34.845
X18.766 Y34.846
X22.764 Y34.847
X26.191
X26.476
X26.762 Y34.848
X27.047 Y34.851
X27.333 Y34.862
X27.617 Y34.886
X27.863 Y34.925
X28.065 Y34.974
X28.071 Y34.976
X28.272 Y35.079
X28.43 Y35.239
X28.532 Y35.439
X28.568 Y35.661
X28.569 Y36.01
X28.571 Y36.103
G3 X28.004 Y36.273 I-0.31 J-0.004
G1 X27.966 Y36.216 Z-0.972
X27.929 Y36.162 Z-0.949
X27.896 Y36.113 Z-0.912
X27.868 Y36.072 Z-0.863
X27.847 Y36.042 Z-0.804
X27.835 Y36.023 Z-0.739
X27.83 Y36.016 Z-0.67
G0 Z3
X38.819 Y38.253
Z-0.36
G1 Z-0.67 F1000
X38.82 Y38.245 Z-0.739
X38.823 Y38.222 Z-0.804
X38.828 Y38.186 Z-0.863
X38.835 Y38.137 Z-0.912
X38.843 Y38.079 Z-0.949
X38.852 Y38.014 Z-0.972
X38.861 Y37.945 Z-0.98
G3 X39.156 Y37.218 I1.568 J0.212
G1 X39.229 Y37.125
X39.3 Y37.032
X39.343 Y36.972
X39.365 Y36.939
X39.436 Y36.81
X39.468 Y36.753
X39.507 Y36.66
X39.529 Y36.6
X39.547 Y36.55
X39.585 Y36.469
X39.633 Y36.383
X39.697 Y36.287
X39.778 Y36.186
X39.881 Y36.075
X40.006 Y35.961
X40.163 Y35.84
X40.358 Y35.712
X40.6 Y35.581
X40.861 Y35.465
X41.129 Y35.368
X41.403 Y35.285
X41.68 Y35.216
X41.959 Y35.157
X42.241 Y35.108
X42.523 Y35.066
X42.807 Y35.031
X43.091 Y35.002
X43.375 Y34.977
X43.66 Y34.956
X43.945 Y34.939
X44.23 Y34.924
X44.516 Y34.912
X44.801 Y34.901
X45.086 Y34.892
X45.372 Y34.885
X45.657 Y34.879
X45.943 Y34.874
X46.228 Y34.87
X46.514 Y34.866
X46.8 Y34.863
X47.085 Y34.86
X47.371 Y34.851
X47.651 Y34.799
X47.919 Y34.7
X48.168 Y34.559
X48.393 Y34.384
X48.595 Y34.182
X48.774 Y33.959
X48.93 Y33.721
X49.067 Y33.47
X49.186 Y33.21
X49.288 Y32.943
X49.376 Y32.672
X49.451 Y32.396
X49.516 Y32.118
X49.571 Y31.838
X49.618 Y31.556
X49.658 Y31.274
X49.692 Y30.99
X49.721 Y30.706
X49.746 Y30.421
X49.767 Y30.137
X49.785 Y29.851
X49.8 Y29.566
X49.812 Y29.281
X49.823 Y28.996
X49.832 Y28.71
X49.84 Y28.425
X49.846 Y28.139
X49.852 Y27.854
X49.856 Y27.568
X49.86 Y27.283
X49.863 Y26.997
X49.866 Y26.711
X49.869 Y26.426
X49.87 Y26.14
X49.872 Y25.855
X49.874 Y25.569
X49.876 Y24.998
X49.877 Y24.427
X49.879 Y23.57
X49.88 Y22.428
X49.881 Y20.714
Y16.716
X49.882 Y7.578
Y7.292
X49.853 Y7.008
X49.776 Y6.733
X49.655 Y6.474
X49.495 Y6.238
X49.305 Y6.025
X49.091 Y5.835
X48.859 Y5.669
X48.613 Y5.523
X48.357 Y5.397
X48.093 Y5.287
X47.824 Y5.193
X47.55 Y5.112
X47.273 Y5.043
X46.994 Y4.983
X46.713 Y4.933
X46.43 Y4.89
X46.147 Y4.853
X45.863 Y4.822
X45.579 Y4.795
X45.294 Y4.773
X45.009 Y4.754
X44.724 Y4.738
X44.439 Y4.724
X44.153 Y4.713
X43.868 Y4.703
X43.583 Y4.695
X43.297 Y4.688
X43.011 Y4.682
X42.726 Y4.677
X42.44 Y4.673
X42.155 Y4.669
X41.869 Y4.666
X41.584 Y4.664
X41.298 Y4.662
X41.013 Y4.66
X40.727 Y4.658
X40.156 Y4.656
X39.585 Y4.655
X38.728 Y4.653
X37.871 Y4.652
X36.443 Y4.651
X33.587
X8.742 Y4.652
X8.456 Y4.655
X8.174 Y4.699
X7.904 Y4.79
X7.652 Y4.925
X7.422 Y5.094
X7.216 Y5.292
X7.033 Y5.512
X6.873 Y5.748
X6.733 Y5.997
X6.611 Y6.255
X6.506 Y6.521
X6.416 Y6.792
X6.338 Y7.067
X6.272 Y7.344
X6.215 Y7.624
X6.166 Y7.906
X6.125 Y8.188
X6.089 Y8.472
X6.059 Y8.756
X6.034 Y9.04
X6.012 Y9.325
X5.994 Y9.61
X5.979 Y9.895
X5.965 Y10.18
X5.954 Y10.466
X5.945 Y10.751
X5.937 Y11.036
X5.93 Y11.322
X5.924 Y11.607
X5.92 Y11.893
X5.916 Y12.179
X5.912 Y12.464
X5.909 Y12.75
X5.907 Y13.035
X5.905 Y13.321
X5.903 Y13.606
X5.901 Y13.892
X5.899 Y14.463
X5.898 Y15.034
X5.896 Y15.891
X5.895 Y17.033
X5.894 Y18.747
X5.893 Y22.459
Y24.459
Y30.741
X5.898 Y31.027
X5.944 Y31.309
X6.037 Y31.579
X6.172 Y31.831
X6.341 Y32.06
X6.539 Y32.267
X6.758 Y32.45
X6.994 Y32.611
X7.242 Y32.752
X7.5 Y32.875
X7.765 Y32.981
X8.036 Y33.072
X8.31 Y33.151
X8.588 Y33.218
X8.867 Y33.276
X9.149 Y33.326
X9.431 Y33.368
X9.714 Y33.404
X9.998 Y33.434
X10.283 Y33.461
X10.567 Y33.483
X10.852 Y33.502
X11.137 Y33.518
X11.423 Y33.531
X11.708 Y33.543
X11.993 Y33.553
X12.279 Y33.561
X12.564 Y33.568
X12.85 Y33.574
X13.135 Y33.579
X13.421 Y33.583
X13.707 Y33.587
X13.992 Y33.59
X14.278 Y33.592
X14.563 Y33.595
X14.849 Y33.596
X15.134 Y33.598
X15.42 Y33.599
X15.991 Y33.601
X16.562 Y33.603
X17.419 Y33.604
X18.561 Y33.605
X20.275 Y33.606
X24.273 Y33.607
X25.415
X25.701
X25.986 Y33.609
X26.272 Y33.613
X26.558 Y33.621
X26.843 Y33.636
X27.127 Y33.66
X27.41 Y33.697
X27.691 Y33.753
X27.901 Y33.812
X28.117 Y33.892
X28.148 Y33.907
X28.32 Y34.019
X28.454 Y34.174
X28.538 Y34.362
X28.566 Y34.565
Y34.616
Y34.988
X28.568 Y35.661
G3 X27.998 Y35.82 I-0.31 J-0.01
G1 X27.96 Y35.762 Z-0.972
X27.925 Y35.707 Z-0.949
X27.893 Y35.658 Z-0.912
X27.866 Y35.617 Z-0.863
X27.846 Y35.586 Z-0.804
X27.833 Y35.566 Z-0.739
X27.829 Y35.56 Z-0.67
G0 Z3
X39.603 Y37.686
Z-0.36
G1 Z-0.67 F1000
X39.601 Y37.678 Z-0.739
X39.595 Y37.656 Z-0.804
X39.586 Y37.62 Z-0.863
X39.574 Y37.573 Z-0.912
X39.56 Y37.516 Z-0.949
X39.544 Y37.452 Z-0.972
X39.527 Y37.385 Z-0.98
G3 X39.529 Y36.6 I1.534 J-0.388
G1 X39.539 Y36.567
X39.563 Y36.474
X39.585 Y36.381
X39.598 Y36.288
X39.608 Y36.195
X39.61 Y36.103
X39.612 Y36.01
X39.615 Y35.964
X39.625 Y35.889
X39.642 Y35.806
X39.671 Y35.709
X39.709 Y35.612
X39.764 Y35.499
X39.83 Y35.386
X39.919 Y35.26
X40.025 Y35.132
X40.159 Y34.995
X40.323 Y34.852
X40.522 Y34.705
X40.765 Y34.554
X41.018 Y34.423
X41.28 Y34.309
X41.549 Y34.211
X41.821 Y34.126
X42.097 Y34.052
X42.376 Y33.989
X42.656 Y33.934
X42.938 Y33.887
X43.22 Y33.847
X43.504 Y33.812
X43.788 Y33.782
X44.072 Y33.757
X44.357 Y33.735
X44.642 Y33.716
X44.927 Y33.7
X45.212 Y33.686
X45.498 Y33.674
X45.783 Y33.664
X46.068 Y33.65
X46.349 Y33.597
X46.618 Y33.5
X46.868 Y33.363
X47.096 Y33.191
X47.302 Y32.993
X47.484 Y32.773
X47.645 Y32.537
X47.785 Y32.288
X47.908 Y32.03
X48.014 Y31.765
X48.105 Y31.495
X48.184 Y31.22
X48.251 Y30.943
X48.309 Y30.663
X48.359 Y30.382
X48.401 Y30.099
X48.437 Y29.816
X48.468 Y29.532
X48.494 Y29.248
X48.516 Y28.963
X48.535 Y28.678
X48.552 Y28.393
X48.565 Y28.108
X48.577 Y27.822
X48.587 Y27.537
X48.595 Y27.251
X48.602 Y26.966
X48.608 Y26.68
X48.613 Y26.395
X48.618 Y26.109
X48.621 Y25.824
X48.624 Y25.538
X48.627 Y25.253
X48.629 Y24.967
X48.631 Y24.681
X48.633 Y24.396
X48.634 Y24.11
X48.636 Y23.539
X48.637 Y22.968
X48.639 Y22.111
X48.64 Y20.969
X48.641 Y19.255
Y15.257
X48.642 Y8.689
X48.629 Y8.404
X48.572 Y8.124
X48.469 Y7.857
X48.326 Y7.61
X48.149 Y7.386
X47.946 Y7.185
X47.723 Y7.007
X47.484 Y6.851
X47.233 Y6.714
X46.973 Y6.596
X46.707 Y6.493
X46.435 Y6.405
X46.16 Y6.329
X45.882 Y6.264
X45.602 Y6.208
X45.32 Y6.16
X45.038 Y6.12
X44.754 Y6.085
X44.47 Y6.055
X44.186 Y6.03
X43.901 Y6.009
X43.616 Y5.991
X43.331 Y5.975
X43.045 Y5.962
X42.76 Y5.951
X42.475 Y5.942
X42.189 Y5.934
X41.904 Y5.927
X41.618 Y5.922
X41.332 Y5.917
X41.047 Y5.913
X40.761 Y5.909
X40.476 Y5.906
X40.19 Y5.904
X39.905 Y5.902
X39.619 Y5.9
X39.334 Y5.899
X38.762 Y5.896
X38.191 Y5.895
X37.334 Y5.893
X36.478 Y5.892
X35.05 Y5.891
X33.051
X22.77
X10.204 Y5.892
X9.919
X9.633 Y5.908
X9.354 Y5.968
X9.089 Y6.074
X8.844 Y6.22
X8.621 Y6.398
X8.421 Y6.602
X8.244 Y6.827
X8.089 Y7.066
X7.954 Y7.318
X7.836 Y7.578
X7.734 Y7.845
X7.646 Y8.117
X7.571 Y8.392
X7.506 Y8.67
X7.451 Y8.95
X7.403 Y9.232
X7.363 Y9.515
X7.328 Y9.798
X7.299 Y10.082
X7.274 Y10.367
X7.252 Y10.651
X7.234 Y10.936
X7.219 Y11.222
X7.206 Y11.507
X7.195 Y11.792
X7.185 Y12.078
X7.177 Y12.363
X7.171 Y12.649
X7.165 Y12.934
X7.16 Y13.22
X7.156 Y13.505
X7.153 Y13.791
X7.15 Y14.076
X7.147 Y14.362
X7.145 Y14.648
X7.143 Y14.933
X7.142 Y15.219
X7.139 Y15.79
X7.138 Y16.361
X7.136 Y17.218
X7.135 Y18.075
X7.134 Y19.502
X7.133 Y22.073
Y29.498
X7.142 Y29.783
X7.192 Y30.064
X7.287 Y30.334
X7.424 Y30.584
X7.594 Y30.813
X7.792 Y31.019
X8.012 Y31.202
X8.248 Y31.363
X8.496 Y31.504
X8.754 Y31.626
X9.019 Y31.733
X9.29 Y31.824
X9.564 Y31.903
X9.841 Y31.971
X10.121 Y32.03
X10.402 Y32.08
X10.684 Y32.122
X10.968 Y32.159
X11.252 Y32.19
X11.536 Y32.216
X11.821 Y32.239
X12.106 Y32.258
X12.391 Y32.275
X12.676 Y32.289
X12.961 Y32.3
X13.247 Y32.31
X13.532 Y32.319
X13.818 Y32.326
X14.103 Y32.332
X14.389 Y32.337
X14.674 Y32.342
X14.96 Y32.346
X15.245 Y32.349
X15.531 Y32.352
X15.816 Y32.354
X16.102 Y32.356
X16.388 Y32.357
X16.673 Y32.359
X17.244 Y32.361
X17.815 Y32.363
X18.672 Y32.364
X19.815 Y32.365
X21.528 Y32.366
X24.384 Y32.367
X24.669
X24.955 Y32.368
X25.241 Y32.37
X25.526 Y32.374
X25.812 Y32.38
X26.097 Y32.391
X26.382 Y32.406
X26.667 Y32.429
X26.951 Y32.46
X27.233 Y32.503
X27.513 Y32.558
X27.789 Y32.632
X28.005 Y32.707
X28.214 Y32.799
X28.387 Y32.893
X28.453 Y32.936
X28.608 Y33.071
X28.718 Y33.245
X28.775 Y33.442
X28.774 Y33.648
X28.716 Y33.845
G3 X28.132 Y33.749 I-0.277 J-0.14
G1 X28.122 Y33.681 Z-0.972
X28.113 Y33.616 Z-0.949
X28.105 Y33.558 Z-0.912
X28.098 Y33.509 Z-0.863
X28.093 Y33.473 Z-0.804
X28.089 Y33.45 Z-0.739
X28.088 Y33.442 Z-0.67
G0 Z3
X39.992 Y37.03
Z-0.36
G1 Z-0.67 F1000
X39.988 Y37.023 Z-0.739
X39.976 Y37.003 Z-0.804
X39.958 Y36.972 Z-0.863
X39.932 Y36.929 Z-0.912
X39.902 Y36.879 Z-0.949
X39.869 Y36.823 Z-0.972
X39.834 Y36.763 Z-0.98
G3 X39.612 Y36.01 I1.36 J-0.809
G1 Y35.173
X39.617 Y35.073
X39.63 Y34.977
X39.651 Y34.878
X39.685 Y34.764
X39.731 Y34.646
X39.794 Y34.516
X39.873 Y34.382
X39.976 Y34.235
X40.099 Y34.087
X40.253 Y33.93
X40.441 Y33.766
X40.669 Y33.597
X40.911 Y33.446
X41.164 Y33.313
X41.424 Y33.195
X41.69 Y33.09
X41.96 Y32.999
X42.234 Y32.918
X42.511 Y32.847
X42.789 Y32.785
X43.07 Y32.73
X43.351 Y32.683
X43.634 Y32.641
X43.917 Y32.604
X44.201 Y32.573
X44.485 Y32.545
X44.769 Y32.517
X45.049 Y32.458
X45.317 Y32.36
X45.568 Y32.224
X45.798 Y32.055
X46.007 Y31.86
X46.192 Y31.643
X46.357 Y31.41
X46.501 Y31.163
X46.627 Y30.907
X46.737 Y30.643
X46.832 Y30.374
X46.914 Y30.1
X46.985 Y29.824
X47.046 Y29.545
X47.098 Y29.264
X47.143 Y28.982
X47.181 Y28.699
X47.214 Y28.415
X47.242 Y28.131
X47.265 Y27.846
X47.286 Y27.562
X47.303 Y27.277
X47.318 Y26.991
X47.33 Y26.706
X47.341 Y26.421
X47.35 Y26.135
X47.358 Y25.85
X47.364 Y25.564
X47.37 Y25.279
X47.375 Y24.993
X47.379 Y24.708
X47.382 Y24.422
X47.385 Y24.136
X47.388 Y23.851
X47.39 Y23.565
X47.391 Y23.28
X47.393 Y22.994
X47.395 Y22.423
X47.397 Y21.852
X47.399 Y20.995
X47.4 Y20.138
X47.401 Y18.71
Y16.14
X47.402 Y10.143
X47.401 Y9.857
X47.373 Y9.573
X47.301 Y9.297
X47.184 Y9.036
X47.03 Y8.796
X46.845 Y8.578
X46.636 Y8.384
X46.408 Y8.212
X46.165 Y8.061
X45.912 Y7.93
X45.65 Y7.816
X45.382 Y7.717
X45.11 Y7.631
X44.834 Y7.558
X44.555 Y7.495
X44.275 Y7.441
X43.993 Y7.395
X43.71 Y7.355
X43.426 Y7.322
X43.142 Y7.293
X42.858 Y7.268
X42.573 Y7.248
X42.288 Y7.23
X42.003 Y7.215
X41.717 Y7.202
X41.432 Y7.191
X41.147 Y7.182
X40.861 Y7.174
X40.576 Y7.167
X40.29 Y7.162
X40.004 Y7.157
X39.719 Y7.153
X39.433 Y7.15
X39.148 Y7.147
X38.862 Y7.144
X38.577 Y7.142
X38.291 Y7.14
X38.006 Y7.139
X37.434 Y7.137
X36.863 Y7.135
X36.006 Y7.133
X35.15 Y7.132
X33.722 Y7.131
X31.152
X28.296
X11.446 Y7.132
X11.161
X10.876 Y7.152
X10.598 Y7.216
X10.333 Y7.324
X10.089 Y7.471
X9.867 Y7.651
X9.668 Y7.856
X9.491 Y8.08
X9.336 Y8.32
X9.201 Y8.572
X9.083 Y8.832
X8.981 Y9.098
X8.893 Y9.37
X8.817 Y9.645
X8.752 Y9.924
X8.696 Y10.204
X8.648 Y10.485
X8.607 Y10.768
X8.573 Y11.051
X8.543 Y11.335
X8.517 Y11.62
X8.496 Y11.904
X8.477 Y12.189
X8.462 Y12.475
X8.448 Y12.76
X8.437 Y13.045
X8.427 Y13.331
X8.419 Y13.616
X8.412 Y13.902
X8.406 Y14.187
X8.401 Y14.473
X8.397 Y14.758
X8.394 Y15.044
X8.39 Y15.329
X8.388 Y15.615
X8.386 Y15.9
X8.384 Y16.186
X8.382 Y16.472
X8.381 Y16.757
X8.379 Y17.328
X8.377 Y17.9
X8.376 Y18.756
X8.375 Y19.899
X8.374 Y21.612
X8.373 Y25.325
Y28.18
X8.377 Y28.466
X8.418 Y28.749
X8.504 Y29.021
X8.632 Y29.276
X8.795 Y29.511
X8.987 Y29.722
X9.202 Y29.91
X9.434 Y30.077
X9.679 Y30.223
X9.935 Y30.35
X10.198 Y30.461
X10.467 Y30.556
X10.741 Y30.639
X11.017 Y30.71
X11.296 Y30.771
X11.577 Y30.823
X11.859 Y30.868
X12.142 Y30.906
X12.426 Y30.939
X12.71 Y30.967
X12.994 Y30.991
X13.279 Y31.011
X13.564 Y31.028
X13.85 Y31.043
X14.135 Y31.056
X14.42 Y31.066
X14.706 Y31.075
X14.991 Y31.083
X15.277 Y31.09
X15.562 Y31.095
X15.848 Y31.1
X16.133 Y31.104
X16.419 Y31.107
X16.704 Y31.11
X16.99 Y31.113
X17.276 Y31.115
X17.561 Y31.117
X17.847 Y31.118
X18.418 Y31.12
X18.989 Y31.122
X19.846 Y31.124
X20.703 Y31.125
X22.13 Y31.126
X23.558 Y31.127
X23.844
X24.13 Y31.128
X24.415 Y31.129
X24.701 Y31.132
X24.986 Y31.136
X25.272 Y31.143
X25.557 Y31.153
X25.842 Y31.166
X26.127 Y31.185
X26.412 Y31.21
X26.696 Y31.242
X26.978 Y31.283
X27.259 Y31.333
X27.538 Y31.397
X27.813 Y31.474
X28.083 Y31.566
X28.336 Y31.675
X28.523 Y31.774
X28.71 Y31.892
X28.856 Y32.003
X28.987 Y32.12
X29.112 Y32.25
X29.209 Y32.369
X29.217 Y32.38
X29.308 Y32.566
X29.344 Y32.769
X29.32 Y32.975
X29.24 Y33.165
X29.108 Y33.325
G3 X28.608 Y33.009 I-0.201 J-0.236
G1 X28.625 Y32.943 Z-0.972
X28.642 Y32.879 Z-0.949
X28.657 Y32.822 Z-0.912
X28.67 Y32.775 Z-0.863
X28.679 Y32.739 Z-0.804
X28.685 Y32.717 Z-0.739
X28.687 Y32.71 Z-0.67
G0 Z3
X39.992 Y36.193
Z-0.36
G1 Z-0.67 F1000
X39.988 Y36.187 Z-0.739
X39.976 Y36.167 Z-0.804
X39.958 Y36.135 Z-0.863
X39.932 Y36.093 Z-0.912
X39.902 Y36.043 Z-0.949
X39.869 Y35.986 Z-0.972
X39.834 Y35.927 Z-0.98
G3 X39.612 Y35.173 I1.36 J-0.809
G1 Y34.616
Y34.523
X39.608 Y34.43
X39.603 Y34.337
X39.601 Y34.322
X39.595 Y34.268
X39.592 Y34.188
X39.597 Y34.093
X39.609 Y33.995
X39.634 Y33.879
X39.669 Y33.761
X39.72 Y33.627
X39.787 Y33.49
X39.876 Y33.338
X39.984 Y33.184
X40.12 Y33.018
X40.289 Y32.845
X40.494 Y32.665
X40.724 Y32.494
X40.965 Y32.341
X41.215 Y32.204
X41.473 Y32.081
X41.737 Y31.972
X42.005 Y31.874
X42.277 Y31.787
X42.552 Y31.709
X42.829 Y31.64
X43.108 Y31.579
X43.388 Y31.524
X43.666 Y31.457
X43.935 Y31.361
X44.19 Y31.232
X44.426 Y31.072
X44.642 Y30.886
X44.837 Y30.677
X45.011 Y30.45
X45.165 Y30.21
X45.301 Y29.959
X45.419 Y29.699
X45.523 Y29.433
X45.613 Y29.162
X45.69 Y28.887
X45.758 Y28.609
X45.816 Y28.33
X45.865 Y28.048
X45.908 Y27.766
X45.945 Y27.483
X45.977 Y27.199
X46.004 Y26.915
X46.027 Y26.63
X46.047 Y26.345
X46.064 Y26.06
X46.078 Y25.775
X46.09 Y25.49
X46.101 Y25.204
X46.11 Y24.919
X46.117 Y24.633
X46.124 Y24.348
X46.13 Y24.062
X46.134 Y23.777
X46.138 Y23.491
X46.142 Y23.206
X46.145 Y22.92
X46.147 Y22.634
X46.149 Y22.349
X46.151 Y22.063
X46.153 Y21.778
X46.155 Y21.207
X46.157 Y20.635
X46.159 Y19.779
X46.16 Y18.922
X46.161 Y17.494
Y15.209
X46.162 Y11.211
X46.147 Y10.926
X46.09 Y10.646
X45.988 Y10.379
X45.846 Y10.131
X45.672 Y9.905
X45.471 Y9.703
X45.249 Y9.522
X45.012 Y9.364
X44.762 Y9.225
X44.504 Y9.104
X44.238 Y8.999
X43.967 Y8.908
X43.692 Y8.83
X43.415 Y8.763
X43.135 Y8.705
X42.854 Y8.656
X42.571 Y8.614
X42.288 Y8.578
X42.004 Y8.547
X41.72 Y8.52
X41.435 Y8.498
X41.15 Y8.479
X40.865 Y8.463
X40.58 Y8.449
X40.295 Y8.437
X40.009 Y8.427
X39.724 Y8.418
X39.438 Y8.411
X39.153 Y8.405
X38.867 Y8.4
X38.582 Y8.395
X38.296 Y8.392
X38.01 Y8.388
X37.725 Y8.386
X37.439 Y8.383
X37.154 Y8.382
X36.868 Y8.38
X36.583 Y8.378
X36.011 Y8.376
X35.44 Y8.375
X34.584 Y8.373
X33.441 Y8.372
X31.728 Y8.371
X28.301
X23.731
X12.594 Y8.372
X12.308 Y8.374
X12.025 Y8.41
X11.751 Y8.491
X11.493 Y8.614
X11.257 Y8.774
X11.043 Y8.963
X10.852 Y9.176
X10.683 Y9.406
X10.535 Y9.65
X10.405 Y9.905
X10.293 Y10.167
X10.195 Y10.436
X10.111 Y10.709
X10.039 Y10.985
X9.977 Y11.264
X9.923 Y11.544
X9.878 Y11.826
X9.839 Y12.109
X9.805 Y12.393
X9.777 Y12.677
X9.752 Y12.961
X9.732 Y13.246
X9.714 Y13.531
X9.699 Y13.816
X9.686 Y14.102
X9.675 Y14.387
X9.666 Y14.672
X9.658 Y14.958
X9.651 Y15.243
X9.646 Y15.529
X9.641 Y15.814
X9.637 Y16.1
X9.633 Y16.386
X9.63 Y16.671
X9.628 Y16.957
X9.625 Y17.242
X9.624 Y17.528
X9.622 Y17.813
X9.62 Y18.385
X9.618 Y18.956
X9.616 Y19.812
X9.615 Y20.669
X9.614 Y22.097
X9.613 Y24.667
Y26.952
X9.62 Y27.238
X9.664 Y27.52
X9.753 Y27.791
X9.883 Y28.045
X10.049 Y28.278
X10.243 Y28.488
X10.458 Y28.675
X10.691 Y28.84
X10.937 Y28.985
X11.193 Y29.112
X11.457 Y29.222
X11.726 Y29.317
X12 Y29.399
X12.276 Y29.469
X12.555 Y29.53
X12.836 Y29.582
X13.118 Y29.627
X13.401 Y29.665
X13.685 Y29.698
X13.969 Y29.726
X14.254 Y29.75
X14.538 Y29.77
X14.824 Y29.787
X15.109 Y29.802
X15.394 Y29.815
X15.679 Y29.826
X15.965 Y29.835
X16.25 Y29.842
X16.536 Y29.849
X16.821 Y29.855
X17.107 Y29.859
X17.392 Y29.864
X17.678 Y29.867
X17.964 Y29.87
X18.249 Y29.872
X18.535 Y29.875
X18.82 Y29.876
X19.106 Y29.878
X19.677 Y29.88
X20.248 Y29.882
X21.105 Y29.884
X22.247 Y29.885
X22.818 Y29.886
X23.104
X23.39 Y29.887
X23.675 Y29.889
X23.961 Y29.891
X24.246 Y29.894
X24.532 Y29.899
X24.817 Y29.907
X25.103 Y29.916
X25.388 Y29.929
X25.673 Y29.946
X25.958 Y29.967
X26.242 Y29.994
X26.526 Y30.028
X26.809 Y30.068
X27.09 Y30.117
X27.37 Y30.175
X27.647 Y30.243
X27.921 Y30.324
X28.191 Y30.418
X28.455 Y30.526
X28.712 Y30.65
X28.96 Y30.791
X29.194 Y30.947
X29.383 Y31.095
X29.547 Y31.247
X29.672 Y31.382
X29.793 Y31.538
X29.888 Y31.682
X29.963 Y31.819
X30.034 Y31.976
X30.084 Y32.118
X30.095 Y32.158
X30.119 Y32.376
X30.076 Y32.592
X29.971 Y32.784
X29.812 Y32.937
X29.615 Y33.034
G3 X29.293 Y32.538 I-0.084 J-0.299
G1 X29.337 Y32.485 Z-0.972
X29.378 Y32.435 Z-0.949
X29.416 Y32.389 Z-0.912
X29.447 Y32.351 Z-0.863
X29.471 Y32.323 Z-0.804
X29.485 Y32.305 Z-0.739
X29.49 Y32.299 Z-0.67
G0 Z3
X40.141 Y35.267
Z-0.36
G1 Z-0.67 F1000
X40.136 Y35.261 Z-0.739
X40.121 Y35.243 Z-0.804
X40.097 Y35.215 Z-0.863
X40.066 Y35.177 Z-0.912
X40.028 Y35.132 Z-0.949
X39.986 Y35.082 Z-0.972
X39.941 Y35.03 Z-0.98
G3 X39.601 Y34.322 I1.211 J-1.019
G1 X39.588 Y34.244
X39.572 Y34.151
X39.529 Y34.005
X39.517 Y33.966
X39.477 Y33.873
X39.436 Y33.786
X39.423 Y33.759
X39.401 Y33.696
X39.381 Y33.624
X39.366 Y33.544
X39.356 Y33.451
X39.353 Y33.351
X39.36 Y33.236
X39.376 Y33.116
X39.406 Y32.978
X39.448 Y32.838
X39.51 Y32.681
X39.59 Y32.519
X39.692 Y32.347
X39.822 Y32.163
X39.981 Y31.973
X40.173 Y31.778
X40.389 Y31.591
X40.618 Y31.421
X40.858 Y31.266
X41.107 Y31.125
X41.362 Y30.997
X41.623 Y30.881
X41.889 Y30.776
X42.158 Y30.68
X42.424 Y30.578
X42.683 Y30.457
X42.929 Y30.312
X43.158 Y30.141
X43.369 Y29.949
X43.56 Y29.737
X43.732 Y29.509
X43.886 Y29.268
X44.022 Y29.017
X44.142 Y28.758
X44.247 Y28.493
X44.339 Y28.222
X44.419 Y27.948
X44.489 Y27.671
X44.549 Y27.392
X44.602 Y27.111
X44.647 Y26.829
X44.686 Y26.546
X44.719 Y26.263
X44.748 Y25.979
X44.773 Y25.694
X44.794 Y25.409
X44.813 Y25.124
X44.828 Y24.839
X44.842 Y24.554
X44.853 Y24.269
X44.863 Y23.983
X44.872 Y23.698
X44.879 Y23.412
X44.885 Y23.127
X44.891 Y22.841
X44.895 Y22.556
X44.899 Y22.27
X44.902 Y21.985
X44.905 Y21.699
X44.907 Y21.413
X44.909 Y21.128
X44.911 Y20.842
X44.913 Y20.557
X44.915 Y19.986
X44.917 Y19.414
X44.919 Y18.558
X44.92 Y17.701
X44.921 Y16.273
Y13.988
X44.922 Y12.56
X44.916 Y12.275
X44.874 Y11.992
X44.787 Y11.72
X44.659 Y11.465
X44.495 Y11.231
X44.303 Y11.02
X44.089 Y10.832
X43.857 Y10.665
X43.611 Y10.519
X43.356 Y10.391
X43.092 Y10.281
X42.824 Y10.185
X42.55 Y10.102
X42.274 Y10.031
X41.995 Y9.969
X41.714 Y9.917
X41.432 Y9.872
X41.149 Y9.833
X40.865 Y9.8
X40.581 Y9.772
X40.297 Y9.748
X40.012 Y9.728
X39.727 Y9.71
X39.442 Y9.695
X39.156 Y9.683
X38.871 Y9.672
X38.585 Y9.663
X38.3 Y9.655
X38.014 Y9.648
X37.729 Y9.643
X37.443 Y9.638
X37.158 Y9.634
X36.872 Y9.63
X36.587 Y9.627
X36.301 Y9.625
X36.016 Y9.623
X35.73 Y9.621
X35.444 Y9.619
X34.873 Y9.617
X34.302 Y9.615
X33.445 Y9.614
X32.589 Y9.612
X31.161
X28.876 Y9.611
X19.737
X14.026 Y9.612
X13.74
X13.455 Y9.623
X13.174 Y9.676
X12.905 Y9.772
X12.655 Y9.91
X12.426 Y10.08
X12.22 Y10.278
X12.037 Y10.497
X11.875 Y10.732
X11.733 Y10.98
X11.609 Y11.238
X11.502 Y11.502
X11.409 Y11.772
X11.329 Y12.046
X11.26 Y12.324
X11.201 Y12.603
X11.15 Y12.884
X11.106 Y13.166
X11.069 Y13.449
X11.037 Y13.733
X11.01 Y14.017
X10.987 Y14.302
X10.967 Y14.587
X10.95 Y14.872
X10.936 Y15.157
X10.923 Y15.443
X10.913 Y15.728
X10.904 Y16.013
X10.896 Y16.299
X10.89 Y16.584
X10.884 Y16.87
X10.88 Y17.155
X10.876 Y17.441
X10.872 Y17.727
X10.87 Y18.012
X10.867 Y18.298
X10.865 Y18.583
X10.863 Y18.869
X10.862 Y19.154
X10.859 Y19.726
X10.858 Y20.297
X10.856 Y21.153
X10.855 Y22.01
X10.854 Y23.438
X10.853 Y25.437
Y25.723
X10.862 Y26.008
X10.909 Y26.29
X11.001 Y26.56
X11.133 Y26.813
X11.301 Y27.045
X11.495 Y27.253
X11.712 Y27.44
X11.946 Y27.604
X12.192 Y27.748
X12.449 Y27.874
X12.712 Y27.983
X12.982 Y28.078
X13.255 Y28.159
X13.532 Y28.23
X13.811 Y28.29
X14.092 Y28.342
X14.374 Y28.387
X14.657 Y28.425
X14.941 Y28.458
X15.225 Y28.486
X15.51 Y28.509
X15.795 Y28.53
X16.08 Y28.547
X16.365 Y28.562
X16.65 Y28.574
X16.936 Y28.585
X17.221 Y28.594
X17.506 Y28.602
X17.792 Y28.609
X18.078 Y28.614
X18.363 Y28.619
X18.649 Y28.623
X18.934 Y28.627
X19.22 Y28.63
X19.505 Y28.632
X19.791 Y28.634
X20.076 Y28.636
X20.362 Y28.638
X20.933 Y28.64
X21.79 Y28.643
X22.361 Y28.645
X22.647 Y28.646
X22.932 Y28.647
X23.218 Y28.649
X23.503 Y28.652
X23.789 Y28.656
X24.074 Y28.661
X24.36 Y28.668
X24.645 Y28.678
X24.931 Y28.689
X25.216 Y28.704
X25.501 Y28.723
X25.786 Y28.746
X26.07 Y28.774
X26.353 Y28.807
X26.636 Y28.846
X26.918 Y28.892
X27.199 Y28.946
X27.477 Y29.008
X27.754 Y29.079
X28.028 Y29.16
X28.298 Y29.251
X28.565 Y29.354
X28.827 Y29.468
X29.083 Y29.594
X29.332 Y29.735
X29.572 Y29.889
X29.802 Y30.058
X30.02 Y30.242
X30.225 Y30.441
X30.414 Y30.655
X30.562 Y30.852
X30.685 Y31.048
X30.784 Y31.236
X30.853 Y31.399
X30.913 Y31.58
X30.954 Y31.747
X30.978 Y31.896
X30.991 Y32.06
Y32.217
X30.986 Y32.285
X30.937 Y32.494
X30.829 Y32.679
X30.672 Y32.825
X30.478 Y32.918
X30.266 Y32.95
X30.147
G3 X29.989 Y32.38 I0.01 J-0.31
G1 X30.046 Y32.343 Z-0.972
X30.101 Y32.307 Z-0.949
X30.151 Y32.275 Z-0.912
X30.192 Y32.248 Z-0.863
X30.223 Y32.228 Z-0.804
X30.242 Y32.216 Z-0.739
X30.249 Y32.212 Z-0.67
G0 Z3
X40.284 Y34.469
Z-0.36
G1 Z-0.67 F1000
X40.277 Y34.465 Z-0.739
X40.257 Y34.454 Z-0.804
X40.224 Y34.437 Z-0.863
X40.181 Y34.413 Z-0.912
X40.13 Y34.385 Z-0.949
X40.072 Y34.354 Z-0.972
X40.011 Y34.321 Z-0.98
G3 X39.436 Y33.786 I0.756 J-1.39
G1 X39.343 Y33.63
X39.318 Y33.594
X39.242 Y33.501
X39.162 Y33.408
X39.13 Y33.371
X39.095 Y33.323
X39.058 Y33.263
X39.025 Y33.197
X38.992 Y33.117
X38.965 Y33.032
X38.942 Y32.931
X38.926 Y32.823
X38.917 Y32.699
X38.919 Y32.569
X38.932 Y32.423
X38.96 Y32.267
X39.003 Y32.1
X39.066 Y31.918
X39.147 Y31.734
X39.255 Y31.534
X39.392 Y31.323
X39.557 Y31.108
X39.749 Y30.896
X39.956 Y30.7
X40.176 Y30.518
X40.407 Y30.35
X40.647 Y30.195
X40.893 Y30.05
X41.141 Y29.908
X41.384 Y29.759
X41.618 Y29.595
X41.839 Y29.414
X42.045 Y29.216
X42.235 Y29.003
X42.407 Y28.775
X42.563 Y28.536
X42.703 Y28.286
X42.827 Y28.029
X42.937 Y27.766
X43.034 Y27.497
X43.12 Y27.225
X43.194 Y26.949
X43.26 Y26.671
X43.317 Y26.391
X43.367 Y26.11
X43.41 Y25.828
X43.447 Y25.545
X43.48 Y25.261
X43.508 Y24.977
X43.532 Y24.692
X43.553 Y24.407
X43.571 Y24.122
X43.587 Y23.837
X43.6 Y23.552
X43.612 Y23.267
X43.622 Y22.981
X43.63 Y22.696
X43.637 Y22.41
X43.644 Y22.125
X43.649 Y21.839
X43.654 Y21.554
X43.658 Y21.268
X43.661 Y20.983
X43.664 Y20.697
X43.667 Y20.412
X43.669 Y20.126
X43.671 Y19.84
X43.672 Y19.555
X43.675 Y18.984
X43.676 Y18.412
X43.678 Y17.556
X43.68 Y16.699
X43.681 Y15.271
Y13.843
X43.678 Y13.558
X43.641 Y13.274
X43.56 Y13.001
X43.436 Y12.743
X43.277 Y12.506
X43.088 Y12.292
X42.877 Y12.1
X42.647 Y11.931
X42.403 Y11.782
X42.149 Y11.652
X41.887 Y11.539
X41.618 Y11.44
X41.346 Y11.356
X41.07 Y11.283
X40.791 Y11.22
X40.511 Y11.166
X40.229 Y11.12
X39.946 Y11.08
X39.662 Y11.047
X39.378 Y11.018
X39.094 Y10.993
X38.809 Y10.972
X38.524 Y10.954
X38.239 Y10.938
X37.953 Y10.925
X37.668 Y10.914
X37.383 Y10.905
X37.097 Y10.897
X36.812 Y10.89
X36.526 Y10.884
X36.241 Y10.879
X35.955 Y10.875
X35.67 Y10.871
X35.384 Y10.868
X35.098 Y10.865
X34.813 Y10.863
X34.527 Y10.861
X34.242 Y10.86
X33.956 Y10.858
X33.385 Y10.856
X32.814 Y10.855
X31.957 Y10.853
X30.815 Y10.852
X29.101 Y10.851
X25.674
X16.25
X15.108 Y10.852
X14.822 Y10.854
X14.539 Y10.888
X14.264 Y10.966
X14.005 Y11.087
X13.767 Y11.244
X13.551 Y11.431
X13.358 Y11.641
X13.187 Y11.87
X13.036 Y12.112
X12.905 Y12.366
X12.79 Y12.628
X12.691 Y12.895
X12.605 Y13.168
X12.531 Y13.444
X12.468 Y13.722
X12.413 Y14.002
X12.367 Y14.284
X12.326 Y14.567
X12.292 Y14.85
X12.263 Y15.135
X12.238 Y15.419
X12.216 Y15.704
X12.198 Y15.989
X12.183 Y16.274
X12.169 Y16.559
X12.158 Y16.845
X12.148 Y17.13
X12.14 Y17.415
X12.133 Y17.701
X12.127 Y17.986
X12.122 Y18.272
X12.118 Y18.558
X12.114 Y18.843
X12.111 Y19.129
X12.108 Y19.414
X12.106 Y19.7
X12.104 Y19.985
X12.103 Y20.271
X12.101 Y20.557
X12.099 Y21.128
X12.097 Y21.699
X12.096 Y22.556
X12.094 Y23.698
Y24.269
Y24.555
X12.112 Y24.84
X12.171 Y25.119
X12.274 Y25.385
X12.417 Y25.633
X12.592 Y25.858
X12.793 Y26.061
X13.014 Y26.242
X13.252 Y26.401
X13.501 Y26.54
X13.759 Y26.661
X14.025 Y26.767
X14.295 Y26.858
X14.57 Y26.937
X14.847 Y27.005
X15.127 Y27.063
X15.408 Y27.113
X15.69 Y27.156
X15.974 Y27.193
X16.257 Y27.224
X16.542 Y27.251
X16.826 Y27.274
X17.111 Y27.294
X17.396 Y27.31
X17.682 Y27.325
X17.967 Y27.337
X18.252 Y27.347
X18.538 Y27.356
X18.823 Y27.364
X19.109 Y27.37
X19.394 Y27.375
X19.68 Y27.38
X19.965 Y27.384
X20.251 Y27.387
X20.536 Y27.39
X20.822 Y27.393
X21.108 Y27.395
X22.25 Y27.403
X22.536 Y27.405
X22.821 Y27.408
X23.107 Y27.412
X23.392 Y27.416
X23.678 Y27.422
X23.963 Y27.43
X24.249 Y27.439
X24.534 Y27.45
X24.819 Y27.464
X25.104 Y27.482
X25.389 Y27.502
X25.674 Y27.527
X25.958 Y27.555
X26.241 Y27.589
X26.524 Y27.628
X26.806 Y27.673
X27.087 Y27.724
X27.367 Y27.782
X27.645 Y27.847
X27.921 Y27.921
X28.195 Y28.002
X28.466 Y28.092
X28.733 Y28.191
X28.997 Y28.301
X29.257 Y28.42
X29.511 Y28.549
X29.76 Y28.69
X30.001 Y28.842
X30.236 Y29.006
X30.461 Y29.181
X30.678 Y29.367
X30.883 Y29.566
X31.075 Y29.777
X31.254 Y29.999
X31.417 Y30.234
X31.563 Y30.479
X31.69 Y30.734
X31.791 Y30.988
X31.863 Y31.22
X31.913 Y31.446
X31.942 Y31.653
X31.953 Y31.829
X31.949 Y32.021
X31.931 Y32.189
X31.904 Y32.337
X31.883 Y32.414
X31.811 Y32.589
X31.696 Y32.738
X31.546 Y32.853
X31.372 Y32.925
X31.185 Y32.95
X30.266
G3 X30.108 Y32.38 I0.01 J-0.31
G1 X30.166 Y32.343 Z-0.972
X30.221 Y32.307 Z-0.949
X30.27 Y32.275 Z-0.912
X30.311 Y32.248 Z-0.863
X30.342 Y32.228 Z-0.804
X30.362 Y32.216 Z-0.739
X30.368 Y32.212 Z-0.67
G0 Z3
X40.146 Y33.873
Z-0.36
G1 Z-0.67 F1000
X40.139 Y33.871 Z-0.739
X40.116 Y33.865 Z-0.804
X40.081 Y33.856 Z-0.863
X40.033 Y33.843 Z-0.912
X39.977 Y33.828 Z-0.949
X39.913 Y33.811 Z-0.972
X39.847 Y33.793 Z-0.98
G3 X39.162 Y33.408 I0.409 J-1.529
G1 X39.158 Y33.403
X39.056 Y33.315
X38.972 Y33.245
X38.786 Y33.13
X38.755 Y33.109
X38.707 Y33.07
X38.66 Y33.026
X38.61 Y32.969
X38.562 Y32.907
X38.513 Y32.83
X38.468 Y32.747
X38.425 Y32.648
X38.388 Y32.54
X38.357 Y32.419
X38.334 Y32.284
X38.321 Y32.139
X38.32 Y31.975
X38.332 Y31.806
X38.361 Y31.616
X38.408 Y31.418
X38.475 Y31.209
X38.569 Y30.984
X38.689 Y30.75
X38.838 Y30.509
X39.007 Y30.279
X39.192 Y30.062
X39.392 Y29.858
X39.602 Y29.665
X39.82 Y29.48
X40.039 Y29.297
X40.256 Y29.111
X40.465 Y28.917
X40.665 Y28.712
X40.852 Y28.496
X41.026 Y28.27
X41.185 Y28.033
X41.331 Y27.787
X41.462 Y27.534
X41.58 Y27.274
X41.686 Y27.008
X41.78 Y26.739
X41.863 Y26.465
X41.937 Y26.19
X42.002 Y25.911
X42.059 Y25.632
X42.109 Y25.351
X42.153 Y25.068
X42.192 Y24.785
X42.225 Y24.502
X42.254 Y24.218
X42.279 Y23.933
X42.301 Y23.648
X42.32 Y23.363
X42.337 Y23.078
X42.351 Y22.793
X42.364 Y22.508
X42.374 Y22.222
X42.384 Y21.937
X42.392 Y21.652
X42.399 Y21.366
X42.405 Y21.081
X42.41 Y20.795
X42.414 Y20.509
X42.418 Y20.224
X42.421 Y19.938
X42.424 Y19.653
X42.427 Y19.367
X42.429 Y19.082
X42.431 Y18.796
X42.432 Y18.51
X42.435 Y17.939
X42.436 Y17.368
X42.438 Y16.511
X42.44 Y15.655
Y15.084
X42.437 Y14.798
X42.399 Y14.515
X42.317 Y14.241
X42.193 Y13.984
X42.034 Y13.747
X41.845 Y13.533
X41.633 Y13.342
X41.403 Y13.172
X41.159 Y13.023
X40.905 Y12.893
X40.643 Y12.78
X40.374 Y12.682
X40.102 Y12.598
X39.825 Y12.524
X39.547 Y12.462
X39.266 Y12.408
X38.985 Y12.361
X38.702 Y12.322
X38.418 Y12.288
X38.134 Y12.259
X37.85 Y12.234
X37.565 Y12.213
X37.28 Y12.195
X36.995 Y12.179
X36.709 Y12.166
X36.424 Y12.155
X36.139 Y12.145
X35.853 Y12.137
X35.568 Y12.13
X35.282 Y12.124
X34.997 Y12.119
X34.711 Y12.115
X34.426 Y12.111
X34.14 Y12.108
X33.854 Y12.106
X33.569 Y12.104
X33.283 Y12.102
X32.998 Y12.1
X32.712 Y12.099
X32.141 Y12.097
X31.57 Y12.095
X30.713 Y12.093
X29.571 Y12.092
X27.857
X24.43 Y12.091
X16.434
X16.148 Y12.092
X15.864 Y12.115
X15.586 Y12.18
X15.322 Y12.289
X15.077 Y12.436
X14.854 Y12.615
X14.654 Y12.819
X14.477 Y13.042
X14.321 Y13.281
X14.184 Y13.532
X14.064 Y13.791
X13.961 Y14.058
X13.871 Y14.329
X13.794 Y14.604
X13.727 Y14.881
X13.67 Y15.161
X13.621 Y15.443
X13.579 Y15.725
X13.543 Y16.008
X13.512 Y16.292
X13.486 Y16.577
X13.463 Y16.861
X13.444 Y17.146
X13.428 Y17.431
X13.414 Y17.717
X13.402 Y18.002
X13.392 Y18.287
X13.383 Y18.573
X13.376 Y18.858
X13.369 Y19.144
X13.364 Y19.429
X13.359 Y19.715
X13.355 Y20
X13.352 Y20.286
X13.349 Y20.571
X13.347 Y20.857
X13.345 Y21.143
X13.343 Y21.428
X13.342 Y21.714
X13.339 Y22.285
X13.338 Y22.856
X13.337 Y23.142
X13.339 Y23.427
X13.372 Y23.711
X13.45 Y23.986
X13.569 Y24.245
X13.726 Y24.484
X13.912 Y24.701
X14.122 Y24.894
X14.35 Y25.066
X14.593 Y25.217
X14.846 Y25.349
X15.107 Y25.464
X15.375 Y25.563
X15.647 Y25.65
X15.923 Y25.724
X16.201 Y25.788
X16.481 Y25.843
X16.763 Y25.89
X17.046 Y25.931
X17.329 Y25.965
X17.613 Y25.995
X17.898 Y26.02
X18.182 Y26.042
X18.467 Y26.06
X18.753 Y26.076
X19.038 Y26.089
X19.323 Y26.101
X19.609 Y26.111
X19.894 Y26.119
X20.18 Y26.126
X20.465 Y26.132
X20.751 Y26.138
X21.036 Y26.142
X21.322 Y26.147
X22.178 Y26.159
X22.464 Y26.163
X22.749 Y26.168
X23.035 Y26.174
X23.32 Y26.181
X23.606 Y26.189
X23.891 Y26.199
X24.177 Y26.21
X24.462 Y26.224
X24.747 Y26.24
X25.032 Y26.26
X25.317 Y26.282
X25.601 Y26.308
X25.885 Y26.338
X26.169 Y26.372
X26.452 Y26.411
X26.734 Y26.455
X27.015 Y26.504
X27.295 Y26.56
X27.574 Y26.621
X27.851 Y26.69
X28.127 Y26.764
X28.4 Y26.847
X28.672 Y26.936
X28.94 Y27.034
X29.205 Y27.139
X29.467 Y27.254
X29.725 Y27.377
X29.978 Y27.509
X30.226 Y27.65
X30.469 Y27.8
X30.706 Y27.96
X30.935 Y28.13
X31.158 Y28.309
X31.372 Y28.498
X31.577 Y28.697
X31.772 Y28.905
X31.956 Y29.123
X32.129 Y29.351
X32.29 Y29.587
X32.436 Y29.832
X32.568 Y30.086
X32.683 Y30.347
X32.781 Y30.615
X32.86 Y30.889
X32.919 Y31.169
X32.955 Y31.438
X32.967 Y31.68
X32.961 Y31.902
X32.952 Y31.982
X32.906 Y32.167
X32.814 Y32.333
X32.682 Y32.47
X32.519 Y32.568
X32.376 Y32.629
X32.314 Y32.665
X32.191 Y32.739
X32.161 Y32.758
X32.098 Y32.799
X32.021 Y32.851
X31.958 Y32.896
X31.912 Y32.921
X31.876 Y32.934
X31.841 Y32.944
X31.819 Y32.947
X31.726 Y32.95
X31.185
G3 X31.027 Y32.38 I0.011 J-0.31
G1 X31.085 Y32.342 Z-0.972
X31.14 Y32.307 Z-0.949
X31.19 Y32.275 Z-0.912
X31.231 Y32.248 Z-0.863
X31.262 Y32.228 Z-0.804
X31.281 Y32.216 Z-0.739
X31.288 Y32.212 Z-0.67
G0 Z3
X39.854 Y33.337
Z-0.36
G1 Z-0.67 F1000
X39.847 Z-0.739
X39.824 Z-0.804
X39.787 Y33.336 Z-0.863
X39.738 Z-0.912
X39.679 Y33.335 Z-0.949
X39.613 Y33.334 Z-0.972
X39.545 Y33.333 Z-0.98
G3 X38.786 Y33.13 I0.018 J-1.582
G1 X38.693 Y33.085
X38.6 Y33.047
X38.57 Y33.036
X38.507 Y33.016
X38.414 Y32.991
X38.382 Y32.983
X38.334 Y32.965
X38.278 Y32.941
X38.222 Y32.91
X38.161 Y32.869
X38.099 Y32.822
X38.035 Y32.763
X37.971 Y32.693
X37.908 Y32.614
X37.845 Y32.519
X37.787 Y32.416
X37.732 Y32.294
X37.684 Y32.163
X37.644 Y32.016
X37.613 Y31.851
X37.595 Y31.677
X37.59 Y31.48
X37.601 Y31.275
X37.631 Y31.054
X37.683 Y30.814
X37.759 Y30.564
X37.862 Y30.305
X37.988 Y30.049
X38.132 Y29.803
X38.293 Y29.567
X38.466 Y29.34
X38.649 Y29.12
X38.837 Y28.905
X39.026 Y28.691
X39.213 Y28.475
X39.393 Y28.254
X39.566 Y28.027
X39.729 Y27.792
X39.882 Y27.551
X40.023 Y27.302
X40.152 Y27.048
X40.27 Y26.788
X40.377 Y26.523
X40.473 Y26.254
X40.559 Y25.982
X40.637 Y25.707
X40.706 Y25.43
X40.767 Y25.151
X40.821 Y24.87
X40.869 Y24.589
X40.911 Y24.306
X40.948 Y24.023
X40.981 Y23.739
X41.009 Y23.455
X41.034 Y23.171
X41.056 Y22.886
X41.075 Y22.601
X41.092 Y22.316
X41.107 Y22.031
X41.119 Y21.746
X41.13 Y21.46
X41.14 Y21.175
X41.148 Y20.889
X41.155 Y20.604
X41.162 Y20.318
X41.167 Y20.033
X41.172 Y19.747
X41.176 Y19.462
X41.179 Y19.176
X41.182 Y18.891
X41.185 Y18.605
X41.187 Y18.319
X41.189 Y18.034
X41.191 Y17.748
X41.192 Y17.463
X41.195 Y16.891
X41.197 Y16.32
X41.193 Y16.035
X41.155 Y15.752
X41.072 Y15.478
X40.947 Y15.221
X40.787 Y14.985
X40.598 Y14.771
X40.385 Y14.58
X40.155 Y14.411
X39.911 Y14.263
X39.657 Y14.133
X39.395 Y14.02
X39.126 Y13.922
X38.854 Y13.838
X38.577 Y13.765
X38.299 Y13.702
X38.018 Y13.648
X37.737 Y13.602
X37.454 Y13.562
X37.17 Y13.528
X36.886 Y13.499
X36.602 Y13.474
X36.317 Y13.453
X36.032 Y13.435
X35.747 Y13.42
X35.461 Y13.406
X35.176 Y13.395
X34.891 Y13.386
X34.605 Y13.378
X34.32 Y13.371
X34.034 Y13.365
X33.749 Y13.36
X33.463 Y13.355
X33.177 Y13.352
X32.892 Y13.349
X32.606 Y13.346
X32.321 Y13.344
X32.035 Y13.342
X31.75 Y13.34
X31.464 Y13.339
X30.893 Y13.337
X30.322 Y13.335
X29.465 Y13.334
X28.323 Y13.332
X26.609
X23.182 Y13.331
X17.471
X17.185 Y13.344
X16.905 Y13.397
X16.636 Y13.494
X16.386 Y13.632
X16.157 Y13.802
X15.95 Y14
X15.767 Y14.218
X15.605 Y14.454
X15.462 Y14.701
X15.338 Y14.958
X15.23 Y15.223
X15.137 Y15.493
X15.056 Y15.767
X14.986 Y16.044
X14.927 Y16.323
X14.875 Y16.604
X14.831 Y16.886
X14.794 Y17.169
X14.761 Y17.453
X14.734 Y17.737
X14.71 Y18.022
X14.69 Y18.306
X14.673 Y18.591
X14.658 Y18.877
X14.645 Y19.162
X14.635 Y19.447
X14.626 Y19.733
X14.618 Y20.018
X14.611 Y20.304
X14.606 Y20.589
X14.601 Y20.875
X14.597 Y21.16
X14.593 Y21.446
X14.59 Y21.732
X14.588 Y22.017
X14.598 Y22.302
X14.648 Y22.584
X14.743 Y22.853
X14.878 Y23.104
X15.047 Y23.335
X15.244 Y23.542
X15.462 Y23.727
X15.696 Y23.89
X15.943 Y24.033
X16.2 Y24.157
X16.464 Y24.266
X16.734 Y24.36
X17.008 Y24.441
X17.285 Y24.511
X17.564 Y24.571
X17.845 Y24.623
X18.127 Y24.667
X18.41 Y24.705
X18.693 Y24.738
X18.978 Y24.765
X19.262 Y24.789
X19.547 Y24.81
X19.832 Y24.827
X20.117 Y24.842
X20.403 Y24.855
X20.688 Y24.866
X20.973 Y24.876
X21.259 Y24.885
X21.544 Y24.893
X22.401 Y24.916
X22.686 Y24.924
X22.972 Y24.933
X23.257 Y24.942
X23.543 Y24.953
X23.828 Y24.965
X24.113 Y24.98
X24.398 Y24.996
X24.683 Y25.014
X24.968 Y25.035
X25.253 Y25.059
X25.537 Y25.086
X25.821 Y25.117
X26.104 Y25.152
X26.387 Y25.191
X26.669 Y25.234
X26.951 Y25.282
X27.232 Y25.335
X27.511 Y25.394
X27.789 Y25.458
X28.066 Y25.528
X28.342 Y25.604
X28.615 Y25.686
X28.886 Y25.775
X29.155 Y25.871
X29.422 Y25.974
X29.685 Y26.084
X29.945 Y26.202
X30.202 Y26.327
X30.455 Y26.46
X30.703 Y26.601
X30.947 Y26.75
X31.185 Y26.907
X31.418 Y27.072
X31.645 Y27.245
X31.865 Y27.427
X32.079 Y27.617
X32.285 Y27.815
X32.482 Y28.021
X32.671 Y28.236
X32.85 Y28.458
X33.02 Y28.688
X33.179 Y28.925
X33.327 Y29.169
X33.462 Y29.42
X33.585 Y29.678
X33.695 Y29.942
X33.791 Y30.211
X33.871 Y30.485
X33.934 Y30.764
X33.98 Y31.045
X34.001 Y31.301
Y31.511
X33.99 Y31.645
X33.95 Y31.832
X33.86 Y32.002
X33.728 Y32.142
X33.564 Y32.241
X33.379 Y32.293
X33.212 Y32.337
X33.12 Y32.366
X32.748 Y32.487
X32.562 Y32.549
X32.519 Y32.568
G3 X32.149 Y32.106 I-0.113 J-0.289
G1 X32.187 Y32.049 Z-0.972
X32.224 Y31.994 Z-0.949
X32.256 Y31.946 Z-0.912
X32.284 Y31.905 Z-0.863
X32.304 Y31.874 Z-0.804
X32.317 Y31.855 Z-0.739
X32.322 Y31.849 Z-0.67
G0 Z3
X39.49 Y32.824
Z-0.36
G1 Z-0.67 F1000
X39.483 Y32.826 Z-0.739
X39.461 Y32.834 Z-0.804
X39.426 Y32.846 Z-0.863
X39.38 Y32.862 Z-0.912
X39.324 Y32.881 Z-0.949
X39.262 Y32.903 Z-0.972
X39.197 Y32.925 Z-0.98
G3 X38.414 Y32.991 I-0.519 J-1.495
G1 X38.322 Y32.972
X38.229 Y32.959
X38.136 Y32.952
X38.043 Y32.95
X37.992
X37.922 Y32.947
X37.892 Y32.945
X37.862 Y32.942
X37.832 Y32.937
X37.803 Y32.932
X37.774 Y32.925
X37.745 Y32.917
X37.716 Y32.909
X37.688 Y32.899
X37.659 Y32.888
X37.632 Y32.877
X37.604 Y32.864
X37.577 Y32.851
X37.551 Y32.837
X37.525 Y32.823
X37.499 Y32.807
X37.474 Y32.791
X37.449 Y32.775
X37.424 Y32.758
X37.4 Y32.74
X37.376 Y32.721
X37.353 Y32.702
X37.33 Y32.683
X37.308 Y32.663
X37.286 Y32.642
X37.264 Y32.622
X37.243 Y32.6
X37.223 Y32.578
X37.202 Y32.556
X37.183 Y32.534
X37.163 Y32.511
X37.144 Y32.487
X37.126 Y32.464
X37.108 Y32.44
X37.09 Y32.415
X37.073 Y32.391
X37.056 Y32.366
X37.04 Y32.341
X37.024 Y32.315
X37.009 Y32.29
X36.994 Y32.264
X36.979 Y32.237
X36.965 Y32.211
X36.951 Y32.184
X36.938 Y32.158
X36.925 Y32.131
X36.912 Y32.103
X36.9 Y32.076
X36.888 Y32.048
X36.877 Y32.021
X36.866 Y31.993
X36.855 Y31.965
X36.845 Y31.936
X36.835 Y31.908
X36.826 Y31.88
X36.817 Y31.851
X36.808 Y31.822
X36.8 Y31.793
X36.792 Y31.764
X36.784 Y31.735
X36.777 Y31.706
X36.77 Y31.677
X36.763 Y31.648
X36.757 Y31.618
X36.752 Y31.589
X36.746 Y31.56
X36.741 Y31.53
X36.736 Y31.5
X36.732 Y31.471
X36.728 Y31.441
X36.724 Y31.411
X36.72 Y31.381
X36.717 Y31.352
X36.715 Y31.322
X36.712 Y31.292
X36.71 Y31.262
X36.708 Y31.232
X36.707 Y31.202
X36.706 Y31.172
X36.705 Y31.142
X36.704 Y31.112
Y31.082
Y31.052
Y31.022
X36.705 Y30.992
X36.706 Y30.962
X36.707 Y30.932
X36.709 Y30.902
X36.71 Y30.872
X36.712 Y30.842
X36.715 Y30.812
X36.717 Y30.782
X36.72 Y30.753
X36.723 Y30.723
X36.727 Y30.693
X36.731 Y30.663
X36.735 Y30.633
X36.739 Y30.604
X36.743 Y30.574
X36.748 Y30.544
X36.753 Y30.515
X36.758 Y30.485
X36.764 Y30.456
X36.77 Y30.426
X36.776 Y30.397
X36.782 Y30.368
X36.789 Y30.338
X36.795 Y30.309
X36.802 Y30.28
X36.81 Y30.251
X36.817 Y30.222
X36.825 Y30.193
X36.833 Y30.164
X36.841 Y30.135
X36.849 Y30.106
X36.858 Y30.077
X36.866 Y30.049
X36.875 Y30.02
X36.885 Y29.991
X36.895 Y29.961
X36.905 Y29.931
X36.916 Y29.9
X36.926 Y29.871
X36.937 Y29.842
X36.947 Y29.814
X36.958 Y29.784
X36.97 Y29.754
X36.982 Y29.724
X36.995 Y29.692
X37.009 Y29.66
X37.023 Y29.627
X37.037 Y29.594
X37.051 Y29.562
X37.065 Y29.53
X37.081 Y29.496
X37.097 Y29.462
X37.113 Y29.427
X37.131 Y29.391
X37.149 Y29.354
X37.168 Y29.317
X37.187 Y29.279
X37.208 Y29.24
X37.229 Y29.2
X37.252 Y29.158
X37.275 Y29.115
X37.302 Y29.068
X37.329 Y29.02
X37.359 Y28.969
X37.39 Y28.917
X37.426 Y28.856
X37.468 Y28.787
X37.512 Y28.716
X37.575 Y28.616
X37.658 Y28.486
X37.814 Y28.247
X37.97 Y28.008
X38.125 Y27.768
X38.275 Y27.525
X38.419 Y27.278
X38.555 Y27.027
X38.683 Y26.772
X38.802 Y26.512
X38.911 Y26.248
X39.012 Y25.981
X39.104 Y25.711
X39.187 Y25.438
X39.262 Y25.162
X39.33 Y24.885
X39.391 Y24.606
X39.445 Y24.325
X39.493 Y24.044
X39.536 Y23.761
X39.575 Y23.478
X39.608 Y23.195
X39.638 Y22.911
X39.665 Y22.626
X39.688 Y22.342
X39.708 Y22.057
X39.726 Y21.772
X39.742 Y21.487
X39.756 Y21.202
X39.768 Y20.916
X39.779 Y20.631
X39.788 Y20.345
X39.796 Y20.06
X39.803 Y19.774
X39.809 Y19.489
X39.815 Y19.203
X39.819 Y18.918
X39.823 Y18.632
X39.827 Y18.347
X39.83 Y18.061
X39.833 Y17.776
X39.835 Y17.49
X39.824 Y17.205
X39.769 Y16.924
X39.668 Y16.657
X39.525 Y16.41
X39.348 Y16.186
X39.145 Y15.986
X38.921 Y15.808
X38.681 Y15.653
X38.43 Y15.517
X38.17 Y15.399
X37.903 Y15.297
X37.631 Y15.209
X37.356 Y15.133
X37.078 Y15.068
X36.798 Y15.012
X36.516 Y14.964
X36.234 Y14.923
X35.95 Y14.888
X35.666 Y14.858
X35.382 Y14.832
X35.097 Y14.81
X34.812 Y14.791
X34.527 Y14.775
X34.242 Y14.761
X33.956 Y14.75
X33.671 Y14.74
X33.386 Y14.731
X33.1 Y14.724
X32.815 Y14.718
X32.529 Y14.713
X32.244 Y14.708
X31.958 Y14.704
X31.672 Y14.701
X31.387 Y14.698
X31.101 Y14.696
X30.816 Y14.694
X30.53 Y14.692
X30.245 Y14.691
X29.673 Y14.689
X29.102 Y14.687
X28.246 Y14.685
X27.389 Y14.684
X25.961 Y14.683
X23.676
X18.821
X18.536 Y14.688
X18.253 Y14.729
X17.982 Y14.818
X17.728 Y14.949
X17.497 Y15.117
X17.289 Y15.313
X17.105 Y15.531
X16.943 Y15.766
X16.801 Y16.014
X16.678 Y16.272
X16.572 Y16.537
X16.479 Y16.807
X16.4 Y17.081
X16.331 Y17.359
X16.272 Y17.638
X16.222 Y17.919
X16.179 Y18.201
X16.142 Y18.485
X16.11 Y18.768
X16.083 Y19.053
X16.06 Y19.337
X16.04 Y19.622
X16.023 Y19.907
X16.008 Y20.192
X15.996 Y20.478
X15.986 Y20.763
X15.99 Y21.049
X16.04 Y21.33
X16.138 Y21.598
X16.28 Y21.846
X16.455 Y22.071
X16.658 Y22.272
X16.882 Y22.45
X17.121 Y22.606
X17.373 Y22.741
X17.633 Y22.859
X17.899 Y22.962
X18.171 Y23.05
X18.446 Y23.125
X18.724 Y23.191
X19.004 Y23.247
X19.286 Y23.295
X19.568 Y23.336
X19.852 Y23.371
X20.136 Y23.402
X20.42 Y23.428
X20.705 Y23.451
X20.99 Y23.471
X21.275 Y23.489
X21.56 Y23.505
X21.845 Y23.52
X22.13 Y23.534
X22.701 Y23.56
X22.986 Y23.574
X23.271 Y23.588
X23.557 Y23.603
X23.842 Y23.619
X24.127 Y23.636
X24.412 Y23.656
X24.554 Y23.666
X24.801 Y23.686
X25.026 Y23.705
X25.227 Y23.724
X25.427 Y23.745
X25.611 Y23.765
X25.783 Y23.785
X25.956 Y23.806
X26.11 Y23.826
X26.271 Y23.849
X26.413 Y23.869
X26.562 Y23.892
X26.698 Y23.914
X26.835 Y23.937
X26.969 Y23.961
X27.094 Y23.984
X27.228 Y24.01
X27.343 Y24.033
X27.465 Y24.058
X27.584 Y24.083
X27.695 Y24.108
X27.814 Y24.135
X27.921 Y24.161
X28.027 Y24.187
X28.142 Y24.216
X28.24 Y24.241
X28.341 Y24.269
X28.449 Y24.299
X28.543 Y24.325
X28.638 Y24.353
X28.74 Y24.384
X28.833 Y24.412
X28.922 Y24.441
X29.017 Y24.471
X29.111 Y24.503
X29.194 Y24.531
X29.282 Y24.562
X29.376 Y24.595
X29.457 Y24.625
X29.539 Y24.656
X29.625 Y24.689
X29.713 Y24.723
X29.788 Y24.753
X29.868 Y24.785
X29.952 Y24.82
X30.032 Y24.854
X30.105 Y24.886
X30.181 Y24.92
X30.263 Y24.957
X30.337 Y24.991
X30.407 Y25.024
X30.48 Y25.059
X30.557 Y25.096
X30.629 Y25.132
X30.695 Y25.165
X30.764 Y25.201
X30.837 Y25.239
X30.908 Y25.277
X30.97 Y25.311
X31.035 Y25.346
X31.103 Y25.385
X31.174 Y25.425
X31.234 Y25.46
X31.295 Y25.496
X31.358 Y25.534
X31.424 Y25.575
X31.488 Y25.614
X31.545 Y25.65
X31.604 Y25.688
X31.665 Y25.728
X31.73 Y25.771
X31.786 Y25.809
X31.841 Y25.846
X31.897 Y25.886
X31.957 Y25.927
X32.018 Y25.971
X32.07 Y26.009
X32.121 Y26.047
X32.175 Y26.088
X32.231 Y26.131
X32.289 Y26.175
X32.338 Y26.213
X32.386 Y26.252
X32.437 Y26.293
X32.49 Y26.337
X32.544 Y26.382
X32.591 Y26.422
X32.637 Y26.461
X32.684 Y26.502
X32.733 Y26.546
X32.784 Y26.592
X32.832 Y26.635
X32.874 Y26.674
X32.918 Y26.715
X32.964 Y26.759
X33.011 Y26.805
X33.058 Y26.851
X33.099 Y26.892
X33.14 Y26.933
X33.182 Y26.976
X33.225 Y27.021
X33.27 Y27.069
X33.312 Y27.114
X33.349 Y27.154
X33.387 Y27.196
X33.426 Y27.24
X33.467 Y27.286
X33.509 Y27.335
X33.546 Y27.379
X33.581 Y27.419
X33.616 Y27.461
X33.652 Y27.506
X33.689 Y27.552
X33.728 Y27.601
X33.763 Y27.646
X33.794 Y27.687
X33.826 Y27.729
X33.86 Y27.774
X33.894 Y27.82
X33.929 Y27.869
X33.962 Y27.916
X33.991 Y27.957
X34.021 Y28
X34.051 Y28.044
X34.082 Y28.091
X34.114 Y28.139
X34.146 Y28.188
X34.173 Y28.231
X34.199 Y28.273
X34.226 Y28.317
X34.254 Y28.363
X34.282 Y28.41
X34.311 Y28.46
X34.338 Y28.507
X34.362 Y28.548
X34.385 Y28.59
X34.454 Y28.716
X34.546 Y28.825
X34.657 Y28.914
X34.784 Y28.98
X34.922 Y29.019
X35.064 Y29.03
X35.206 Y29.014
X35.341 Y28.97
X35.466 Y28.9
X35.683 Y28.713
X35.865 Y28.494
X36.043 Y28.27
X36.217 Y28.044
X36.386 Y27.814
X36.55 Y27.58
X36.709 Y27.343
X36.861 Y27.101
X37.006 Y26.855
X37.143 Y26.604
X37.271 Y26.349
X37.391 Y26.09
X37.502 Y25.827
X37.604 Y25.56
X37.698 Y25.29
X37.783 Y25.018
X37.861 Y24.743
X37.931 Y24.466
X37.994 Y24.188
X38.051 Y23.908
X38.102 Y23.627
X38.148 Y23.345
X38.189 Y23.062
X38.225 Y22.779
X38.258 Y22.495
X38.287 Y22.211
X38.312 Y21.927
X38.335 Y21.642
X38.355 Y21.357
X38.372 Y21.072
X38.388 Y20.787
X38.402 Y20.502
X38.414 Y20.217
X38.424 Y19.931
X38.434 Y19.646
X38.442 Y19.36
X38.449 Y19.075
X38.455 Y18.789
X38.448 Y18.504
X38.394 Y18.223
X38.289 Y17.958
X38.143 Y17.713
X37.962 Y17.491
X37.755 Y17.295
X37.528 Y17.121
X37.286 Y16.97
X37.033 Y16.838
X36.771 Y16.723
X36.503 Y16.624
X36.231 Y16.539
X35.955 Y16.466
X35.676 Y16.403
X35.396 Y16.349
X35.114 Y16.303
X34.831 Y16.264
X34.547 Y16.23
X34.263 Y16.201
X33.979 Y16.177
X33.694 Y16.156
X33.409 Y16.138
X33.124 Y16.122
X32.838 Y16.109
X32.553 Y16.098
X32.268 Y16.089
X31.982 Y16.081
X31.697 Y16.074
X31.411 Y16.068
X31.126 Y16.063
X30.84 Y16.059
X30.555 Y16.055
X30.269 Y16.052
X29.983 Y16.049
X29.698 Y16.047
X29.412 Y16.045
X29.127 Y16.044
X28.841 Y16.042
X28.27 Y16.04
X27.699 Y16.038
X26.842 Y16.037
X25.7 Y16.036
X23.986 Y16.035
X20.845
X20.274
X19.988
X19.703 Y16.053
X19.425 Y16.119
X19.163 Y16.232
X18.912 Y16.368
X18.684 Y16.54
X18.48 Y16.74
X18.3 Y16.961
X18.141 Y17.199
X18.004 Y17.449
X17.884 Y17.708
X17.78 Y17.975
X17.691 Y18.246
X17.615 Y18.521
X17.549 Y18.799
X17.493 Y19.079
X17.444 Y19.36
X17.404 Y19.643
X17.41 Y19.929
X17.473 Y20.207
X17.586 Y20.469
X17.74 Y20.71
X17.927 Y20.926
X18.139 Y21.118
X18.369 Y21.287
X18.613 Y21.434
X18.868 Y21.563
X19.131 Y21.674
X19.4 Y21.77
X19.674 Y21.853
X19.95 Y21.924
X20.229 Y21.986
X20.51 Y22.039
X20.791 Y22.085
X21.074 Y22.125
X21.358 Y22.161
X21.641 Y22.192
X21.926 Y22.22
X22.21 Y22.245
X22.495 Y22.269
X22.779 Y22.291
X23.064 Y22.312
X23.349 Y22.333
X23.634 Y22.355
X23.919 Y22.377
X24.203 Y22.4
X24.488 Y22.424
X24.772 Y22.45
X25.056 Y22.478
X25.34 Y22.508
X25.624 Y22.541
X25.907 Y22.576
X26.19 Y22.615
X26.473 Y22.657
X26.755 Y22.702
X27.036 Y22.752
X27.317 Y22.805
X27.596 Y22.862
X27.875 Y22.924
X28.153 Y22.99
X28.43 Y23.061
X28.705 Y23.136
X28.979 Y23.217
X29.251 Y23.303
X29.522 Y23.394
X29.791 Y23.491
X30.057 Y23.593
X30.322 Y23.701
X30.584 Y23.814
X30.843 Y23.934
X31.1 Y24.059
X31.354 Y24.19
X31.604 Y24.328
X31.851 Y24.471
X32.094 Y24.621
X32.333 Y24.777
X32.568 Y24.939
X32.799 Y25.107
X33.025 Y25.282
X33.246 Y25.463
X33.462 Y25.65
X33.672 Y25.843
X33.877 Y26.043
X33.993 Y26.125
X34.123 Y26.184
X34.262 Y26.216
X34.548 Y26.223
X34.824 Y26.151
X35.083 Y26.031
X35.321 Y25.873
X35.538 Y25.688
X35.734 Y25.48
X35.91 Y25.255
X36.068 Y25.017
X36.208 Y24.768
X36.332 Y24.511
X36.443 Y24.247
X36.54 Y23.979
X36.627 Y23.707
X36.703 Y23.432
X36.77 Y23.154
X36.83 Y22.875
X36.882 Y22.594
X36.928 Y22.312
X36.969 Y22.03
X37.004 Y21.746
X37.036 Y21.462
X37.063 Y21.178
X37.087 Y20.894
X37.109 Y20.609
X37.127 Y20.324
X37.144 Y20.039
X37.138 Y19.753
X37.081 Y19.473
X36.975 Y19.208
X36.828 Y18.963
X36.647 Y18.742
X36.441 Y18.545
X36.214 Y18.37
X35.973 Y18.218
X35.721 Y18.084
X35.459 Y17.969
X35.192 Y17.869
X34.92 Y17.783
X34.644 Y17.709
X34.365 Y17.645
X34.085 Y17.591
X33.803 Y17.544
X33.521 Y17.504
X33.237 Y17.47
X32.953 Y17.441
X32.668 Y17.416
X32.384 Y17.395
X32.099 Y17.377
X31.813 Y17.362
X31.528 Y17.349
X31.243 Y17.338
X30.957 Y17.328
X30.672 Y17.32
X30.386 Y17.313
X30.101 Y17.308
X29.815 Y17.303
X29.53 Y17.298
X29.244 Y17.295
X28.959 Y17.292
X28.673 Y17.289
X28.387 Y17.287
X28.102 Y17.285
X27.816 Y17.283
X27.531 Y17.282
X26.96 Y17.28
X26.388 Y17.278
X25.532 Y17.277
X24.389 Y17.276
X22.676 Y17.275
X21.534
X21.248
X20.963 Y17.292
X20.683 Y17.349
X20.416 Y17.451
X20.168 Y17.592
X19.942 Y17.767
X19.739 Y17.968
X19.559 Y18.189
X19.4 Y18.427
X19.352 Y18.561
X19.332 Y18.703
X19.347 Y18.988
X19.448 Y19.255
X19.458 Y19.27
X19.613 Y19.509
X19.805 Y19.721
X20.023 Y19.906
X20.259 Y20.066
X20.509 Y20.205
X20.768 Y20.324
X21.034 Y20.427
X21.306 Y20.517
X21.581 Y20.594
X21.858 Y20.661
X22.138 Y20.72
X22.419 Y20.772
X22.7 Y20.818
X22.983 Y20.86
X23.266 Y20.899
X23.549 Y20.935
X23.833 Y20.97
X24.116 Y21.003
X24.683 Y21.07
X24.967 Y21.104
X25.25 Y21.139
X25.534 Y21.176
X25.817 Y21.214
X25.958 Y21.235
X26.188 Y21.269
X26.408 Y21.303
X26.605 Y21.335
X26.792 Y21.367
X26.982 Y21.401
X27.146 Y21.431
X27.318 Y21.465
X27.475 Y21.496
X27.634 Y21.529
X27.783 Y21.561
X27.934 Y21.595
X28.073 Y21.627
X28.22 Y21.662
X28.35 Y21.695
X28.493 Y21.731
X28.616 Y21.764
X28.75 Y21.8
X28.874 Y21.834
X28.997 Y21.87
X29.125 Y21.907
X29.239 Y21.942
X29.362 Y21.98
X29.475 Y22.016
X29.589 Y22.053
X29.709 Y22.093
X29.813 Y22.129
X29.925 Y22.168
X30.035 Y22.208
X30.137 Y22.245
X30.247 Y22.287
X30.35 Y22.326
X30.45 Y22.365
X30.557 Y22.408
X30.654 Y22.448
X30.751 Y22.489
X30.854 Y22.533
X30.947 Y22.573
X31.041 Y22.615
X31.141 Y22.66
X31.232 Y22.702
X31.321 Y22.745
X31.418 Y22.791
X31.507 Y22.835
X31.593 Y22.877
X31.685 Y22.924
X31.774 Y22.97
X31.856 Y23.013
X31.943 Y23.06
X32.033 Y23.109
X32.111 Y23.152
X32.194 Y23.199
X32.282 Y23.249
X32.36 Y23.295
X32.438 Y23.341
X32.52 Y23.391
X32.602 Y23.441
X32.675 Y23.487
X32.752 Y23.536
X32.835 Y23.589
X32.907 Y23.636
X32.979 Y23.684
X33.056 Y23.736
X33.133 Y23.789
X33.25 Y23.871
X33.381 Y23.928
X33.52 Y23.958
X33.663 Y23.96
X33.944 Y23.909
X33.96 Y23.9
X34.211 Y23.764
X34.434 Y23.586
X34.632 Y23.38
X34.804 Y23.152
X34.954 Y22.909
X35.084 Y22.655
X35.197 Y22.392
X35.294 Y22.124
X35.378 Y21.851
X35.45 Y21.575
X35.512 Y21.296
X35.538 Y21.011
X35.497 Y20.729
X35.395 Y20.462
X35.246 Y20.219
X35.061 Y20.001
X34.85 Y19.809
X34.619 Y19.641
X34.373 Y19.495
X34.117 Y19.369
X33.853 Y19.26
X33.583 Y19.167
X33.309 Y19.087
X33.032 Y19.019
X32.752 Y18.96
X32.471 Y18.911
X32.188 Y18.868
X31.905 Y18.832
X31.621 Y18.801
X31.337 Y18.775
X31.052 Y18.752
X30.767 Y18.733
X30.482 Y18.717
X30.197 Y18.704
X29.912 Y18.692
X29.626 Y18.682
X29.341 Y18.674
X29.055 Y18.666
X28.716 Y18.659
X28.431 Y18.654
X28.145 Y18.65
X27.859 Y18.646
X27.574 Y18.643
X27.288 Y18.641
X27.003 Y18.639
X26.717 Y18.637
X26.432 Y18.635
X26.146 Y18.634
X25.575 Y18.632
X25.004 Y18.63
X24.147 Y18.628
X23.005 Y18.627
X22.755
G3 X22.596 Y18.057 I0.01 J-0.31
G1 X22.654 Y18.02 Z-0.972
X22.709 Y17.984 Z-0.949
X22.759 Y17.952 Z-0.912
X22.8 Y17.925 Z-0.863
X22.831 Y17.905 Z-0.804
X22.85 Y17.893 Z-0.739
X22.856 Y17.889 Z-0.67
G0 Z3
X39.012 Y32.57
Z-0.36
G1 Z-0.67 F1000
X39.005 Y32.574 Z-0.739
X38.985 Y32.586 Z-0.804
X38.954 Y32.605 Z-0.863
X38.911 Y32.63 Z-0.912
X38.861 Y32.66 Z-0.949
X38.805 Y32.694 Z-0.972
X38.745 Y32.729 Z-0.98
G3 X37.992 Y32.95 I-0.809 J-1.36
G1 X37.3
X37.207 Y32.945
X37.137 Y32.936
X37.062 Y32.92
X36.98 Y32.896
X36.894 Y32.862
X36.766 Y32.8
X36.489 Y32.728
X36.204 Y32.735
X36.185 Y32.738
X36.024 Y32.748
X35.864 Y32.721
X35.715 Y32.66
G3 X35.926 Y32.088 I0.158 J-0.267
G1 X37.342 Y32.335
G3 X37.3 Y32.95 I-0.053 J0.305
G1 X36.278
X36.24 Y32.949
X36.203 Y32.944
X36.185 Y32.939
X36.139 Y32.923
X36.092 Y32.898
X36.028 Y32.851
X35.999 Y32.83
X35.906 Y32.772
X35.764 Y32.689
X35.721 Y32.663
X35.628 Y32.612
X35.545 Y32.572
X35.442 Y32.531
X35.349 Y32.498
X35.163 Y32.443
X34.792 Y32.336
X34.699 Y32.312
X34.606 Y32.29
X34.513 Y32.273
X34.42 Y32.262
X34.327 Y32.257
X34.234 Y32.256
X34.141
X33.77 Y32.261
X33.677 Y32.264
X33.643 Y32.257
X33.615 Y32.238
X33.597 Y32.209
X33.591 Y32.175
X33.619 Y31.528
X33.936 Y24.147
X33.948 Y23.854
X33.958 Y23.819
X33.98 Y23.791
X34.013 Y23.774
X34.049 Y23.773
X34.082 Y23.786
X34.107 Y23.812
X34.12 Y23.846
X34.117 Y23.882
X34.099 Y23.914
X34.071 Y23.935
X34.035 Y23.943
X34.034
X34.005 Y23.938
X33.979 Y23.923
X33.96 Y23.9
X33.868 Y23.727
X33.866 Y23.697
X33.864 Y23.667
X33.863 Y23.637
X33.862 Y23.607
Y23.577
Y23.547
Y23.517
X33.863 Y23.487
Y23.457
X33.864 Y23.427
X33.866 Y23.397
X33.867 Y23.367
X33.869 Y23.331
X33.871 Y23.294
X33.874 Y23.255
X33.877 Y23.216
X33.881 Y23.174
X33.886 Y23.121
X33.891 Y23.066
X33.897 Y23.01
X33.905 Y22.942
X33.915 Y22.86
X33.926 Y22.773
X33.965 Y22.49
X33.969 Y22.205
X33.902 Y21.927
X33.778 Y21.67
X33.611 Y21.438
X33.413 Y21.233
X33.19 Y21.053
X32.951 Y20.898
X32.699 Y20.763
X32.438 Y20.647
X32.171 Y20.547
X31.898 Y20.462
X31.622 Y20.39
X31.343 Y20.328
X31.062 Y20.275
X30.78 Y20.23
X30.497 Y20.192
X30.426 Y20.184
X30.356 Y20.176
G3 X30.091 Y19.837 I0.044 J-0.307
G1 X30.11 Y19.787 Z-0.975
X30.128 Y19.738 Z-0.961
X30.145 Y19.692 Z-0.938
X30.184 Y19.658 Z-0.899
X30.216 Y19.63 Z-0.851
X30.24 Y19.61 Z-0.795
X30.255 Y19.597 Z-0.734
X30.26 Y19.592 Z-0.67
G0 Z3
X33.545 Y38.704
Z-0.339
G1 Z-0.649 F1000
X33.551 Y38.7 Z-0.718
X33.571 Y38.688 Z-0.783
X33.603 Y38.669 Z-0.842
X33.645 Y38.643 Z-0.891
X33.695 Y38.613 Z-0.928
X33.751 Y38.579 Z-0.951
X33.81 Y38.543 Z-0.959
G3 X35.442 Y38.049 I1.78 J2.938
G1 X35.535 Y38.048
X35.906 Y38.045
X36.185 Y38.041
X36.278 Y38.039
X36.464 Y38.028
X36.742 Y38.012
X36.835 Y38.004
X37.114 Y37.98
X37.393 Y37.955
X37.485 Y37.942
X37.578 Y37.924
X38.043 Y37.817
X38.136 Y37.795
X38.22 Y37.775
X38.229 Y37.773
X38.322 Y37.745
X38.414 Y37.711
X38.482 Y37.682
X38.507 Y37.67
X38.6 Y37.619
X38.693 Y37.561
X38.786 Y37.496
X38.893 Y37.403
X38.972 Y37.328
X39.065 Y37.215
X39.138 Y37.125
X39.275 Y36.939
X39.329 Y36.846
X39.343 Y36.818
X39.376 Y36.753
X39.436 Y36.602
X39.448 Y36.567
X39.472 Y36.474
X39.495 Y36.381
X39.508 Y36.288
X39.517 Y36.195
X39.52 Y36.103
X39.522 Y36.01
Y34.616
X39.521 Y34.523
G3 X39.625 Y34.291 I0.31 J-0.001
G2 X39.635 Y33.839 I-0.207 J-0.231
G1 X39.623 Y33.827
X38.29 Y32.515
G2 X37.914 Y32.47 I-0.217 J0.221
G3 X36.278 Y32.95 I-1.756 J-2.953
G1 X35.906
X35.862 Y32.949
X35.818 Y32.944
X35.813 Y32.943
X35.767 Y32.928
X35.721 Y32.907
X35.635 Y32.851
X35.628 Y32.845
X35.535 Y32.785
X35.349 Y32.687
X35.294 Y32.665
X35.256 Y32.65
X35.163 Y32.619
X34.792 Y32.512
X34.699 Y32.488
X34.606 Y32.466
X34.513 Y32.45
X34.42 Y32.44
X34.327 Y32.435
X34.234 Y32.434
X34.141 Y32.435
X33.77 Y32.44
X33.677 Y32.443
X33.584 Y32.446
X33.491 Y32.455
X33.398 Y32.469
X33.356 Y32.479
X33.212 Y32.517
X33.12 Y32.546
X33.027 Y32.577
X32.934 Y32.608
X32.841 Y32.639
X32.77 Y32.665
X32.655 Y32.718
X32.576 Y32.758
X32.469 Y32.824
X32.428 Y32.851
X32.376 Y32.889
X32.33 Y32.916
X32.284 Y32.934
X32.246 Y32.944
X32.218 Y32.948
X32.191 Y32.95
X31.819
G3 X31.587 Y32.846 I0 J-0.31
G1 X31.537 Y32.8
X31.477 Y32.767
X31.121 Y32.615
X30.071 Y32.167
G2 X29.642 Y32.496 I-0.122 J0.285
G3 X29.342 Y33.222 I-0.76 J0.111
G1 X29.311 Y33.244
X29.218 Y33.317
X29.12 Y33.408
X29.032 Y33.502
X28.962 Y33.594
X28.939 Y33.625
X28.846 Y33.78
X28.804 Y33.873
X28.764 Y33.966
X28.754 Y33.996
X28.708 Y34.151
X28.692 Y34.244
X28.677 Y34.337
X28.672 Y34.43
X28.668 Y34.523
Y34.616
Y34.988
X28.67 Y36.01
X28.672 Y36.103
X28.675 Y36.195
X28.685 Y36.288
X28.698 Y36.381
X28.72 Y36.474
X28.744 Y36.567
X28.754 Y36.596
X28.816 Y36.753
X28.846 Y36.815
X28.917 Y36.939
X28.939 Y36.973
X28.98 Y37.032
X29.032 Y37.108
X29.046 Y37.125
X29.218 Y37.312
X29.323 Y37.403
X29.404 Y37.473
X29.437 Y37.496
X29.497 Y37.534
X29.59 Y37.589
X29.683 Y37.633
X29.775 Y37.676
X29.961 Y37.752
X30.029 Y37.775
X30.147 Y37.814
X30.24 Y37.843
X30.333 Y37.866
X30.34 Y37.868
X30.426 Y37.885
X30.704 Y37.934
X30.797 Y37.95
X30.983 Y37.981
X31.169 Y38.001
X31.262 Y38.011
X31.355 Y38.017
X31.633 Y38.029
X31.819 Y38.038
X32.005 Y38.043
X32.098 Y38.044
X32.469 Y38.048
G3 X32.765 Y38.36 I-0.014 J0.31
G1 X32.751 Y38.412 Z-0.954
X32.738 Y38.462 Z-0.939
X32.725 Y38.509 Z-0.916
X32.69 Y38.547 Z-0.878
X32.661 Y38.578 Z-0.83
X32.639 Y38.601 Z-0.774
X32.625 Y38.615 Z-0.713
X32.62 Y38.62 Z-0.649
G0 Z3
X33.36 Y38.708
Z-0.323
G1 Z-0.633 F1000
X33.367 Y38.704 Z-0.702
X33.386 Y38.692 Z-0.767
X33.418 Y38.673 Z-0.826
X33.46 Y38.647 Z-0.875
X33.51 Y38.616 Z-0.912
X33.566 Y38.582 Z-0.935
X33.625 Y38.547 Z-0.943
G3 X35.256 Y38.05 I1.785 J2.935
G1 X35.721 Y38.045
X35.906 Y38.043
X36.092 Y38.04
X36.185 Y38.036
X36.742 Y38.005
X36.835 Y37.997
X37.114 Y37.972
X37.243 Y37.961
X37.3 Y37.956
X37.393 Y37.943
X37.485 Y37.926
X37.578 Y37.905
X37.95 Y37.819
X38.043 Y37.797
X38.136 Y37.773
X38.229 Y37.746
X38.322 Y37.712
X38.396 Y37.682
X38.507 Y37.624
X38.571 Y37.589
X38.693 Y37.508
X38.71 Y37.496
X38.786 Y37.431
X38.879 Y37.347
X38.918 Y37.31
X39.065 Y37.133
X39.071 Y37.125
X39.141 Y37.032
X39.158 Y37.009
X39.207 Y36.939
X39.259 Y36.846
X39.309 Y36.753
X39.346 Y36.66
X39.381 Y36.567
X39.405 Y36.474
X39.427 Y36.381
X39.44 Y36.288
X39.45 Y36.195
X39.452 Y36.103
X39.454 Y36.01
Y34.616
Y34.523
G3 X39.557 Y34.291 I0.31 J-0.001
G2 X39.544 Y33.818 I-0.207 J-0.231
G1 X37.886 Y32.494
G2 X37.534 Y32.47 I-0.193 J0.242
G3 X35.898 Y32.95 I-1.756 J-2.953
G1 X35.442
X35.401 Y32.949
X35.359 Y32.944
X35.349 Y32.941
X35.303 Y32.926
X35.256 Y32.902
X35.174 Y32.851
X35.163 Y32.844
X35.07 Y32.797
X34.977 Y32.755
X34.884 Y32.718
X34.792 Y32.688
X34.719 Y32.665
X34.606 Y32.635
X34.513 Y32.616
X34.42 Y32.602
X34.327 Y32.594
X34.234 Y32.591
X34.141 Y32.592
X33.863 Y32.606
X33.77 Y32.61
X33.584 Y32.62
X33.491 Y32.631
X33.398 Y32.643
X33.305 Y32.662
X33.291 Y32.665
X33.212 Y32.687
X33.12 Y32.722
X33.027 Y32.759
X32.934 Y32.807
X32.853 Y32.851
X32.748 Y32.916
X32.706 Y32.932
X32.665 Y32.944
X32.655 Y32.945
X32.562 Y32.95
X32.284
G3 X32.052 Y32.846 I0 J-0.31
G1 X32.01 Y32.806
X31.961 Y32.776
X31.597 Y32.59
X30.151 Y31.853
G2 X29.715 Y32.037 I-0.141 J0.276
G3 X29.032 Y33.599 I-7.552 J-2.368
G1 X28.978 Y33.687
X28.923 Y33.78
X28.878 Y33.873
X28.846 Y33.944
X28.838 Y33.966
X28.811 Y34.059
X28.784 Y34.151
X28.767 Y34.244
X28.752 Y34.337
X28.748 Y34.43
X28.743 Y34.523
Y34.616
Y34.802
X28.746 Y36.01
X28.748 Y36.103
X28.751 Y36.195
X28.754 Y36.239
X28.773 Y36.381
X28.795 Y36.474
X28.82 Y36.567
X28.846 Y36.647
X28.851 Y36.66
X28.891 Y36.753
X28.941 Y36.846
X28.993 Y36.939
X29.032 Y37.003
X29.053 Y37.032
X29.125 Y37.13
X29.218 Y37.234
X29.291 Y37.31
X29.311 Y37.33
X29.404 Y37.414
X29.497 Y37.485
X29.512 Y37.496
X29.59 Y37.547
X29.775 Y37.644
X29.868 Y37.683
X29.961 Y37.721
X30.054 Y37.756
X30.147 Y37.79
X30.24 Y37.819
X30.333 Y37.847
X30.42 Y37.868
X30.519 Y37.888
X30.983 Y37.969
X31.076 Y37.983
X31.169 Y37.994
X31.355 Y38.012
X31.447 Y38.018
X31.633 Y38.026
X31.819 Y38.035
X32.005 Y38.041
X32.098 Y38.042
X32.655 Y38.048
G3 X32.951 Y38.36 I-0.014 J0.31
G1 X32.937 Y38.412 Z-0.938
X32.924 Y38.463 Z-0.924
X32.911 Y38.51 Z-0.901
X32.876 Y38.547 Z-0.862
X32.846 Y38.578 Z-0.814
X32.824 Y38.601 Z-0.758
X32.811 Y38.615 Z-0.697
X32.806 Y38.62 Z-0.633
G0 Z3
X35.537 Y38.907
Z-0.311
G1 Z-0.621 F1000
X35.543 Y38.902 Z-0.69
X35.56 Y38.887 Z-0.756
X35.588 Y38.863 Z-0.815
X35.625 Y38.831 Z-0.864
X35.67 Y38.793 Z-0.901
X35.719 Y38.75 Z-0.924
X35.772 Y38.705 Z-0.931
G3 X37.3 Y37.948 I2.241 J2.604
G1 X37.393 Y37.932
X37.578 Y37.891
X37.95 Y37.805
X38.043 Y37.781
X38.136 Y37.756
X38.229 Y37.726
X38.322 Y37.689
X38.338 Y37.682
X38.414 Y37.641
X38.507 Y37.588
X38.6 Y37.531
X38.65 Y37.496
X38.693 Y37.463
X38.766 Y37.403
X38.786 Y37.385
X38.865 Y37.31
X38.879 Y37.296
X38.947 Y37.218
X38.972 Y37.187
X39.022 Y37.125
X39.093 Y37.032
X39.158 Y36.938
X39.25 Y36.771
X39.26 Y36.753
X39.3 Y36.66
X39.331 Y36.567
X39.356 Y36.474
X39.378 Y36.381
X39.39 Y36.288
X39.4 Y36.195
X39.403 Y36.103
X39.405 Y36.01
Y34.616
Y34.523
G3 X39.974 Y34.364 I0.31 J0.01
G1 X40.012 Y34.422 Z-0.924
X40.048 Y34.477 Z-0.901
X40.08 Y34.526 Z-0.864
X40.106 Y34.567 Z-0.815
X40.127 Y34.598 Z-0.756
X40.139 Y34.617 Z-0.69
X40.143 Y34.624 Z-0.621
G0 Z3
X37.336 Y32.311
Z-0.311
G1 Z-0.621 F1000
X37.329 Y32.315 Z-0.69
X37.309 Y32.327 Z-0.756
X37.278 Y32.346 Z-0.815
X37.235 Y32.371 Z-0.864
X37.185 Y32.401 Z-0.901
X37.129 Y32.434 Z-0.924
X37.069 Y32.47 Z-0.931
G3 X35.433 Y32.95 I-1.756 J-2.953
G1 X32.655
G3 X32.423 Y32.846 I0 J-0.31
G1 X32.38 Y32.805
X32.329 Y32.774
X32.274 Y32.753
X31.941 Y32.661
X29.609 Y32.018
G2 X29.218 Y32.292 I-0.082 J0.299
G3 X28.895 Y33.966 I-7.887 J-0.656
G1 X28.862 Y34.059
X28.838 Y34.151
X28.823 Y34.244
X28.807 Y34.337
X28.803 Y34.43
X28.798 Y34.523
Y34.616
X28.799 Y34.988
X28.801 Y36.01
X28.803 Y36.103
X28.806 Y36.195
G3 X28.708 Y36.43 I-0.31 J0.009
G1 X28.671 Y36.472
X28.642 Y36.52
X28.622 Y36.573
X28.527 Y36.914
X28.519 Y36.941
G2 X28.825 Y37.334 I0.299 J0.083
G3 X29.59 Y37.512 I0.035 J1.582
G1 X29.775 Y37.617
X29.868 Y37.658
X29.924 Y37.682
X29.961 Y37.698
X30.054 Y37.735
X30.156 Y37.775
X30.24 Y37.803
X30.333 Y37.832
X30.426 Y37.857
X30.47 Y37.868
X30.519 Y37.877
X30.611 Y37.894
X30.797 Y37.927
X30.99 Y37.961
X31.169 Y37.986
X31.262 Y37.997
X31.355 Y38.007
X31.447 Y38.015
X31.54 Y38.02
X31.633 Y38.024
X31.819 Y38.033
X31.912 Y38.036
G3 X32.2 Y38.356 I-0.022 J0.309
G1 X32.185 Y38.407 Z-0.926
X32.17 Y38.457 Z-0.912
X32.156 Y38.504 Z-0.889
X32.12 Y38.541 Z-0.851
X32.09 Y38.571 Z-0.803
X32.067 Y38.593 Z-0.747
X32.053 Y38.607 Z-0.686
X32.049 Y38.612 Z-0.622
G0 Z3
X29.186 Y31.983
Z-0.301
G1 Z-0.611 F1000
X29.185 Y31.991 Z-0.68
Y32.014 Z-0.745
X29.184 Y32.051 Z-0.804
X29.182 Y32.1 Z-0.853
X29.18 Y32.158 Z-0.89
X29.178 Y32.224 Z-0.913
X29.176 Y32.293 Z-0.921
G3 X28.939 Y33.981 I-7.91 J-0.247
G1 X28.89 Y34.151
X28.871 Y34.244
X28.858 Y34.337
X28.85 Y34.523
X28.849 Y34.616
X28.853 Y36.01
X28.855 Y36.103
X28.857 Y36.195
X28.865 Y36.288
X28.879 Y36.381
X28.902 Y36.474
X28.926 Y36.567
X28.939 Y36.605
X28.998 Y36.753
X29.032 Y36.822
X29.045 Y36.846
X29.099 Y36.939
X29.125 Y36.977
X29.218 Y37.111
G3 X28.709 Y37.465 I-0.254 J0.177
X29.218 Y37.111 I0.254 J-0.177
X29.271 Y37.247 I-0.254 J0.177
G1 X29.337 Y37.74
G3 X28.723 Y37.823 I-0.307 J0.041
X28.999 Y37.473 I0.307 J-0.041
X29.775 Y37.59 I0.159 J1.575
G1 X29.868 Y37.634
X29.977 Y37.682
X30.054 Y37.714
X30.147 Y37.752
X30.208 Y37.775
X30.333 Y37.816
X30.426 Y37.844
X30.519 Y37.867
X30.611 Y37.885
X30.797 Y37.917
X30.983 Y37.951
X31.076 Y37.965
X31.169 Y37.979
X31.262 Y37.99
X31.355 Y38.001
X31.447 Y38.011
X31.54 Y38.017
X31.726 Y38.026
X31.819 Y38.03
X32.098 Y38.04
X32.469 Y38.044
X32.841 Y38.047
X32.934 Y38.048
X33.027 Y38.049
G3 X33.024 Y38.668 I-0.001 J0.31
X33.027 Y38.049 I0.001 J-0.31
X33.236 Y38.131 I-0.001 J0.31
G1 X33.714 Y38.575
G3 X33.292 Y39.029 I-0.211 J0.227
X33.343 Y38.536 I0.211 J-0.227
X34.977 Y38.049 I1.768 J2.946
G1 X35.163 Y38.048
X35.256 Y38.047
X35.721 Y38.042
X35.906 Y38.04
X35.999 Y38.036
X36.742 Y37.994
X36.835 Y37.986
X37.021 Y37.97
X37.124 Y37.961
X37.207 Y37.953
X37.3 Y37.939
X37.393 Y37.92
X37.671 Y37.856
X37.95 Y37.791
X38.017 Y37.775
X38.043 Y37.768
X38.136 Y37.739
X38.229 Y37.704
X38.28 Y37.682
X38.322 Y37.662
X38.414 Y37.609
X38.507 Y37.552
X38.594 Y37.496
X38.714 Y37.403
X38.786 Y37.34
X38.816 Y37.31
X38.901 Y37.218
X38.972 Y37.129
X39.065 Y37.004
X39.111 Y36.939
X39.163 Y36.846
X39.213 Y36.753
X39.25 Y36.66
X39.287 Y36.567
X39.31 Y36.474
X39.332 Y36.381
X39.345 Y36.288
X39.354 Y36.195
X39.357 Y36.103
X39.359 Y36.01
Y34.616
Y34.523
G3 X39.667 Y34.223 I0.31 J0.01
G1 X39.669
X39.721 Y34.236 Z-0.915
X39.771 Y34.249 Z-0.901
X39.818 Y34.261 Z-0.877
X39.856 Y34.296 Z-0.839
X39.886 Y34.325 Z-0.791
X39.909 Y34.346 Z-0.735
X39.924 Y34.359 Z-0.675
X39.928 Y34.364 Z-0.611
G0 Z3
X32.39 Y32.226
Z-0.271
G1 Z-0.581 F1000
X32.384 Y32.23 Z-0.65
X32.364 Y32.243 Z-0.715
X32.334 Y32.263 Z-0.774
X32.293 Y32.29 Z-0.823
X32.243 Y32.323 Z-0.86
X32.189 Y32.359 Z-0.883
X32.131 Y32.396 Z-0.891
G3 X30.519 Y32.95 I-1.887 J-2.871
G1 X30.426 Y32.955
X30.333 Y32.964
X30.24 Y32.98
X30.147 Y33.002
X30.054 Y33.03
X30.035 Y33.036
X29.961 Y33.064
X29.868 Y33.107
X29.822 Y33.129
X29.775 Y33.156
X29.673 Y33.222
X29.59 Y33.279
X29.545 Y33.315
X29.497 Y33.358
X29.444 Y33.408
X29.404 Y33.452
X29.289 Y33.594
X29.227 Y33.687
X29.173 Y33.78
X29.13 Y33.873
X29.09 Y33.966
X29.06 Y34.059
X29.032 Y34.156
X29.018 Y34.244
X29.002 Y34.337
X28.998 Y34.43
X28.993 Y34.523
Y34.616
X28.995 Y35.452
X28.996 Y36.01
X28.998 Y36.103
X29.001 Y36.195
X29.011 Y36.288
X29.024 Y36.381
X29.032 Y36.424
X29.07 Y36.567
X29.105 Y36.66
X29.142 Y36.753
X29.192 Y36.846
X29.243 Y36.939
X29.305 Y37.032
X29.37 Y37.125
X29.404 Y37.167
X29.448 Y37.218
X29.537 Y37.31
X29.59 Y37.36
X29.639 Y37.403
X29.762 Y37.496
X29.775 Y37.506
X29.868 Y37.56
X29.961 Y37.61
X30.054 Y37.653
X30.147 Y37.692
X30.24 Y37.73
X30.353 Y37.775
X30.426 Y37.801
X30.519 Y37.829
X30.611 Y37.855
X30.704 Y37.874
X30.797 Y37.891
X30.983 Y37.925
X31.186 Y37.961
X31.262 Y37.971
X31.355 Y37.982
X31.447 Y37.992
X31.54 Y38.001
X31.633 Y38.009
X32.005 Y38.022
X32.284 Y38.033
X32.376 Y38.037
X32.469 Y38.04
X32.841 Y38.044
X33.027 Y38.045
X33.12 Y38.046
X33.956 Y38.049
X34.234 Y38.048
X34.792 Y38.046
X35.256 Y38.044
X35.442 Y38.042
X35.628 Y38.04
X35.721 Y38.038
X36.742 Y37.98
X36.835 Y37.972
X36.964 Y37.961
X37.021 Y37.955
X37.114 Y37.944
X37.207 Y37.925
X37.3 Y37.905
X37.393 Y37.884
X37.764 Y37.798
X37.857 Y37.773
X37.95 Y37.747
X38.043 Y37.714
X38.121 Y37.682
X38.136 Y37.675
X38.229 Y37.623
X38.322 Y37.57
X38.414 Y37.511
X38.436 Y37.496
X38.507 Y37.448
X38.566 Y37.403
X38.678 Y37.31
X38.693 Y37.296
X38.766 Y37.218
X38.848 Y37.125
X38.879 Y37.084
X38.918 Y37.032
X38.972 Y36.956
X38.983 Y36.939
X39.065 Y36.792
X39.086 Y36.753
X39.123 Y36.66
X39.158 Y36.566
X39.182 Y36.474
X39.203 Y36.381
X39.216 Y36.288
X39.226 Y36.195
X39.229 Y36.103
X39.231 Y36.01
Y34.616
Y34.523
G3 X39.539 Y34.223 I0.31 J0.01
G1 X39.54
X39.592 Y34.236 Z-0.885
X39.643 Y34.249 Z-0.871
X39.69 Y34.261 Z-0.847
X39.727 Y34.296 Z-0.809
X39.758 Y34.325 Z-0.761
X39.781 Y34.346 Z-0.705
X39.795 Y34.359 Z-0.645
X39.8 Y34.364 Z-0.581
G0 Z3
X32.592 Y32.27
Z-0.241
G1 Z-0.551 F1000
X32.586 Y32.274 Z-0.62
X32.566 Y32.286 Z-0.685
X32.535 Y32.305 Z-0.744
X32.493 Y32.331 Z-0.793
X32.443 Y32.363 Z-0.83
X32.388 Y32.397 Z-0.853
X32.329 Y32.434 Z-0.861
G3 X30.704 Y32.95 I-1.82 J-2.914
G1 X30.611 Y32.952
X30.519 Y32.959
X30.426 Y32.973
X30.333 Y32.992
X30.24 Y33.017
X30.178 Y33.036
X30.147 Y33.049
X30.054 Y33.086
X29.969 Y33.129
X29.868 Y33.188
X29.811 Y33.222
X29.775 Y33.248
X29.692 Y33.315
X29.683 Y33.323
X29.589 Y33.408
X29.506 Y33.501
X29.497 Y33.511
X29.431 Y33.594
X29.404 Y33.635
X29.311 Y33.791
X29.271 Y33.873
X29.234 Y33.966
X29.218 Y34.015
X29.179 Y34.151
X29.162 Y34.244
X29.147 Y34.337
X29.142 Y34.43
X29.138 Y34.523
Y34.616
Y34.988
X29.14 Y36.01
X29.143 Y36.103
X29.145 Y36.195
X29.155 Y36.288
X29.168 Y36.381
X29.19 Y36.474
X29.218 Y36.582
X29.248 Y36.66
X29.285 Y36.753
X29.387 Y36.939
X29.404 Y36.966
X29.446 Y37.032
X29.497 Y37.105
X29.512 Y37.125
X29.593 Y37.218
X29.678 Y37.31
X29.683 Y37.315
X29.785 Y37.403
X29.868 Y37.471
X29.904 Y37.496
X29.961 Y37.532
X30.054 Y37.583
X30.147 Y37.627
X30.24 Y37.67
X30.333 Y37.708
X30.426 Y37.746
X30.519 Y37.781
X30.611 Y37.816
X30.704 Y37.843
X30.797 Y37.865
X30.89 Y37.882
X30.983 Y37.899
X31.169 Y37.935
X31.262 Y37.949
X31.355 Y37.961
X31.447 Y37.972
X31.54 Y37.982
X31.633 Y37.991
X31.819 Y38.001
X32.005 Y38.007
X32.284 Y38.019
X32.748 Y38.038
X32.841 Y38.04
X33.12 Y38.043
X33.584 Y38.044
X34.141 Y38.045
X34.327
X34.606 Y38.044
X35.256 Y38.04
X35.349 Y38.038
X35.442 Y38.036
X35.535 Y38.032
X35.628 Y38.028
X35.721 Y38.023
X36.742 Y37.965
X36.801 Y37.961
X36.835 Y37.958
X36.928 Y37.948
X37.021 Y37.932
X37.114 Y37.911
X37.485 Y37.825
X37.578 Y37.803
X37.764 Y37.756
X37.857 Y37.722
X37.95 Y37.686
X38.043 Y37.638
X38.134 Y37.589
X38.276 Y37.496
X38.322 Y37.467
X38.414 Y37.399
X38.507 Y37.332
X38.535 Y37.31
X38.693 Y37.152
X38.717 Y37.125
X38.855 Y36.939
X38.879 Y36.901
X38.909 Y36.846
X38.957 Y36.753
X38.994 Y36.66
X39.029 Y36.567
X39.065 Y36.437
X39.075 Y36.381
X39.088 Y36.288
X39.098 Y36.195
X39.1 Y36.103
X39.102 Y36.01
Y34.616
Y34.523
G3 X39.41 Y34.223 I0.31 J0.01
G1 X39.412
X39.464 Y34.236 Z-0.855
X39.514 Y34.249 Z-0.841
X39.561 Y34.261 Z-0.817
X39.599 Y34.296 Z-0.779
X39.63 Y34.325 Z-0.731
X39.653 Y34.346 Z-0.675
X39.667 Y34.359 Z-0.615
X39.672 Y34.364 Z-0.551
G0 Z3
X32.663 Y32.212
Z-0.21
G1 Z-0.52 F1000
X32.657 Y32.216 Z-0.589
X32.638 Y32.229 Z-0.655
X32.607 Y32.25 Z-0.714
X32.566 Y32.277 Z-0.763
X32.517 Y32.31 Z-0.8
X32.463 Y32.346 Z-0.823
X32.405 Y32.384 Z-0.83
G3 X30.797 Y32.951 I-1.909 J-2.856
G1 X30.704 Y32.955
X30.611 Y32.966
X30.519 Y32.983
X30.426 Y33.005
X30.331 Y33.036
X30.24 Y33.07
X30.147 Y33.114
X30.054 Y33.163
X29.959 Y33.222
X29.868 Y33.288
X29.836 Y33.315
X29.737 Y33.408
X29.683 Y33.462
X29.65 Y33.501
X29.578 Y33.594
X29.516 Y33.687
X29.497 Y33.717
X29.461 Y33.78
X29.42 Y33.873
X29.38 Y33.966
X29.351 Y34.059
X29.324 Y34.151
X29.311 Y34.213
X29.305 Y34.244
X29.292 Y34.337
X29.283 Y34.523
Y34.616
Y34.988
X29.284 Y35.638
X29.285 Y36.01
X29.287 Y36.103
X29.29 Y36.195
X29.298 Y36.288
X29.311 Y36.377
X29.312 Y36.381
X29.335 Y36.474
X29.359 Y36.567
X29.394 Y36.66
X29.431 Y36.753
X29.477 Y36.846
X29.497 Y36.88
X29.531 Y36.939
X29.594 Y37.032
X29.657 Y37.125
X29.683 Y37.157
X29.822 Y37.31
X29.868 Y37.353
X29.961 Y37.427
X30.048 Y37.496
X30.208 Y37.589
X30.24 Y37.604
X30.418 Y37.682
X30.611 Y37.762
X30.643 Y37.775
X30.704 Y37.799
X30.797 Y37.829
X30.89 Y37.853
X30.96 Y37.868
X31.169 Y37.91
X31.262 Y37.926
X31.355 Y37.94
X31.447 Y37.952
X31.54 Y37.962
X31.633 Y37.972
X31.819 Y37.986
X32.005 Y37.993
X32.284 Y38.004
X33.027 Y38.034
X33.12 Y38.038
X33.212 Y38.039
X33.305 Y38.04
X34.141 Y38.042
X34.327
X34.42 Y38.041
X34.606 Y38.04
X34.699 Y38.039
X35.442 Y38.021
X35.535 Y38.018
X35.628 Y38.014
X35.721 Y38.009
X36.567 Y37.961
X36.649 Y37.954
X36.742 Y37.942
X36.928 Y37.914
X37.021 Y37.895
X37.114 Y37.874
X37.3 Y37.831
X37.393 Y37.809
X37.536 Y37.775
X37.578 Y37.763
X37.671 Y37.731
X37.764 Y37.698
X37.798 Y37.682
X37.857 Y37.653
X37.95 Y37.602
X38.116 Y37.496
X38.322 Y37.358
X38.382 Y37.31
X38.414 Y37.282
X38.486 Y37.218
X38.507 Y37.197
X38.576 Y37.125
X38.649 Y37.032
X38.693 Y36.974
X38.716 Y36.939
X38.786 Y36.813
X38.818 Y36.753
X38.858 Y36.66
X38.879 Y36.603
X38.89 Y36.567
X38.914 Y36.474
X38.936 Y36.381
X38.949 Y36.288
X38.959 Y36.195
X38.961 Y36.103
X38.963 Y36.01
Y34.616
Y34.523
G3 X39.271 Y34.223 I0.31 J0.01
G1 X39.273
X39.325 Y34.236 Z-0.825
X39.375 Y34.249 Z-0.81
X39.423 Y34.261 Z-0.787
X39.46 Y34.296 Z-0.749
X39.491 Y34.325 Z-0.701
X39.514 Y34.346 Z-0.645
X39.528 Y34.359 Z-0.584
X39.533 Y34.364 Z-0.521
G0 Z3
X31.392 Y31.738
Z-0.184
G1 Z-0.494 F1000
X31.388 Y31.744 Z-0.563
X31.374 Y31.763 Z-0.629
X31.352 Y31.792 Z-0.688
X31.323 Y31.832 Z-0.737
X31.288 Y31.879 Z-0.774
X31.249 Y31.932 Z-0.797
X31.208 Y31.987 Z-0.804
G3 X30.054 Y33.243 I-6.369 J-4.698
G1 X29.965 Y33.315
X29.858 Y33.408
X29.835 Y33.431
X29.816 Y33.455
X29.683 Y33.62
X29.588 Y33.78
X29.544 Y33.873
X29.503 Y33.966
X29.497 Y33.985
X29.448 Y34.151
X29.432 Y34.244
X29.417 Y34.337
X29.412 Y34.43
X29.408 Y34.523
Y34.616
Y35.173
X29.41 Y36.01
X29.412 Y36.103
X29.414 Y36.195
X29.424 Y36.288
X29.437 Y36.381
X29.459 Y36.474
X29.483 Y36.567
X29.497 Y36.611
X29.516 Y36.66
X29.555 Y36.753
X29.59 Y36.818
X29.656 Y36.939
X29.683 Y36.983
X29.715 Y37.032
X29.779 Y37.125
X29.856 Y37.218
X29.868 Y37.233
X29.943 Y37.31
X29.961 Y37.327
X30.054 Y37.41
X30.172 Y37.496
X30.24 Y37.538
X30.34 Y37.589
X30.426 Y37.633
X30.544 Y37.682
X30.611 Y37.711
X30.704 Y37.748
X30.797 Y37.786
X30.89 Y37.816
X30.983 Y37.842
X31.077 Y37.868
X31.169 Y37.888
X31.262 Y37.905
X31.355 Y37.921
X31.447 Y37.935
X31.633 Y37.955
X31.819 Y37.973
X31.912 Y37.977
X32.098 Y37.984
X33.027 Y38.022
X33.12 Y38.025
X33.305 Y38.027
X34.141 Y38.034
X34.234
X34.327
X34.42
X35.442 Y38.009
X35.535 Y38.005
X35.628 Y38.001
X35.721 Y37.997
X36.371 Y37.96
X36.464 Y37.951
X36.557 Y37.938
X36.835 Y37.896
X36.928 Y37.882
X37.114 Y37.842
X37.207 Y37.82
X37.3 Y37.799
X37.398 Y37.775
X37.485 Y37.75
X37.578 Y37.717
X37.662 Y37.682
X37.671 Y37.678
X37.764 Y37.627
X37.857 Y37.572
X37.95 Y37.515
X37.978 Y37.496
X38.043 Y37.452
X38.113 Y37.403
X38.229 Y37.31
X38.322 Y37.222
X38.417 Y37.125
X38.492 Y37.032
X38.507 Y37.011
X38.558 Y36.939
X38.61 Y36.846
X38.66 Y36.753
X38.697 Y36.66
X38.732 Y36.567
X38.756 Y36.474
X38.778 Y36.381
X38.791 Y36.288
X38.801 Y36.195
X38.803 Y36.103
X38.805 Y36.01
Y34.616
Y34.523
G3 X39.113 Y34.223 I0.31 J0.01
G1 X39.115
X39.167 Y34.236 Z-0.799
X39.218 Y34.249 Z-0.785
X39.265 Y34.261 Z-0.761
X39.302 Y34.296 Z-0.723
X39.333 Y34.325 Z-0.675
X39.356 Y34.346 Z-0.619
X39.37 Y34.359 Z-0.558
X39.375 Y34.364 Z-0.495
G0 Z3
X32.956 Y32.247
Z-0.159
G1 Z-0.469 F1000
X32.949 Y32.252 Z-0.538
X32.93 Y32.264 Z-0.603
X32.899 Y32.284 Z-0.662
X32.857 Y32.31 Z-0.711
X32.808 Y32.342 Z-0.748
X32.753 Y32.377 Z-0.771
X32.695 Y32.415 Z-0.779
G3 X31.076 Y32.95 I-1.855 J-2.892
G1 X30.983 Y32.953
X30.89 Y32.962
X30.797 Y32.977
X30.704 Y32.997
X30.611 Y33.024
X30.577 Y33.036
X30.519 Y33.059
X30.426 Y33.097
X30.24 Y33.199
X30.207 Y33.222
X30.147 Y33.264
X30.084 Y33.315
X30.054 Y33.341
X29.961 Y33.431
X29.898 Y33.501
X29.868 Y33.538
X29.826 Y33.594
X29.775 Y33.673
X29.711 Y33.78
X29.683 Y33.841
X29.629 Y33.966
X29.6 Y34.059
X29.573 Y34.151
X29.557 Y34.244
X29.541 Y34.337
X29.537 Y34.43
X29.533 Y34.523
X29.532 Y34.616
Y35.359
X29.534 Y36.01
X29.536 Y36.103
X29.538 Y36.195
X29.548 Y36.288
X29.561 Y36.381
X29.583 Y36.474
X29.607 Y36.567
X29.642 Y36.66
X29.683 Y36.761
X29.727 Y36.846
X29.78 Y36.939
X29.84 Y37.032
X29.868 Y37.075
X29.901 Y37.125
X29.961 Y37.198
X29.977 Y37.218
X30.054 Y37.299
X30.065 Y37.31
X30.147 Y37.379
X30.24 Y37.455
X30.296 Y37.496
X30.426 Y37.572
X30.46 Y37.589
X30.611 Y37.658
X30.665 Y37.682
X30.704 Y37.7
X30.797 Y37.74
X30.89 Y37.773
X30.983 Y37.803
X31.076 Y37.83
X31.214 Y37.868
X31.262 Y37.88
X31.355 Y37.899
X31.447 Y37.915
X31.54 Y37.927
X31.633 Y37.938
X31.819 Y37.958
X31.869 Y37.961
X32.005 Y37.968
X32.098 Y37.972
X33.027 Y38.009
X33.12 Y38.013
X33.305 Y38.015
X34.141 Y38.022
X34.234
X34.327
X34.42 Y38.021
X35.442 Y37.996
X35.535 Y37.993
X35.628 Y37.989
X35.721 Y37.984
X36.131 Y37.961
X36.185 Y37.957
X36.278 Y37.946
X36.464 Y37.919
X36.742 Y37.878
X36.928 Y37.85
X37.021 Y37.83
X37.114 Y37.81
X37.207 Y37.787
X37.3 Y37.763
X37.393 Y37.732
X37.485 Y37.698
X37.522 Y37.682
X37.698 Y37.589
X37.84 Y37.496
X37.857 Y37.484
X37.95 Y37.411
X38.07 Y37.31
X38.171 Y37.218
X38.26 Y37.125
X38.331 Y37.032
X38.4 Y36.939
X38.414 Y36.916
X38.456 Y36.846
X38.502 Y36.753
X38.539 Y36.66
X38.574 Y36.567
X38.6 Y36.467
X38.621 Y36.381
X38.635 Y36.288
X38.643 Y36.195
X38.646 Y36.103
X38.648 Y36.01
Y34.616
X38.647 Y34.523
G3 X38.955 Y34.223 I0.31 J0.01
G1 X38.957
X39.009 Y34.236 Z-0.773
X39.06 Y34.249 Z-0.759
X39.107 Y34.261 Z-0.735
X39.144 Y34.296 Z-0.697
X39.175 Y34.325 Z-0.649
X39.198 Y34.346 Z-0.593
X39.212 Y34.359 Z-0.532
X39.217 Y34.364 Z-0.469
G0 Z3
X31.57 Y31.777
Z-0.133
G1 Z-0.443 F1000
X31.566 Y31.783 Z-0.512
X31.552 Y31.802 Z-0.578
X31.53 Y31.832 Z-0.636
X31.501 Y31.871 Z-0.685
X31.467 Y31.919 Z-0.722
X31.428 Y31.972 Z-0.745
X31.387 Y32.027 Z-0.753
G3 X30.24 Y33.288 I-6.393 J-4.665
G1 X30.207 Y33.315
X30.147 Y33.369
X30.106 Y33.408
X30.054 Y33.466
X29.951 Y33.594
X29.888 Y33.687
X29.834 Y33.78
X29.791 Y33.873
X29.752 Y33.966
X29.72 Y34.059
X29.695 Y34.151
X29.683 Y34.226
X29.664 Y34.337
X29.66 Y34.43
X29.655 Y34.523
Y34.616
Y35.545
X29.656 Y36.01
X29.658 Y36.103
X29.661 Y36.195
X29.671 Y36.288
X29.684 Y36.381
X29.705 Y36.474
X29.728 Y36.567
X29.765 Y36.66
X29.802 Y36.753
X29.852 Y36.846
X29.903 Y36.939
X29.964 Y37.032
X30.026 Y37.125
X30.054 Y37.162
X30.101 Y37.218
X30.19 Y37.31
X30.24 Y37.356
X30.296 Y37.403
X30.426 Y37.501
X30.519 Y37.554
X30.611 Y37.603
X30.704 Y37.649
X30.797 Y37.692
X30.89 Y37.729
X31.019 Y37.775
X31.076 Y37.792
X31.169 Y37.818
X31.262 Y37.841
X31.383 Y37.868
X31.447 Y37.881
X31.54 Y37.894
X31.633 Y37.907
X31.819 Y37.93
X31.912 Y37.94
X32.005 Y37.95
X32.098 Y37.959
X32.134 Y37.961
X33.027 Y37.997
X33.12 Y38.001
X33.305 Y38.003
X34.141 Y38.009
X34.234 Y38.01
X34.327
X34.42 Y38.009
X35.442 Y37.984
X35.535 Y37.981
X35.628 Y37.977
X35.721 Y37.972
X35.916 Y37.961
X35.999 Y37.954
X36.092 Y37.942
X36.742 Y37.846
X36.928 Y37.818
X37.021 Y37.798
X37.126 Y37.775
X37.207 Y37.752
X37.3 Y37.72
X37.388 Y37.682
X37.485 Y37.633
X37.671 Y37.516
X37.697 Y37.496
X37.857 Y37.363
X37.915 Y37.31
X38.043 Y37.189
X38.104 Y37.125
X38.229 Y36.96
X38.244 Y36.939
X38.322 Y36.8
X38.347 Y36.753
X38.414 Y36.583
X38.42 Y36.567
X38.444 Y36.474
X38.465 Y36.381
X38.478 Y36.288
X38.488 Y36.195
X38.49 Y36.103
X38.492 Y36.01
Y34.616
Y34.523
G3 X38.8 Y34.223 I0.31 J0.01
G1 X38.802
X38.854 Y34.236 Z-0.748
X38.904 Y34.249 Z-0.733
X38.951 Y34.261 Z-0.71
X38.989 Y34.296 Z-0.671
X39.02 Y34.325 Z-0.623
X39.043 Y34.346 Z-0.568
X39.057 Y34.359 Z-0.507
X39.062 Y34.364 Z-0.443
G0 Z3
X33.247 Y32.282
Z-0.107
G1 Z-0.417 F1000
X33.24 Y32.286 Z-0.486
X33.221 Y32.298 Z-0.552
X33.189 Y32.317 Z-0.61
X33.147 Y32.343 Z-0.659
X33.097 Y32.374 Z-0.696
X33.042 Y32.408 Z-0.719
X32.983 Y32.444 Z-0.727
G3 X31.355 Y32.95 I-1.802 J-2.925
G1 X31.262 Y32.952
X31.169 Y32.959
X31.076 Y32.971
X30.983 Y32.99
X30.89 Y33.014
X30.82 Y33.036
X30.704 Y33.082
X30.611 Y33.13
X30.519 Y33.183
X30.453 Y33.222
X30.426 Y33.242
X30.333 Y33.316
X30.24 Y33.4
X30.231 Y33.408
X30.147 Y33.501
X30.073 Y33.594
X30.054 Y33.62
X29.959 Y33.78
X29.914 Y33.873
X29.876 Y33.966
X29.868 Y33.986
X29.82 Y34.151
X29.804 Y34.244
X29.789 Y34.337
X29.784 Y34.43
X29.78 Y34.523
Y34.616
Y35.638
Y35.917
Y36.01
X29.782 Y36.103
X29.785 Y36.195
X29.795 Y36.288
X29.808 Y36.381
X29.83 Y36.474
X29.854 Y36.567
X29.868 Y36.609
X29.925 Y36.753
X29.961 Y36.819
X30.027 Y36.939
X30.054 Y36.982
X30.087 Y37.032
X30.147 Y37.117
X30.153 Y37.125
X30.24 Y37.22
X30.326 Y37.31
X30.432 Y37.403
X30.519 Y37.475
X30.547 Y37.496
X30.611 Y37.538
X30.701 Y37.589
X30.797 Y37.637
X30.89 Y37.682
X30.983 Y37.719
X31.076 Y37.752
X31.169 Y37.778
X31.262 Y37.803
X31.355 Y37.824
X31.447 Y37.843
X31.633 Y37.874
X31.726 Y37.886
X31.819 Y37.897
X31.912 Y37.908
X32.284 Y37.947
X32.376 Y37.956
X32.439 Y37.961
X33.027 Y37.985
X33.12 Y37.988
X33.305 Y37.99
X34.141 Y37.997
X34.234
X34.327
X34.42
X35.442 Y37.972
X35.535 Y37.968
X35.628 Y37.964
X35.698 Y37.961
X35.721 Y37.96
X35.813 Y37.951
X35.906 Y37.937
X36.742 Y37.814
X36.835 Y37.799
X36.928 Y37.779
X37.021 Y37.75
X37.114 Y37.721
X37.207 Y37.684
X37.3 Y37.641
X37.393 Y37.588
X37.485 Y37.535
X37.539 Y37.496
X37.655 Y37.403
X37.764 Y37.304
X37.858 Y37.218
X37.95 Y37.121
X38.021 Y37.032
X38.043 Y37.004
X38.087 Y36.939
X38.138 Y36.846
X38.19 Y36.753
X38.229 Y36.659
X38.261 Y36.567
X38.285 Y36.474
X38.307 Y36.381
X38.322 Y36.275
X38.33 Y36.195
X38.332 Y36.103
X38.334 Y36.01
Y34.616
Y34.523
G3 X38.642 Y34.223 I0.31 J0.01
G1 X38.644
X38.696 Y34.236 Z-0.722
X38.746 Y34.249 Z-0.707
X38.793 Y34.261 Z-0.684
X38.831 Y34.296 Z-0.645
X38.862 Y34.325 Z-0.597
X38.885 Y34.346 Z-0.542
X38.899 Y34.359 Z-0.481
X38.904 Y34.364 Z-0.418
G0 Z3
X31.818 Y31.726
Z-0.081
G1 Z-0.391 F1000
X31.813 Y31.733 Z-0.46
X31.8 Y31.751 Z-0.526
X31.779 Y31.782 Z-0.584
X31.751 Y31.822 Z-0.634
X31.717 Y31.87 Z-0.67
X31.68 Y31.924 Z-0.693
X31.64 Y31.98 Z-0.701
G3 X30.519 Y33.264 I-6.487 J-4.534
G1 X30.459 Y33.315
X30.333 Y33.432
X30.273 Y33.501
X30.2 Y33.594
X30.147 Y33.669
X30.135 Y33.687
X30.083 Y33.78
X30.054 Y33.841
X30.001 Y33.966
X29.971 Y34.059
X29.944 Y34.151
X29.913 Y34.337
X29.909 Y34.43
X29.904 Y34.523
Y34.616
Y35.824
Y36.01
X29.907 Y36.103
X29.909 Y36.195
X29.919 Y36.288
X29.932 Y36.381
X29.951 Y36.474
X29.978 Y36.567
X30.013 Y36.66
X30.054 Y36.763
X30.098 Y36.846
X30.147 Y36.933
X30.15 Y36.939
X30.284 Y37.125
X30.333 Y37.179
X30.464 Y37.31
X30.519 Y37.362
X30.565 Y37.403
X30.611 Y37.444
X30.678 Y37.496
X30.704 Y37.514
X30.825 Y37.589
X30.89 Y37.627
X31.006 Y37.682
X31.076 Y37.708
X31.169 Y37.738
X31.262 Y37.765
X31.355 Y37.785
X31.447 Y37.805
X31.633 Y37.841
X31.726 Y37.853
X31.844 Y37.868
X32.469 Y37.934
X32.655 Y37.953
X32.748 Y37.961
X33.027 Y37.972
X33.12 Y37.976
X33.305 Y37.978
X34.141 Y37.984
X34.234 Y37.985
X34.327
X34.42 Y37.984
X35.256 Y37.964
X35.353 Y37.961
X35.442 Y37.955
X35.628 Y37.942
X35.721 Y37.932
X35.813 Y37.919
X35.906 Y37.905
X36.464 Y37.823
X36.557 Y37.809
X36.649 Y37.792
X36.722 Y37.775
X36.835 Y37.741
X36.928 Y37.708
X36.993 Y37.682
X37.021 Y37.67
X37.114 Y37.629
X37.207 Y37.585
X37.3 Y37.537
X37.367 Y37.496
X37.393 Y37.478
X37.485 Y37.407
X37.599 Y37.31
X37.671 Y37.242
X37.788 Y37.125
X37.857 Y37.039
X37.929 Y36.939
X37.982 Y36.846
X38.031 Y36.753
X38.068 Y36.66
X38.103 Y36.567
X38.136 Y36.441
X38.149 Y36.381
X38.162 Y36.288
X38.172 Y36.195
X38.174 Y36.103
X38.176 Y36.01
Y34.616
Y34.523
G3 X38.484 Y34.223 I0.31 J0.01
G1 X38.486
X38.538 Y34.236 Z-0.696
X38.588 Y34.249 Z-0.681
X38.635 Y34.261 Z-0.658
X38.673 Y34.296 Z-0.62
X38.704 Y34.325 Z-0.572
X38.727 Y34.346 Z-0.516
X38.741 Y34.359 Z-0.455
X38.746 Y34.364 Z-0.392
G0 Z3
X33.405 Y32.208
Z-0.055
G1 Z-0.365 F1000
X33.398 Y32.212 Z-0.434
X33.379 Y32.225 Z-0.5
X33.349 Y32.246 Z-0.559
X33.308 Y32.273 Z-0.608
X33.259 Y32.306 Z-0.645
X33.205 Y32.342 Z-0.668
X33.147 Y32.381 Z-0.675
G3 X31.54 Y32.951 I-1.916 J-2.852
G1 X31.447 Y32.956
X31.355 Y32.966
X31.262 Y32.984
X31.169 Y33.006
X31.076 Y33.035
X31.07 Y33.036
X30.983 Y33.07
X30.89 Y33.112
X30.858 Y33.129
X30.704 Y33.222
X30.611 Y33.292
X30.519 Y33.371
X30.479 Y33.408
X30.426 Y33.468
X30.333 Y33.58
X30.321 Y33.594
X30.264 Y33.687
X30.209 Y33.78
X30.163 Y33.873
X30.147 Y33.907
X30.124 Y33.966
X30.096 Y34.059
X30.069 Y34.151
X30.053 Y34.244
X30.038 Y34.337
X30.033 Y34.43
X30.029 Y34.523
Y34.616
Y36.01
X30.031 Y36.103
X30.033 Y36.195
X30.043 Y36.288
X30.056 Y36.381
X30.078 Y36.474
X30.102 Y36.567
X30.135 Y36.66
X30.147 Y36.693
X30.173 Y36.753
X30.24 Y36.873
X30.276 Y36.939
X30.333 Y37.022
X30.414 Y37.125
X30.503 Y37.218
X30.519 Y37.233
X30.603 Y37.31
X30.611 Y37.317
X30.704 Y37.389
X30.797 Y37.449
X30.872 Y37.496
X31.076 Y37.613
X31.169 Y37.66
X31.214 Y37.682
X31.262 Y37.703
X31.355 Y37.737
X31.447 Y37.765
X31.54 Y37.785
X31.633 Y37.805
X31.726 Y37.819
X31.819 Y37.832
X31.912 Y37.843
X32.934 Y37.951
X33.027 Y37.959
X33.052 Y37.961
X33.12 Y37.963
X33.305 Y37.965
X34.141 Y37.972
X34.234
X34.327
X34.42
X34.792 Y37.962
X34.842 Y37.961
X34.884 Y37.958
X35.442 Y37.923
X35.628 Y37.91
X35.721 Y37.899
X35.813 Y37.886
X35.94 Y37.868
X36.278 Y37.818
X36.371 Y37.804
X36.464 Y37.786
X36.504 Y37.775
X36.649 Y37.731
X36.742 Y37.695
X36.775 Y37.682
X36.835 Y37.657
X36.928 Y37.617
X37.021 Y37.577
X37.114 Y37.533
X37.183 Y37.496
X37.207 Y37.483
X37.3 Y37.418
X37.441 Y37.31
X37.485 Y37.27
X37.542 Y37.218
X37.578 Y37.18
X37.631 Y37.125
X37.771 Y36.939
X37.825 Y36.846
X37.857 Y36.786
X37.873 Y36.753
X37.91 Y36.66
X37.945 Y36.567
X37.97 Y36.474
X37.991 Y36.381
X38.004 Y36.288
X38.014 Y36.195
X38.016 Y36.103
X38.018 Y36.01
Y34.616
Y34.523
G3 X38.326 Y34.223 I0.31 J0.01
G1 X38.328
X38.38 Y34.236 Z-0.67
X38.43 Y34.249 Z-0.655
X38.478 Y34.261 Z-0.632
X38.515 Y34.296 Z-0.594
X38.546 Y34.325 Z-0.546
X38.569 Y34.346 Z-0.49
X38.583 Y34.359 Z-0.429
X38.588 Y34.364 Z-0.366
G0 Z3
X33.588 Y32.202
Z-0.032
G1 Z-0.342 F1000
X33.582 Y32.207 Z-0.411
X33.563 Y32.219 Z-0.477
X33.532 Y32.24 Z-0.535
X33.491 Y32.268 Z-0.584
X33.443 Y32.301 Z-0.621
X33.389 Y32.337 Z-0.644
X33.331 Y32.376 Z-0.652
G3 X31.726 Y32.951 I-1.924 J-2.846
G1 X31.633 Y32.956
X31.54 Y32.967
X31.447 Y32.984
X31.355 Y33.009
X31.259 Y33.036
X31.169 Y33.071
X31.076 Y33.114
X30.983 Y33.168
X30.89 Y33.223
X30.797 Y33.294
X30.772 Y33.315
X30.704 Y33.373
X30.669 Y33.408
X30.611 Y33.47
X30.585 Y33.501
X30.519 Y33.583
X30.511 Y33.594
X30.452 Y33.687
X30.397 Y33.78
X30.351 Y33.873
X30.313 Y33.966
X30.285 Y34.059
X30.258 Y34.151
X30.242 Y34.244
X30.227 Y34.337
X30.222 Y34.43
X30.218 Y34.523
X30.217 Y34.616
Y36.01
X30.219 Y36.103
X30.222 Y36.195
X30.232 Y36.288
X30.245 Y36.381
X30.267 Y36.474
X30.291 Y36.567
X30.325 Y36.66
X30.362 Y36.753
X30.465 Y36.939
X30.519 Y37.016
X30.53 Y37.032
X30.605 Y37.125
X30.704 Y37.226
X30.797 Y37.308
X30.89 Y37.377
X30.932 Y37.403
X31.076 Y37.491
X31.262 Y37.599
X31.355 Y37.648
X31.426 Y37.682
X31.447 Y37.692
X31.54 Y37.724
X31.633 Y37.754
X31.704 Y37.775
X31.726 Y37.78
X31.819 Y37.8
X31.912 Y37.812
X32.005 Y37.823
X32.098 Y37.833
X32.841 Y37.912
X32.934 Y37.921
X33.12 Y37.936
X34.141 Y37.958
X34.234 Y37.959
X34.327 Y37.96
X34.42 Y37.958
X34.606 Y37.947
X35.442 Y37.894
X35.628 Y37.881
X35.721 Y37.87
X35.813 Y37.857
X35.906 Y37.844
X36.092 Y37.817
X36.185 Y37.802
X36.278 Y37.783
X36.371 Y37.756
X36.464 Y37.729
X36.557 Y37.692
X36.58 Y37.682
X36.835 Y37.574
X36.928 Y37.533
X37.021 Y37.49
X37.114 Y37.435
X37.207 Y37.376
X37.296 Y37.31
X37.3 Y37.308
X37.399 Y37.218
X37.485 Y37.129
X37.49 Y37.125
X37.578 Y37.011
X37.63 Y36.939
X37.681 Y36.846
X37.732 Y36.753
X37.771 Y36.66
X37.804 Y36.567
X37.828 Y36.474
X37.85 Y36.381
X37.863 Y36.288
X37.873 Y36.195
X37.875 Y36.103
X37.877 Y36.01
Y34.616
Y34.523
G3 X38.185 Y34.223 I0.31 J0.01
G1 X38.187
X38.239 Y34.236 Z-0.647
X38.289 Y34.249 Z-0.632
X38.336 Y34.261 Z-0.609
X38.374 Y34.296 Z-0.57
X38.405 Y34.325 Z-0.523
X38.428 Y34.346 Z-0.467
X38.442 Y34.359 Z-0.406
X38.447 Y34.364 Z-0.343
G0 Z3
X33.772 Y32.199
Z-0.012
G1 Z-0.322 F1000
X33.766 Y32.203 Z-0.391
X33.747 Y32.216 Z-0.457
X33.717 Y32.237 Z-0.515
X33.676 Y32.264 Z-0.564
X33.627 Y32.297 Z-0.601
X33.573 Y32.334 Z-0.624
X33.516 Y32.373 Z-0.632
G3 X31.912 Y32.951 I-1.93 J-2.842
G1 X31.819 Y32.956
X31.726 Y32.968
X31.633 Y32.986
X31.54 Y33.01
X31.45 Y33.036
X31.355 Y33.073
X31.262 Y33.117
X31.169 Y33.17
X31.081 Y33.222
X31.076 Y33.226
X30.983 Y33.296
X30.959 Y33.315
X30.89 Y33.378
X30.859 Y33.408
X30.797 Y33.473
X30.773 Y33.501
X30.704 Y33.589
X30.7 Y33.594
X30.642 Y33.687
X30.587 Y33.78
X30.543 Y33.873
X30.503 Y33.966
X30.474 Y34.059
X30.447 Y34.151
X30.431 Y34.244
X30.416 Y34.337
X30.411 Y34.43
X30.407 Y34.523
Y34.616
Y36.01
X30.409 Y36.103
X30.411 Y36.195
X30.421 Y36.288
X30.434 Y36.381
X30.456 Y36.474
X30.48 Y36.567
X30.515 Y36.66
X30.552 Y36.753
X30.601 Y36.846
X30.654 Y36.939
X30.704 Y37.009
X30.721 Y37.032
X30.795 Y37.125
X30.89 Y37.22
X30.983 Y37.305
X31.076 Y37.373
X31.119 Y37.403
X31.262 Y37.489
X31.274 Y37.496
X31.355 Y37.542
X31.447 Y37.593
X31.54 Y37.641
X31.638 Y37.682
X31.726 Y37.712
X31.819 Y37.74
X31.912 Y37.767
X31.941 Y37.775
X32.005 Y37.79
X32.098 Y37.807
X32.191 Y37.818
X32.841 Y37.887
X32.934 Y37.896
X33.12 Y37.911
X34.141 Y37.933
X34.234 Y37.934
X34.327 Y37.935
X34.42 Y37.933
X34.606 Y37.922
X35.455 Y37.868
X35.628 Y37.856
X35.721 Y37.845
X35.813 Y37.832
X35.906 Y37.819
X35.999 Y37.804
X36.092 Y37.787
X36.145 Y37.775
X36.185 Y37.764
X36.278 Y37.733
X36.371 Y37.698
X36.411 Y37.682
X36.631 Y37.589
X36.649 Y37.581
X36.835 Y37.489
X36.928 Y37.434
X37.021 Y37.378
X37.114 Y37.31
X37.207 Y37.23
X37.219 Y37.218
X37.308 Y37.125
X37.384 Y37.032
X37.393 Y37.021
X37.449 Y36.939
X37.5 Y36.846
X37.552 Y36.753
X37.578 Y36.69
X37.59 Y36.66
X37.623 Y36.567
X37.647 Y36.474
X37.669 Y36.381
X37.682 Y36.288
X37.692 Y36.195
X37.694 Y36.103
X37.696 Y36.01
Y34.616
Y34.523
G3 X38.004 Y34.223 I0.31 J0.01
G1 X38.006
X38.058 Y34.236 Z-0.627
X38.108 Y34.249 Z-0.612
X38.155 Y34.261 Z-0.589
X38.193 Y34.296 Z-0.55
X38.224 Y34.325 Z-0.502
X38.247 Y34.346 Z-0.447
X38.261 Y34.359 Z-0.386
X38.266 Y34.364 Z-0.323
G0 Z3
X33.963 Y32.21
Z0.007
G1 Z-0.303 F1000
X33.956 Y32.214 Z-0.372
X33.937 Y32.227 Z-0.438
X33.907 Y32.247 Z-0.496
X33.866 Y32.275 Z-0.546
X33.817 Y32.307 Z-0.583
X33.763 Y32.344 Z-0.605
X33.705 Y32.382 Z-0.613
G3 X32.098 Y32.95 I-1.913 J-2.854
G1 X32.005 Y32.956
X31.912 Y32.966
X31.819 Y32.983
X31.726 Y33.006
X31.633 Y33.036
X31.54 Y33.071
X31.447 Y33.115
X31.355 Y33.164
X31.261 Y33.222
X31.169 Y33.289
X31.137 Y33.315
X31.039 Y33.408
X30.983 Y33.464
X30.951 Y33.501
X30.88 Y33.594
X30.818 Y33.687
X30.797 Y33.72
X30.763 Y33.78
X30.722 Y33.873
X30.682 Y33.966
X30.653 Y34.059
X30.626 Y34.151
X30.611 Y34.224
X30.608 Y34.244
X30.594 Y34.337
X30.585 Y34.523
Y34.616
Y36.01
X30.587 Y36.103
X30.59 Y36.195
X30.597 Y36.288
X30.611 Y36.382
X30.634 Y36.474
X30.659 Y36.567
X30.694 Y36.66
X30.731 Y36.753
X30.777 Y36.846
X30.797 Y36.881
X30.832 Y36.939
X30.902 Y37.032
X30.972 Y37.125
X31.062 Y37.218
X31.076 Y37.23
X31.169 Y37.31
X31.3 Y37.403
X31.355 Y37.439
X31.452 Y37.496
X31.54 Y37.546
X31.633 Y37.593
X31.726 Y37.637
X31.819 Y37.671
X31.85 Y37.682
X32.005 Y37.729
X32.098 Y37.757
X32.191 Y37.782
X32.284 Y37.801
X32.376 Y37.814
X32.934 Y37.873
X33.027 Y37.882
X33.12 Y37.887
X34.141 Y37.909
X34.234 Y37.91
X34.327 Y37.911
X34.42 Y37.91
X34.606 Y37.898
X35.442 Y37.845
X35.628 Y37.832
X35.721 Y37.822
X35.813 Y37.809
X35.906 Y37.793
X35.985 Y37.775
X35.999 Y37.771
X36.092 Y37.741
X36.185 Y37.708
X36.251 Y37.682
X36.371 Y37.628
X36.452 Y37.589
X36.625 Y37.496
X36.649 Y37.483
X36.784 Y37.403
X36.835 Y37.37
X36.928 Y37.301
X37.021 Y37.217
X37.114 Y37.122
X37.187 Y37.032
X37.207 Y37.004
X37.252 Y36.939
X37.303 Y36.846
X37.355 Y36.753
X37.393 Y36.657
X37.426 Y36.567
X37.45 Y36.474
X37.472 Y36.381
X37.485 Y36.284
X37.495 Y36.195
X37.497 Y36.103
X37.499 Y36.01
Y34.616
Y34.523
G3 X37.807 Y34.223 I0.31 J0.01
G1 X37.809
X37.861 Y34.236 Z-0.608
X37.911 Y34.249 Z-0.593
X37.959 Y34.261 Z-0.57
X37.996 Y34.296 Z-0.532
X38.027 Y34.325 Z-0.484
X38.05 Y34.346 Z-0.428
X38.064 Y34.359 Z-0.367
X38.069 Y34.364 Z-0.304
G0 Z3
X34.151 Y32.216
Z0.026
G1 Z-0.284 F1000
X34.145 Y32.22 Z-0.353
X34.126 Y32.233 Z-0.419
X34.095 Y32.254 Z-0.478
X34.054 Y32.281 Z-0.527
X34.005 Y32.313 Z-0.564
X33.95 Y32.35 Z-0.587
X33.893 Y32.388 Z-0.594
G3 X32.284 Y32.95 I-1.903 J-2.861
G1 X32.191 Y32.955
X32.098 Y32.965
X32.005 Y32.982
X31.912 Y33.004
X31.813 Y33.036
X31.726 Y33.067
X31.633 Y33.11
X31.54 Y33.158
X31.441 Y33.222
X31.355 Y33.282
X31.218 Y33.408
X31.169 Y33.456
X31.059 Y33.594
X30.994 Y33.687
X30.983 Y33.706
X30.942 Y33.78
X30.9 Y33.873
X30.86 Y33.966
X30.83 Y34.059
X30.803 Y34.151
X30.772 Y34.337
X30.768 Y34.43
X30.764 Y34.523
