(1001)
(WC deskel)
(T1  D=3.1 CR=0 - ZMIN=-8.001 - flat end mill)
G90 G94
G17
G21

(Adaptive3)
S10000 M3
G54
G0 Z10
G0 X-0.317 Y-3.541
G1 Z-0.68 F1000
X-0.315 Y-3.534 Z-0.749
X-0.309 Y-3.512 Z-0.815
X-0.3 Y-3.476 Z-0.873
X-0.288 Y-3.428 Z-0.922
X-0.273 Y-3.371 Z-0.959
X-0.257 Y-3.308 Z-0.982
X-0.24 Y-3.241 Z-0.99
G3 X0.003 Y-1.553 I-7.667 J1.964
G1 Y-1.523
X-0.054 Y-1.244
X-0.101 Y-0.962
X-0.139 Y-0.679
X-0.17 Y-0.395
X-0.195 Y-0.11
X-0.216 Y0.174
X-0.233 Y0.459
X-0.247 Y0.745
X-0.258 Y1.03
X-0.267 Y1.315
X-0.274 Y1.601
X-0.28 Y1.886
X-0.285 Y2.172
X-0.289 Y2.458
X-0.292 Y2.743
X-0.295 Y3.029
X-0.297 Y3.314
X-0.299 Y3.6
X-0.3 Y3.885
X-0.301 Y4.171
X-0.303 Y4.742
X-0.304 Y5.313
X-0.305 Y6.17
X-0.306 Y7.598
Y10.739
X-0.307 Y34.157
X-0.215 Y34.428
X-0.052 Y34.662
X0.153 Y34.861
X0.385 Y35.027
X0.634 Y35.166
X0.895 Y35.282
X1.165 Y35.377
X1.439 Y35.455
X1.717 Y35.52
X1.998 Y35.573
X2.28 Y35.616
X2.564 Y35.651
X2.848 Y35.68
X3.133 Y35.704
X3.417 Y35.723
X3.703 Y35.738
X3.988 Y35.751
X4.273 Y35.761
X4.559 Y35.77
X4.844 Y35.777
X5.13 Y35.782
X5.415 Y35.787
X5.701 Y35.791
X5.986 Y35.793
X6.272 Y35.796
X6.558 Y35.798
X6.843 Y35.8
X7.129 Y35.801
X7.7 Y35.803
X8.271 Y35.804
X9.128 Y35.805
X10.27 Y35.806
X12.555 Y35.807
X13.412
X34.259 Y35.808
X34.538 Y35.747
X34.782 Y35.599
X34.99 Y35.403
X35.165 Y35.177
X35.311 Y34.932
X35.433 Y34.674
X35.533 Y34.406
X35.616 Y34.133
X35.683 Y33.855
X35.739 Y33.575
X35.785 Y33.293
X35.822 Y33.01
X35.853 Y32.726
X35.877 Y32.442
X35.898 Y32.157
X35.914 Y31.872
X35.928 Y31.587
X35.938 Y31.301
X35.947 Y31.016
X35.955 Y30.73
X35.96 Y30.445
X35.965 Y30.159
X35.969 Y29.874
X35.972 Y29.588
X35.975 Y29.303
X35.977 Y29.017
X35.979 Y28.731
X35.98 Y28.446
X35.981 Y28.16
X35.983 Y27.589
X35.984 Y27.018
X35.985 Y26.161
X35.986 Y24.733
Y21.592
Y7.027
X35.987 Y1.458
X35.966 Y1.317
X35.87 Y1.048
X35.703 Y0.817
X35.495 Y0.621
X35.261 Y0.456
X35.011 Y0.319
X34.749 Y0.206
X34.479 Y0.112
X34.204 Y0.035
X33.926 Y-0.028
X33.645 Y-0.08
X33.362 Y-0.123
X33.079 Y-0.158
X32.795 Y-0.186
X32.51 Y-0.209
X32.225 Y-0.228
X31.94 Y-0.243
X31.655 Y-0.256
X31.369 Y-0.266
X31.084 Y-0.274
X30.798 Y-0.281
X30.513 Y-0.286
X30.227 Y-0.291
X29.942 Y-0.294
X29.656 Y-0.297
X29.371 Y-0.299
X29.085 Y-0.301
X28.799 Y-0.303
X28.514 Y-0.304
X27.943 Y-0.306
X27.372 Y-0.307
X26.515 Y-0.308
X25.372 Y-0.309
X23.088
X2.812 Y-0.308
X2.67 Y-0.292
X2.398 Y-0.205
X2.159 Y-0.048
X1.954 Y0.151
X1.781 Y0.378
X1.635 Y0.624
X1.513 Y0.882
X1.411 Y1.149
X1.327 Y1.421
X1.257 Y1.698
X1.199 Y1.978
X1.151 Y2.26
X1.112 Y2.542
X1.08 Y2.826
X1.054 Y3.111
X1.032 Y3.395
X1.014 Y3.68
X0.999 Y3.966
X0.987 Y4.251
X0.978 Y4.536
X0.97 Y4.822
X0.963 Y5.107
X0.958 Y5.393
X0.953 Y5.678
X0.95 Y5.964
X0.947 Y6.249
X0.944 Y6.535
X0.942 Y6.821
X0.941 Y7.106
X0.939 Y7.392
X0.937 Y7.963
X0.936 Y8.534
X0.935 Y9.391
Y9.676
X0.934 Y11.104
X0.933 Y14.246
Y32.237
X0.939 Y32.523
X1.016 Y32.798
X1.149 Y33.05
X1.325 Y33.275
X1.532 Y33.472
X1.761 Y33.643
X2.006 Y33.789
X2.263 Y33.914
X2.528 Y34.02
X2.799 Y34.11
X3.075 Y34.186
X3.353 Y34.249
X3.634 Y34.302
X3.916 Y34.347
X4.199 Y34.384
X4.483 Y34.415
X4.767 Y34.441
X5.052 Y34.462
X5.337 Y34.48
X5.622 Y34.495
X5.908 Y34.507
X6.193 Y34.518
X6.478 Y34.526
X6.764 Y34.533
X7.05 Y34.539
X7.335 Y34.544
X7.621 Y34.548
X7.906 Y34.551
X8.192 Y34.554
X8.477 Y34.556
X8.763 Y34.558
X9.048 Y34.559
X9.334 Y34.561
X9.905 Y34.563
X10.476 Y34.564
X11.333 Y34.565
X12.475 Y34.566
X14.474 Y34.567
X24.184 Y34.568
X27.611
X32.466
X32.751 Y34.55
X33.023 Y34.462
X33.271 Y34.32
X33.491 Y34.138
X33.683 Y33.927
X33.849 Y33.695
X33.992 Y33.447
X34.114 Y33.189
X34.217 Y32.922
X34.304 Y32.65
X34.377 Y32.374
X34.439 Y32.095
X34.49 Y31.815
X34.533 Y31.532
X34.569 Y31.249
X34.599 Y30.965
X34.624 Y30.68
X34.645 Y30.396
X34.663 Y30.111
X34.677 Y29.825
X34.689 Y29.54
X34.699 Y29.255
X34.707 Y28.969
X34.714 Y28.684
X34.719 Y28.398
X34.724 Y28.113
X34.728 Y27.827
X34.731 Y27.541
X34.734 Y27.256
X34.736 Y26.97
X34.738 Y26.685
X34.739 Y26.399
X34.74 Y26.114
X34.742 Y25.542
X34.743 Y24.971
X34.745 Y24.115
Y22.972
X34.746 Y20.688
Y3.267
X34.741 Y2.982
X34.665 Y2.706
X34.532 Y2.453
X34.357 Y2.228
X34.151 Y2.03
X33.922 Y1.859
X33.678 Y1.712
X33.421 Y1.586
X33.156 Y1.479
X32.885 Y1.389
X32.61 Y1.313
X32.331 Y1.25
X32.051 Y1.196
X31.769 Y1.151
X31.486 Y1.114
X31.202 Y1.083
X30.918 Y1.057
X30.633 Y1.035
X30.348 Y1.017
X30.063 Y1.002
X29.777 Y0.99
X29.492 Y0.979
X29.206 Y0.971
X28.921 Y0.964
X28.635 Y0.958
X28.35 Y0.953
X28.064 Y0.949
X27.779 Y0.946
X27.493 Y0.943
X27.208 Y0.941
X26.922 Y0.939
X26.636 Y0.938
X26.351 Y0.936
X25.78 Y0.934
X25.209 Y0.933
X24.352 Y0.932
X23.209 Y0.931
X22.638
X19.782
X4.361
X4.081 Y0.985
X3.819 Y1.099
X3.582 Y1.259
X3.373 Y1.453
X3.19 Y1.673
X3.033 Y1.911
X2.897 Y2.162
X2.782 Y2.424
X2.684 Y2.692
X2.601 Y2.965
X2.531 Y3.242
X2.483 Y3.468
X2.474 Y3.507
X2.462 Y3.546
X2.448 Y3.585
X2.413 Y3.675
X2.373 Y3.785
X2.353 Y3.861
X2.331 Y3.954
X2.308 Y4.046
X2.28 Y4.155
X2.262 Y4.232
X2.246 Y4.325
X2.232 Y4.418
X2.227 Y4.511
X2.224 Y4.604
X2.228 Y4.697
X2.233 Y4.982
X2.224 Y5.268
X2.216 Y5.553
X2.209 Y5.839
X2.204 Y6.124
X2.199 Y6.41
X2.195 Y6.695
X2.192 Y6.981
X2.189 Y7.267
X2.186 Y7.552
X2.184 Y7.838
X2.182 Y8.123
X2.181 Y8.409
X2.179 Y8.98
X2.177 Y9.551
X2.176 Y10.408
X2.174 Y11.55
Y13.264
X2.173 Y17.547
Y30.97
X2.22 Y31.251
X2.322 Y31.518
X2.469 Y31.763
X2.652 Y31.983
X2.861 Y32.177
X3.091 Y32.346
X3.336 Y32.494
X3.591 Y32.62
X3.856 Y32.729
X4.126 Y32.822
X4.4 Y32.901
X4.677 Y32.969
X4.957 Y33.026
X5.239 Y33.074
X5.521 Y33.115
X5.805 Y33.149
X6.089 Y33.178
X6.374 Y33.202
X6.659 Y33.222
X6.944 Y33.239
X7.229 Y33.254
X7.514 Y33.266
X7.8 Y33.276
X8.085 Y33.284
X8.37 Y33.291
X8.656 Y33.297
X8.942 Y33.302
X9.227 Y33.306
X9.513 Y33.31
X9.798 Y33.312
X10.084 Y33.315
X10.369 Y33.317
X10.655 Y33.319
X10.941 Y33.32
X11.512 Y33.322
X12.083 Y33.324
X12.94 Y33.325
X14.082 Y33.326
X15.795 Y33.327
X20.65
X25.22 Y33.328
X30.931
X31.217 Y33.322
X31.496 Y33.261
X31.758 Y33.147
X31.996 Y32.991
X32.21 Y32.801
X32.398 Y32.586
X32.562 Y32.352
X32.704 Y32.105
X32.827 Y31.847
X32.932 Y31.581
X33.021 Y31.31
X33.098 Y31.035
X33.162 Y30.756
X33.217 Y30.476
X33.263 Y30.194
X33.302 Y29.912
X33.335 Y29.628
X33.363 Y29.344
X33.386 Y29.059
X33.406 Y28.774
X33.422 Y28.489
X33.436 Y28.204
X33.448 Y27.918
X33.457 Y27.633
X33.465 Y27.347
X33.472 Y27.062
X33.478 Y26.776
X33.482 Y26.491
X33.486 Y26.205
X33.49 Y25.92
X33.492 Y25.634
X33.495 Y25.349
X33.497 Y25.063
X33.498 Y24.777
X33.499 Y24.492
X33.501 Y23.921
X33.503 Y23.35
X33.504 Y22.493
X33.505 Y21.351
X33.506 Y19.351
Y12.783
Y4.501
X33.453 Y4.221
X33.367 Y4.006
X33.354 Y3.971
X33.343 Y3.935
X33.333 Y3.899
X33.324 Y3.861
X33.307 Y3.79
X33.265 Y3.675
X33.229 Y3.582
X33.214 Y3.55
X33.135 Y3.396
X33.041 Y3.21
X33.028 Y3.186
X32.987 Y3.117
X32.935 Y3.038
X32.926 Y3.025
X32.842 Y2.92
X32.77 Y2.839
X32.594 Y2.653
X32.564 Y2.621
X32.471 Y2.53
X32.405 Y2.467
X32.378 Y2.444
X32.282 Y2.374
X32.192 Y2.316
X32.099 Y2.261
X32.006 Y2.218
X31.913 Y2.18
X31.82 Y2.149
X31.728 Y2.123
X31.635 Y2.1
X31.22 Y2.003
X31.077 Y1.97
X30.984 Y1.954
X30.892 Y1.94
X30.799 Y1.935
X30.706 Y1.931
X30.613 Y1.93
X5.067
X4.974 Y1.931
X4.881 Y1.935
X4.788 Y1.94
X4.695 Y1.954
X4.602 Y1.969
X4.416 Y2.011
X4.231 Y2.056
X4.045 Y2.101
X3.952 Y2.125
X3.859 Y2.15
X3.766 Y2.181
X3.673 Y2.219
X3.58 Y2.262
X3.487 Y2.317
X3.399 Y2.374
X3.302 Y2.445
X3.275 Y2.467
X3.209 Y2.53
X3.116 Y2.621
X3.085 Y2.653
X2.996 Y2.746
X2.908 Y2.839
X2.837 Y2.919
X2.753 Y3.025
X2.744 Y3.037
X2.692 Y3.117
X2.651 Y3.185
X2.637 Y3.21
X2.541 Y3.396
X2.494 Y3.489
X2.466 Y3.547
X2.449 Y3.582
X2.448 Y3.585
G3 X1.872 Y3.357 I-0.288 J-0.114
X2.306 Y3.197 I0.288 J0.114
X2.415 Y3.647 I-0.146 J0.274
G1 X1.957 Y4.311
G3 X1.447 Y3.959 I-0.255 J-0.176
X1.958 Y3.96 I0.255 J0.176
X2.228 Y4.697 I-1.304 J0.897
G1 X2.234 Y4.79
X2.258 Y4.976
X2.415 Y6.09
X2.441 Y6.276
X2.469 Y6.462
X2.499 Y6.648
X2.514 Y6.741
X2.561 Y7.019
X3.001 Y9.621
X3.017 Y9.714
X3.068 Y9.992
X3.085 Y10.085
X3.103 Y10.178
X3.121 Y10.271
X3.14 Y10.364
X3.188 Y10.646
X3.231 Y10.928
X3.266 Y11.211
X3.294 Y11.496
X3.317 Y11.78
X3.335 Y12.065
X3.35 Y12.35
X3.362 Y12.636
X3.372 Y12.921
X3.38 Y13.207
X3.386 Y13.492
X3.391 Y13.778
X3.395 Y14.063
X3.399 Y14.349
X3.402 Y14.634
X3.404 Y14.92
X3.406 Y15.205
X3.407 Y15.491
X3.408 Y15.777
X3.41 Y16.348
X3.411 Y16.919
X3.412 Y17.776
X3.413 Y19.204
Y22.345
Y29.485
X3.436 Y29.769
X3.51 Y30.045
X3.631 Y30.304
X3.791 Y30.54
X3.982 Y30.752
X4.197 Y30.94
X4.431 Y31.105
X4.678 Y31.248
X4.935 Y31.372
X5.2 Y31.479
X5.47 Y31.571
X5.745 Y31.649
X6.022 Y31.717
X6.302 Y31.774
X6.583 Y31.822
X6.866 Y31.864
X7.15 Y31.898
X7.434 Y31.928
X7.718 Y31.953
X8.003 Y31.974
X8.288 Y31.992
X8.573 Y32.007
X8.858 Y32.02
X9.144 Y32.031
X9.429 Y32.04
X9.715 Y32.047
X10 Y32.053
X10.286 Y32.059
X10.571 Y32.063
X10.857 Y32.067
X11.142 Y32.07
X11.428 Y32.073
X11.713 Y32.075
X11.999 Y32.077
X12.285 Y32.079
X12.57 Y32.08
X13.141 Y32.082
X13.713 Y32.084
X14.569 Y32.085
X15.712 Y32.086
X17.425 Y32.087
X21.994
X29.705 Y32.088
X29.989 Y32.058
X30.263 Y31.977
X30.519 Y31.849
X30.751 Y31.684
X30.96 Y31.489
X31.144 Y31.271
X31.306 Y31.035
X31.446 Y30.787
X31.568 Y30.528
X31.672 Y30.262
X31.762 Y29.991
X31.839 Y29.716
X31.905 Y29.438
X31.96 Y29.158
X32.008 Y28.877
X32.048 Y28.594
X32.082 Y28.31
X32.111 Y28.026
X32.136 Y27.742
X32.156 Y27.457
X32.174 Y27.172
X32.188 Y26.887
X32.201 Y26.601
X32.211 Y26.316
X32.22 Y26.03
X32.227 Y25.745
X32.234 Y25.459
X32.239 Y25.174
X32.243 Y24.888
X32.247 Y24.603
X32.25 Y24.317
X32.253 Y24.032
X32.255 Y23.746
X32.257 Y23.461
X32.258 Y23.175
X32.259 Y22.889
X32.261 Y22.318
X32.263 Y21.747
X32.264 Y20.89
X32.265 Y19.748
X32.266 Y18.035
Y13.465
Y11.63
X32.268 Y11.574
X32.275 Y11.519
X32.286 Y11.464
X32.436 Y10.829
X32.457 Y10.736
X32.54 Y10.364
X32.559 Y10.271
X32.577 Y10.178
X32.595 Y10.085
X32.63 Y9.9
X32.664 Y9.714
X32.711 Y9.435
X33.148 Y6.834
X33.179 Y6.648
X33.209 Y6.462
X33.237 Y6.276
X33.276 Y5.998
X33.419 Y4.976
X33.443 Y4.79
X33.449 Y4.697
X33.453 Y4.604
X33.45 Y4.511
X33.445 Y4.418
X33.431 Y4.325
X33.415 Y4.232
X33.4 Y4.165
X33.369 Y4.046
X33.346 Y3.954
X33.333 Y3.899
G3 X33.853 Y3.617 I0.304 J-0.059
G1 X33.903 Y3.665 Z-0.982
X33.95 Y3.71 Z-0.959
X33.992 Y3.751 Z-0.922
X34.027 Y3.786 Z-0.873
X34.054 Y3.811 Z-0.815
X34.07 Y3.827 Z-0.749
X34.076 Y3.833 Z-0.68
G0 Z5
X2.548 Y9.451
Z-0.37
G1 Z-0.68 F1000
X2.553 Y9.456 Z-0.749
X2.569 Y9.473 Z-0.815
X2.594 Y9.5 Z-0.873
X2.628 Y9.536 Z-0.922
X2.668 Y9.579 Z-0.959
X2.713 Y9.626 Z-0.982
X2.76 Y9.677 Z-0.99
G3 X3.14 Y10.364 I-1.152 J1.085
G1 X3.223 Y10.736
X3.244 Y10.829
X3.484 Y11.851
X3.529 Y12.036
X3.555 Y12.129
X3.582 Y12.222
X3.636 Y12.408
X3.667 Y12.501
X3.704 Y12.594
X3.741 Y12.687
X3.782 Y12.78
X3.825 Y12.872
X3.923 Y13.058
X3.952 Y13.11
X4.079 Y13.365
X4.187 Y13.623
X4.276 Y13.895
X4.347 Y14.171
X4.405 Y14.451
X4.451 Y14.733
X4.489 Y15.016
X4.52 Y15.3
X4.545 Y15.584
X4.565 Y15.869
X4.581 Y16.154
X4.595 Y16.439
X4.606 Y16.725
X4.614 Y17.01
X4.622 Y17.296
X4.627 Y17.581
X4.632 Y17.867
X4.636 Y18.152
X4.639 Y18.438
X4.642 Y18.723
X4.644 Y19.009
X4.646 Y19.295
X4.647 Y19.58
X4.648 Y19.866
X4.65 Y20.437
X4.651 Y21.008
X4.652 Y21.865
X4.653 Y23.293
Y26.148
Y28.148
X4.673 Y28.432
X4.74 Y28.71
X4.854 Y28.972
X5.006 Y29.213
X5.191 Y29.431
X5.401 Y29.625
X5.629 Y29.796
X5.872 Y29.946
X6.127 Y30.076
X6.389 Y30.189
X6.658 Y30.286
X6.931 Y30.37
X7.207 Y30.441
X7.486 Y30.502
X7.767 Y30.555
X8.049 Y30.599
X8.332 Y30.637
X8.616 Y30.669
X8.9 Y30.697
X9.185 Y30.72
X9.47 Y30.739
X9.755 Y30.756
X10.04 Y30.77
X10.325 Y30.782
X10.611 Y30.792
X10.896 Y30.801
X11.182 Y30.808
X11.467 Y30.814
X11.753 Y30.819
X12.038 Y30.824
X12.324 Y30.827
X12.609 Y30.83
X12.895 Y30.833
X13.18 Y30.835
X13.466 Y30.837
X13.752 Y30.839
X14.037 Y30.84
X14.608 Y30.842
X15.179 Y30.844
X16.036 Y30.845
X17.178 Y30.846
X18.892 Y30.847
X23.176
X28.316 Y30.848
X28.601 Y30.829
X28.879 Y30.764
X29.142 Y30.652
X29.384 Y30.501
X29.603 Y30.317
X29.798 Y30.108
X29.97 Y29.88
X30.12 Y29.638
X30.251 Y29.384
X30.364 Y29.122
X30.462 Y28.853
X30.546 Y28.58
X30.618 Y28.304
X30.68 Y28.025
X30.732 Y27.744
X30.777 Y27.462
X30.815 Y27.179
X30.847 Y26.896
X30.875 Y26.611
X30.898 Y26.327
X30.918 Y26.042
X30.935 Y25.757
X30.949 Y25.472
X30.961 Y25.186
X30.971 Y24.901
X30.98 Y24.615
X30.987 Y24.33
X30.993 Y24.044
X30.998 Y23.759
X31.003 Y23.473
X31.006 Y23.188
X31.01 Y22.902
X31.012 Y22.617
X31.014 Y22.331
X31.016 Y22.045
X31.018 Y21.76
X31.019 Y21.474
X31.021 Y20.903
X31.023 Y20.332
X31.024 Y19.475
X31.025 Y18.333
X31.026 Y16.619
Y14.26
X31.054 Y14.061
X31.136 Y13.877
X31.266 Y13.722
X31.281 Y13.709
X31.356 Y13.64
X31.379 Y13.616
X31.449 Y13.54
X31.463 Y13.523
X31.533 Y13.43
X31.635 Y13.272
X31.651 Y13.244
X31.728 Y13.109
X31.756 Y13.058
X31.855 Y12.872
X31.897 Y12.78
X31.913 Y12.742
X31.937 Y12.687
X31.974 Y12.594
X32.011 Y12.501
X32.042 Y12.408
X32.069 Y12.315
X32.099 Y12.211
X32.123 Y12.129
X32.149 Y12.036
X32.194 Y11.851
X32.286 Y11.464
G3 X32.877 Y11.442 I0.299 J0.082
G1 X32.9 Y11.507 Z-0.982
X32.922 Y11.569 Z-0.959
X32.941 Y11.624 Z-0.922
X32.958 Y11.67 Z-0.873
X32.97 Y11.705 Z-0.815
X32.978 Y11.727 Z-0.749
X32.981 Y11.734 Z-0.68
G0 Z5
X3.122 Y12.405
Z-0.37
G1 Z-0.68 F1000
X3.129 Y12.409 Z-0.749
X3.149 Y12.42 Z-0.815
X3.181 Y12.439 Z-0.873
X3.223 Y12.463 Z-0.922
X3.274 Y12.493 Z-0.959
X3.331 Y12.525 Z-0.982
X3.391 Y12.56 Z-0.99
G3 X3.952 Y13.11 I-0.792 J1.37
G1 X4.027 Y13.244
X4.045 Y13.275
X4.144 Y13.43
X4.213 Y13.523
X4.231 Y13.544
X4.297 Y13.616
X4.323 Y13.644
X4.396 Y13.709
X4.416 Y13.727
X4.509 Y13.805
X4.602 Y13.871
X4.663 Y13.917
X4.753 Y13.996
X4.849 Y14.094
X4.951 Y14.219
X5.061 Y14.376
X5.176 Y14.573
X5.296 Y14.822
X5.399 Y15.088
X5.484 Y15.361
X5.554 Y15.638
X5.612 Y15.918
X5.66 Y16.199
X5.7 Y16.482
X5.733 Y16.766
X5.76 Y17.05
X5.783 Y17.334
X5.802 Y17.619
X5.818 Y17.905
X5.831 Y18.19
X5.841 Y18.475
X5.85 Y18.761
X5.858 Y19.046
X5.864 Y19.332
X5.869 Y19.617
X5.873 Y19.903
X5.877 Y20.188
X5.879 Y20.474
X5.882 Y20.759
X5.884 Y21.045
X5.885 Y21.331
X5.887 Y21.616
X5.889 Y22.187
X5.89 Y22.759
X5.891 Y23.615
X5.892 Y24.758
X5.893 Y26.757
X5.9 Y27.042
X5.949 Y27.324
X6.044 Y27.593
X6.181 Y27.844
X6.352 Y28.072
X6.551 Y28.277
X6.771 Y28.459
X7.007 Y28.619
X7.256 Y28.759
X7.514 Y28.881
X7.78 Y28.986
X8.051 Y29.077
X8.325 Y29.155
X8.603 Y29.222
X8.883 Y29.28
X9.164 Y29.329
X9.447 Y29.371
X9.73 Y29.406
X10.014 Y29.437
X10.298 Y29.463
X10.583 Y29.485
X10.868 Y29.503
X11.153 Y29.519
X11.438 Y29.533
X11.724 Y29.544
X12.009 Y29.554
X12.295 Y29.562
X12.58 Y29.569
X12.866 Y29.575
X13.151 Y29.58
X13.437 Y29.584
X13.722 Y29.588
X14.008 Y29.591
X14.293 Y29.593
X14.579 Y29.595
X14.865 Y29.597
X15.15 Y29.599
X15.436 Y29.6
X16.007 Y29.602
X16.578 Y29.604
X17.435 Y29.605
X18.577 Y29.606
X20.291 Y29.607
X24.289 Y29.608
X26.859
X27.145 Y29.606
X27.428 Y29.57
X27.701 Y29.487
X27.957 Y29.361
X28.192 Y29.198
X28.404 Y29.007
X28.592 Y28.792
X28.758 Y28.559
X28.903 Y28.313
X29.029 Y28.057
X29.139 Y27.793
X29.233 Y27.524
X29.315 Y27.25
X29.384 Y26.973
X29.444 Y26.694
X29.495 Y26.413
X29.539 Y26.131
X29.576 Y25.848
X29.608 Y25.564
X29.635 Y25.28
X29.658 Y24.995
X29.678 Y24.71
X29.694 Y24.425
X29.708 Y24.14
X29.72 Y23.854
X29.73 Y23.569
X29.739 Y23.284
X29.746 Y22.998
X29.752 Y22.713
X29.758 Y22.427
X29.762 Y22.141
X29.766 Y21.856
X29.769 Y21.57
X29.772 Y21.285
X29.774 Y20.999
X29.776 Y20.714
X29.777 Y20.428
X29.779 Y20.143
X29.781 Y19.571
X29.782 Y19
X29.784 Y18.143
X29.785 Y17.001
Y16.43
X29.786 Y15.573
X29.788 Y15.288
X29.799 Y15.002
X29.824 Y14.718
X29.826 Y14.704
X29.896 Y14.494
X30.03 Y14.318
X30.214 Y14.195
X30.427 Y14.137
X30.478 Y14.126
G3 X30.751 Y14.651 I0.054 J0.305
G1 X30.702 Y14.7 Z-0.982
X30.656 Y14.746 Z-0.959
X30.614 Y14.787 Z-0.922
X30.579 Y14.822 Z-0.873
X30.553 Y14.848 Z-0.815
X30.537 Y14.864 Z-0.749
X30.531 Y14.87 Z-0.68
G0 Z5
X3.543 Y13.619
Z-0.37
G1 Z-0.68 F1000
X3.551 Y13.62 Z-0.749
X3.574 Y13.621 Z-0.815
X3.611 Y13.623 Z-0.873
X3.66 Y13.626 Z-0.922
X3.719 Y13.629 Z-0.959
X3.784 Y13.632 Z-0.982
X3.853 Y13.636 Z-0.99
G3 X4.602 Y13.871 I-0.085 J1.58
G1 X4.695 Y13.934
X4.788 Y13.986
X4.881 Y14.031
X4.974 Y14.064
X5.067 Y14.096
X5.16 Y14.117
X5.242 Y14.139
X5.322 Y14.168
X5.41 Y14.207
X5.504 Y14.258
X5.607 Y14.326
X5.716 Y14.411
X5.831 Y14.517
X5.955 Y14.651
X6.083 Y14.812
X6.216 Y15.012
X6.354 Y15.261
X6.472 Y15.521
X6.572 Y15.788
X6.658 Y16.061
X6.731 Y16.337
X6.792 Y16.616
X6.845 Y16.896
X6.889 Y17.178
X6.927 Y17.462
X6.959 Y17.745
X6.986 Y18.03
X7.009 Y18.314
X7.029 Y18.599
X7.045 Y18.884
X7.059 Y19.17
X7.071 Y19.455
X7.081 Y19.74
X7.089 Y20.026
X7.096 Y20.311
X7.102 Y20.597
X7.107 Y20.882
X7.111 Y21.168
X7.115 Y21.453
X7.118 Y21.739
X7.12 Y22.025
X7.122 Y22.31
X7.124 Y22.596
X7.126 Y22.881
X7.127 Y23.167
X7.129 Y23.738
X7.13 Y24.309
X7.131 Y25.166
X7.132 Y25.451
X7.136 Y25.737
X7.179 Y26.019
X7.268 Y26.291
X7.398 Y26.545
X7.564 Y26.778
X7.758 Y26.987
X7.974 Y27.174
X8.207 Y27.338
X8.454 Y27.482
X8.71 Y27.608
X8.974 Y27.717
X9.244 Y27.811
X9.518 Y27.892
X9.795 Y27.962
X10.074 Y28.021
X10.355 Y28.073
X10.637 Y28.116
X10.92 Y28.154
X11.204 Y28.186
X11.488 Y28.213
X11.773 Y28.236
X12.058 Y28.256
X12.343 Y28.273
X12.628 Y28.287
X12.914 Y28.299
X13.199 Y28.309
X13.485 Y28.318
X13.77 Y28.326
X14.056 Y28.332
X14.341 Y28.337
X14.627 Y28.342
X14.912 Y28.346
X15.198 Y28.349
X15.483 Y28.352
X15.769 Y28.354
X16.054 Y28.356
X16.34 Y28.358
X16.626 Y28.359
X17.197 Y28.362
X17.768 Y28.363
X18.625 Y28.365
X19.767 Y28.366
X21.48 Y28.367
X24.907 Y28.368
X25.764 Y28.367
X26.049 Y28.348
X26.327 Y28.284
X26.592 Y28.176
X26.836 Y28.028
X27.058 Y27.848
X27.257 Y27.643
X27.433 Y27.418
X27.587 Y27.178
X27.723 Y26.927
X27.84 Y26.666
X27.942 Y26.4
X28.03 Y26.128
X28.105 Y25.852
X28.17 Y25.574
X28.226 Y25.294
X28.273 Y25.013
X28.314 Y24.73
X28.349 Y24.446
X28.378 Y24.162
X28.404 Y23.878
X28.425 Y23.593
X28.443 Y23.308
X28.459 Y23.023
X28.472 Y22.738
X28.483 Y22.452
X28.493 Y22.167
X28.501 Y21.881
X28.508 Y21.596
X28.514 Y21.31
X28.519 Y21.025
X28.523 Y20.739
X28.527 Y20.454
X28.53 Y20.168
X28.532 Y19.883
X28.534 Y19.597
X28.536 Y19.312
X28.538 Y19.026
X28.539 Y18.74
X28.541 Y18.169
X28.542 Y17.598
X28.544 Y16.741
X28.545 Y16.456
X28.548 Y16.17
X28.555 Y15.885
X28.568 Y15.599
X28.596 Y15.315
X28.635 Y15.067
X28.694 Y14.825
X28.759 Y14.628
X28.771 Y14.599
X28.88 Y14.419
X29.037 Y14.277
X29.229 Y14.187
X29.438 Y14.156
X30.055
X30.148
G3 X30.309 Y14.725 I-0.009 J0.31
G1 X30.251 Y14.763 Z-0.982
X30.196 Y14.799 Z-0.959
X30.147 Y14.831 Z-0.922
X30.106 Y14.858 Z-0.873
X30.075 Y14.878 Z-0.815
X30.055 Y14.891 Z-0.749
X30.049 Y14.895 Z-0.68
G0 Z5
X4.083 Y14.276
Z-0.37
G1 Z-0.68 F1000
X4.09 Y14.273 Z-0.749
X4.112 Y14.266 Z-0.815
X4.147 Y14.254 Z-0.873
X4.193 Y14.238 Z-0.922
X4.249 Y14.219 Z-0.959
X4.311 Y14.198 Z-0.982
X4.376 Y14.176 Z-0.99
G3 X5.16 Y14.117 I0.507 J1.499
G1 X5.252 Y14.137
X5.345 Y14.146
X5.438 Y14.155
X5.531 Y14.156
X5.624
X5.81
X5.891 Y14.161
X5.977 Y14.172
X6.066 Y14.191
X6.167 Y14.221
X6.276 Y14.263
X6.391 Y14.319
X6.516 Y14.393
X6.647 Y14.485
X6.783 Y14.598
X6.929 Y14.74
X7.079 Y14.912
X7.232 Y15.119
X7.383 Y15.362
X7.515 Y15.615
X7.63 Y15.877
X7.731 Y16.144
X7.818 Y16.416
X7.894 Y16.691
X7.96 Y16.969
X8.017 Y17.249
X8.067 Y17.53
X8.11 Y17.812
X8.147 Y18.095
X8.179 Y18.379
X8.207 Y18.663
X8.231 Y18.948
X8.251 Y19.233
X8.269 Y19.518
X8.284 Y19.803
X8.297 Y20.088
X8.308 Y20.374
X8.318 Y20.659
X8.326 Y20.945
X8.333 Y21.23
X8.339 Y21.516
X8.344 Y21.801
X8.349 Y22.087
X8.352 Y22.372
X8.355 Y22.658
X8.358 Y22.943
X8.36 Y23.229
X8.362 Y23.514
X8.364 Y23.8
X8.365 Y24.086
X8.367 Y24.371
X8.394 Y24.655
X8.466 Y24.932
X8.58 Y25.194
X8.733 Y25.435
X8.916 Y25.654
X9.124 Y25.85
X9.351 Y26.024
X9.592 Y26.176
X9.844 Y26.31
X10.105 Y26.426
X10.373 Y26.526
X10.645 Y26.613
X10.92 Y26.688
X11.199 Y26.752
X11.479 Y26.807
X11.761 Y26.854
X12.043 Y26.895
X12.327 Y26.929
X12.611 Y26.959
X12.895 Y26.984
X13.18 Y27.005
X13.465 Y27.023
X13.75 Y27.039
X14.035 Y27.052
X14.321 Y27.064
X14.606 Y27.073
X14.892 Y27.081
X15.177 Y27.088
X15.463 Y27.094
X15.748 Y27.099
X16.034 Y27.103
X16.319 Y27.107
X16.605 Y27.11
X16.891 Y27.113
X17.176 Y27.115
X17.462 Y27.117
X17.747 Y27.118
X18.033 Y27.12
X18.604 Y27.122
X19.175 Y27.123
X20.032 Y27.125
X21.174 Y27.126
X22.888 Y27.127
X24.316
X24.601 Y27.125
X24.885 Y27.092
X25.159 Y27.013
X25.418 Y26.891
X25.655 Y26.733
X25.87 Y26.545
X26.062 Y26.334
X26.232 Y26.104
X26.381 Y25.86
X26.511 Y25.606
X26.624 Y25.344
X26.722 Y25.076
X26.807 Y24.803
X26.879 Y24.527
X26.942 Y24.248
X26.995 Y23.968
X27.041 Y23.686
X27.081 Y23.403
X27.114 Y23.119
X27.143 Y22.835
X27.167 Y22.55
X27.188 Y22.266
X27.206 Y21.981
X27.221 Y21.695
X27.234 Y21.41
X27.245 Y21.125
X27.254 Y20.839
X27.262 Y20.554
X27.269 Y20.268
X27.274 Y19.983
X27.279 Y19.697
X27.283 Y19.412
X27.287 Y19.126
X27.29 Y18.841
X27.292 Y18.555
X27.294 Y18.27
X27.3 Y17.413
X27.302 Y17.127
X27.307 Y16.842
X27.315 Y16.556
X27.327 Y16.271
X27.347 Y15.986
X27.376 Y15.702
X27.416 Y15.419
X27.471 Y15.139
X27.542 Y14.877
X27.615 Y14.673
X27.657 Y14.581
X27.768 Y14.407
X27.924 Y14.272
X28.111 Y14.186
X28.316 Y14.156
X29.438
G3 X29.595 Y14.727 I-0.011 J0.31
G1 X29.537 Y14.764 Z-0.982
X29.482 Y14.8 Z-0.959
X29.433 Y14.832 Z-0.922
X29.391 Y14.858 Z-0.873
X29.36 Y14.878 Z-0.815
X29.341 Y14.891 Z-0.749
X29.334 Y14.895 Z-0.68
G0 Z5
X4.79 Y14.536
Z-0.37
G1 Z-0.68 F1000
X4.796 Y14.532 Z-0.749
X4.816 Y14.521 Z-0.815
X4.848 Y14.502 Z-0.873
X4.89 Y14.477 Z-0.922
X4.941 Y14.447 Z-0.959
X4.997 Y14.413 Z-0.982
X5.056 Y14.378 Z-0.99
G3 X5.81 Y14.156 I0.809 J1.36
G1 X6.739
X6.823 Y14.161
X6.921 Y14.174
X7.026 Y14.196
X7.14 Y14.23
X7.265 Y14.279
X7.396 Y14.342
X7.536 Y14.425
X7.687 Y14.531
X7.84 Y14.658
X8.002 Y14.816
X8.172 Y15.01
X8.342 Y15.24
X8.493 Y15.482
X8.628 Y15.734
X8.747 Y15.993
X8.853 Y16.259
X8.947 Y16.528
X9.029 Y16.802
X9.102 Y17.078
X9.167 Y17.356
X9.224 Y17.636
X9.273 Y17.917
X9.317 Y18.199
X9.356 Y18.482
X9.389 Y18.766
X9.419 Y19.05
X9.445 Y19.334
X9.467 Y19.619
X9.487 Y19.904
X9.504 Y20.189
X9.519 Y20.474
X9.532 Y20.76
X9.543 Y21.045
X9.552 Y21.33
X9.561 Y21.616
X9.568 Y21.901
X9.575 Y22.187
X9.58 Y22.472
X9.585 Y22.758
X9.589 Y23.043
X9.608 Y23.328
X9.669 Y23.607
X9.773 Y23.873
X9.916 Y24.12
X10.092 Y24.346
X10.293 Y24.548
X10.515 Y24.728
X10.752 Y24.887
X11.002 Y25.026
X11.26 Y25.147
X11.526 Y25.252
X11.797 Y25.343
X12.071 Y25.422
X12.349 Y25.489
X12.628 Y25.547
X12.909 Y25.597
X13.192 Y25.64
X13.475 Y25.676
X13.759 Y25.707
X14.043 Y25.734
X14.328 Y25.757
X14.613 Y25.776
X14.898 Y25.793
X15.183 Y25.807
X15.469 Y25.819
X15.754 Y25.829
X16.039 Y25.838
X16.325 Y25.845
X16.61 Y25.851
X16.896 Y25.857
X17.181 Y25.861
X17.467 Y25.865
X17.753 Y25.869
X18.038 Y25.871
X18.324 Y25.874
X18.609 Y25.876
X18.895 Y25.878
X19.18 Y25.879
X19.752 Y25.881
X20.323 Y25.883
X21.179 Y25.885
X22.036 Y25.886
X22.893 Y25.887
X23.179
X23.464 Y25.875
X23.745 Y25.824
X24.014 Y25.728
X24.264 Y25.591
X24.494 Y25.42
X24.7 Y25.223
X24.883 Y25.004
X25.045 Y24.769
X25.187 Y24.521
X25.311 Y24.264
X25.418 Y23.999
X25.511 Y23.729
X25.591 Y23.455
X25.66 Y23.178
X25.719 Y22.898
X25.77 Y22.617
X25.814 Y22.335
X25.851 Y22.052
X25.883 Y21.768
X25.91 Y21.484
X25.933 Y21.199
X25.953 Y20.914
X25.97 Y20.629
X25.984 Y20.344
X25.997 Y20.059
X26.007 Y19.773
X26.016 Y19.488
X26.024 Y19.202
X26.03 Y18.917
X26.036 Y18.631
X26.046 Y18.06
X26.051 Y17.775
X26.058 Y17.489
X26.067 Y17.204
X26.079 Y16.918
X26.095 Y16.633
X26.116 Y16.349
X26.144 Y16.064
X26.181 Y15.781
X26.228 Y15.5
X26.288 Y15.22
X26.365 Y14.945
X26.444 Y14.722
X26.506 Y14.584
X26.617 Y14.409
X26.773 Y14.273
X26.961 Y14.186
X27.166 Y14.156
X28.316
G3 X28.473 Y14.727 I-0.011 J0.31
G1 X28.415 Y14.764 Z-0.982
X28.36 Y14.8 Z-0.959
X28.311 Y14.832 Z-0.922
X28.269 Y14.858 Z-0.873
X28.238 Y14.878 Z-0.815
X28.219 Y14.891 Z-0.749
X28.213 Y14.895 Z-0.68
G0 Z5
X5.719 Y14.536
Z-0.37
G1 Z-0.68 F1000
X5.725 Y14.532 Z-0.749
X5.745 Y14.521 Z-0.815
X5.777 Y14.502 Z-0.873
X5.819 Y14.477 Z-0.922
X5.87 Y14.447 Z-0.959
X5.926 Y14.413 Z-0.982
X5.985 Y14.378 Z-0.99
G3 X6.739 Y14.156 I0.809 J1.36
G1 X7.761
X7.843 Y14.161
X7.941 Y14.174
X8.058 Y14.198
X8.177 Y14.234
X8.312 Y14.287
X8.45 Y14.354
X8.604 Y14.444
X8.761 Y14.555
X8.928 Y14.693
X9.105 Y14.865
X9.287 Y15.075
X9.457 Y15.304
X9.61 Y15.546
X9.747 Y15.796
X9.871 Y16.054
X9.981 Y16.317
X10.08 Y16.585
X10.168 Y16.857
X10.247 Y17.131
X10.318 Y17.408
X10.38 Y17.686
X10.436 Y17.966
X10.486 Y18.248
X10.53 Y18.53
X10.569 Y18.813
X10.603 Y19.096
X10.634 Y19.38
X10.661 Y19.664
X10.685 Y19.949
X10.706 Y20.234
X10.725 Y20.519
X10.741 Y20.804
X10.755 Y21.089
X10.768 Y21.374
X10.779 Y21.66
X10.792 Y21.945
X10.837 Y22.227
X10.923 Y22.499
X11.05 Y22.755
X11.212 Y22.991
X11.401 Y23.204
X11.614 Y23.395
X11.844 Y23.564
X12.088 Y23.712
X12.343 Y23.842
X12.605 Y23.955
X12.873 Y24.053
X13.146 Y24.138
X13.422 Y24.211
X13.7 Y24.274
X13.981 Y24.329
X14.262 Y24.375
X14.545 Y24.415
X14.829 Y24.449
X15.113 Y24.478
X15.397 Y24.503
X15.682 Y24.524
X15.967 Y24.543
X16.252 Y24.558
X16.538 Y24.571
X16.823 Y24.583
X17.108 Y24.592
X17.394 Y24.6
X17.679 Y24.607
X17.965 Y24.613
X18.25 Y24.618
X18.536 Y24.623
X18.821 Y24.626
X19.107 Y24.63
X19.393 Y24.632
X19.678 Y24.635
X19.964 Y24.636
X20.249 Y24.638
X20.535 Y24.64
X21.106 Y24.642
X21.677 Y24.643
X21.963 Y24.644
X22.248 Y24.629
X22.528 Y24.572
X22.795 Y24.472
X23.044 Y24.331
X23.271 Y24.158
X23.475 Y23.958
X23.656 Y23.737
X23.816 Y23.501
X23.956 Y23.252
X24.078 Y22.994
X24.185 Y22.729
X24.276 Y22.458
X24.355 Y22.184
X24.424 Y21.907
X24.482 Y21.627
X24.533 Y21.346
X24.576 Y21.064
X24.612 Y20.78
X24.644 Y20.497
X24.671 Y20.212
X24.694 Y19.928
X24.714 Y19.643
X24.731 Y19.358
X24.745 Y19.072
X24.759 Y18.787
X24.771 Y18.502
X24.783 Y18.217
X24.795 Y17.931
X24.809 Y17.646
X24.825 Y17.361
X24.843 Y17.076
X24.865 Y16.791
X24.892 Y16.507
X24.924 Y16.223
X24.964 Y15.94
X25.013 Y15.659
X25.071 Y15.379
X25.143 Y15.103
X25.231 Y14.831
X25.321 Y14.614
X25.353 Y14.551
X25.467 Y14.388
X25.62 Y14.263
X25.801 Y14.184
X25.997 Y14.156
X27.166
G3 X27.323 Y14.727 I-0.011 J0.31
G1 X27.265 Y14.764 Z-0.982
X27.21 Y14.8 Z-0.959
X27.161 Y14.832 Z-0.922
X27.12 Y14.858 Z-0.873
X27.089 Y14.878 Z-0.815
X27.069 Y14.891 Z-0.749
X27.063 Y14.895 Z-0.68
G0 Z5
X6.741 Y14.536
Z-0.37
G1 Z-0.68 F1000
X6.747 Y14.532 Z-0.749
X6.767 Y14.521 Z-0.815
X6.799 Y14.502 Z-0.873
X6.841 Y14.477 Z-0.922
X6.891 Y14.447 Z-0.959
X6.948 Y14.413 Z-0.982
X7.007 Y14.378 Z-0.99
G3 X7.761 Y14.156 I0.809 J1.36
G1 X8.782
X8.906 Y14.163
X9.011 Y14.176
X9.128 Y14.201
X9.256 Y14.24
X9.393 Y14.293
X9.54 Y14.364
X9.7 Y14.459
X9.864 Y14.574
X10.041 Y14.72
X10.226 Y14.901
X10.414 Y15.116
X10.584 Y15.346
X10.738 Y15.586
X10.878 Y15.835
X11.005 Y16.091
X11.119 Y16.353
X11.221 Y16.619
X11.314 Y16.889
X11.398 Y17.162
X11.473 Y17.438
X11.541 Y17.715
X11.601 Y17.994
X11.656 Y18.275
X11.705 Y18.556
X11.748 Y18.838
X11.788 Y19.121
X11.823 Y19.405
X11.854 Y19.689
X11.882 Y19.973
X11.907 Y20.257
X11.929 Y20.542
X11.963 Y20.825
X12.033 Y21.102
X12.143 Y21.366
X12.288 Y21.612
X12.464 Y21.837
X12.665 Y22.039
X12.886 Y22.22
X13.123 Y22.38
X13.372 Y22.521
X13.63 Y22.643
X13.894 Y22.75
X14.165 Y22.843
X14.439 Y22.923
X14.716 Y22.992
X14.995 Y23.052
X15.276 Y23.103
X15.558 Y23.148
X15.841 Y23.185
X16.125 Y23.218
X16.409 Y23.245
X16.694 Y23.269
X16.979 Y23.289
X17.264 Y23.307
X17.549 Y23.322
X17.834 Y23.334
X18.119 Y23.345
X18.405 Y23.354
X18.69 Y23.362
X18.976 Y23.369
X19.261 Y23.375
X19.547 Y23.379
X19.832 Y23.384
X20.118 Y23.387
X20.404 Y23.39
X20.689 Y23.393
X20.975 Y23.382
X21.256 Y23.332
X21.525 Y23.236
X21.776 Y23.1
X22.005 Y22.93
X22.212 Y22.732
X22.395 Y22.514
X22.558 Y22.279
X22.7 Y22.031
X22.824 Y21.774
X22.932 Y21.51
X23.025 Y21.24
X23.106 Y20.966
X23.175 Y20.689
X23.235 Y20.409
X23.287 Y20.129
X23.331 Y19.846
X23.369 Y19.563
X23.403 Y19.28
X23.433 Y18.996
X23.46 Y18.712
X23.485 Y18.427
X23.532 Y17.858
X23.557 Y17.573
X23.583 Y17.289
X23.611 Y17.005
X23.643 Y16.721
X23.68 Y16.438
X23.722 Y16.155
X23.77 Y15.874
X23.827 Y15.594
X23.893 Y15.316
X23.972 Y15.042
X24.068 Y14.773
X24.163 Y14.56
X24.178 Y14.533
X24.292 Y14.377
X24.444 Y14.258
X24.621 Y14.182
X24.813 Y14.156
X25.997
G3 X26.155 Y14.727 I-0.011 J0.31
G1 X26.097 Y14.764 Z-0.982
X26.042 Y14.8 Z-0.959
X25.992 Y14.832 Z-0.922
X25.951 Y14.858 Z-0.873
X25.92 Y14.878 Z-0.815
X25.901 Y14.891 Z-0.749
X25.894 Y14.895 Z-0.68
G0 Z5
X7.762 Y14.536
Z-0.37
G1 Z-0.68 F1000
X7.769 Y14.532 Z-0.749
X7.789 Y14.521 Z-0.815
X7.821 Y14.502 Z-0.873
X7.863 Y14.477 Z-0.922
X7.913 Y14.447 Z-0.959
X7.97 Y14.413 Z-0.982
X8.029 Y14.378 Z-0.99
G3 X8.782 Y14.156 I0.809 J1.36
G1 X9.897
X9.996 Y14.161
X10.107 Y14.176
X10.224 Y14.201
X10.358 Y14.241
X10.497 Y14.295
X10.65 Y14.369
X10.814 Y14.466
X10.985 Y14.586
X11.168 Y14.738
X11.36 Y14.926
X11.548 Y15.141
X11.719 Y15.37
X11.875 Y15.609
X12.017 Y15.857
X12.146 Y16.112
X12.263 Y16.372
X12.369 Y16.637
X12.466 Y16.906
X12.553 Y17.178
X12.633 Y17.452
X12.704 Y17.729
X12.769 Y18.007
X12.828 Y18.286
X12.881 Y18.567
X12.929 Y18.849
X12.972 Y19.131
X13.014 Y19.413
X13.076 Y19.692
X13.172 Y19.961
X13.302 Y20.215
X13.464 Y20.45
X13.653 Y20.665
X13.864 Y20.858
X14.092 Y21.029
X14.333 Y21.182
X14.586 Y21.315
X14.846 Y21.432
X15.113 Y21.534
X15.385 Y21.623
X15.66 Y21.7
X15.937 Y21.766
X16.217 Y21.823
X16.499 Y21.872
X16.781 Y21.915
X17.064 Y21.951
X17.348 Y21.982
X17.632 Y22.009
X17.917 Y22.032
X18.202 Y22.052
X18.487 Y22.069
X18.772 Y22.083
X19.058 Y22.096
X19.343 Y22.106
X19.628 Y22.111
X19.912 Y22.081
X20.187 Y22.004
X20.446 Y21.883
X20.684 Y21.725
X20.9 Y21.538
X21.092 Y21.327
X21.262 Y21.097
X21.412 Y20.854
X21.543 Y20.6
X21.657 Y20.339
X21.756 Y20.071
X21.842 Y19.799
X21.918 Y19.523
X21.984 Y19.245
X22.042 Y18.966
X22.094 Y18.685
X22.141 Y18.403
X22.185 Y18.121
X22.227 Y17.839
X22.308 Y17.273
X22.35 Y16.991
X22.394 Y16.708
X22.441 Y16.427
X22.492 Y16.146
X22.548 Y15.866
X22.612 Y15.587
X22.684 Y15.311
X22.767 Y15.038
X22.867 Y14.77
X22.927 Y14.641
X22.974 Y14.548
X23.088 Y14.387
X23.241 Y14.262
X23.422 Y14.183
X23.617 Y14.156
X24.813
G3 X24.97 Y14.727 I-0.011 J0.31
G1 X24.912 Y14.764 Z-0.982
X24.857 Y14.8 Z-0.959
X24.808 Y14.832 Z-0.922
X24.766 Y14.858 Z-0.873
X24.735 Y14.878 Z-0.815
X24.716 Y14.891 Z-0.749
X24.709 Y14.895 Z-0.68
G0 Z5
X8.877 Y14.536
Z-0.37
G1 Z-0.68 F1000
X8.884 Y14.532 Z-0.749
X8.904 Y14.521 Z-0.815
X8.935 Y14.502 Z-0.873
X8.977 Y14.477 Z-0.922
X9.028 Y14.447 Z-0.959
X9.084 Y14.413 Z-0.982
X9.144 Y14.378 Z-0.99
G3 X9.897 Y14.156 I0.809 J1.36
G1 X11.012
X11.108 Y14.161
X11.223 Y14.176
X11.341 Y14.202
X11.478 Y14.243
X11.619 Y14.298
X11.776 Y14.374
X11.944 Y14.473
X12.119 Y14.596
X12.308 Y14.752
X12.506 Y14.946
X12.694 Y15.161
X12.866 Y15.389
X13.023 Y15.628
X13.166 Y15.875
X13.297 Y16.129
X13.416 Y16.388
X13.526 Y16.652
X13.625 Y16.92
X13.716 Y17.19
X13.798 Y17.464
X13.873 Y17.739
X13.942 Y18.017
X14.015 Y18.293
X14.11 Y18.562
X14.233 Y18.82
X14.385 Y19.061
X14.564 Y19.284
X14.765 Y19.487
X14.985 Y19.669
X15.219 Y19.832
X15.466 Y19.976
X15.721 Y20.103
X15.984 Y20.215
X16.253 Y20.312
X16.526 Y20.397
X16.801 Y20.471
X17.08 Y20.535
X17.36 Y20.59
X17.642 Y20.637
X17.924 Y20.679
X18.208 Y20.714
X18.493 Y20.73
X18.776 Y20.697
X19.049 Y20.612
X19.303 Y20.482
X19.536 Y20.316
X19.745 Y20.121
X19.931 Y19.905
X20.096 Y19.672
X20.241 Y19.426
X20.37 Y19.171
X20.483 Y18.909
X20.583 Y18.641
X20.673 Y18.37
X20.754 Y18.096
X20.829 Y17.821
X20.898 Y17.544
X20.963 Y17.266
X21.026 Y16.987
X21.089 Y16.708
X21.152 Y16.43
X21.217 Y16.152
X21.285 Y15.875
X21.359 Y15.599
X21.44 Y15.325
X21.53 Y15.054
X21.634 Y14.788
X21.742 Y14.56
X21.765 Y14.52
X21.88 Y14.37
X22.03 Y14.254
X22.204 Y14.181
X22.392 Y14.156
X23.617
G3 X23.775 Y14.727 I-0.011 J0.31
G1 X23.717 Y14.764 Z-0.982
X23.662 Y14.8 Z-0.959
X23.612 Y14.832 Z-0.922
X23.571 Y14.858 Z-0.873
X23.54 Y14.878 Z-0.815
X23.521 Y14.891 Z-0.749
X23.514 Y14.895 Z-0.68
G0 Z5
X9.992 Y14.536
Z-0.37
G1 Z-0.68 F1000
X9.999 Y14.532 Z-0.749
X10.018 Y14.521 Z-0.815
X10.05 Y14.502 Z-0.873
X10.092 Y14.477 Z-0.922
X10.143 Y14.447 Z-0.959
X10.199 Y14.413 Z-0.982
X10.258 Y14.378 Z-0.99
G3 X11.012 Y14.156 I0.809 J1.36
G1 X12.127
X12.237 Y14.162
X12.354 Y14.177
X12.474 Y14.203
X12.612 Y14.244
X12.756 Y14.3
X12.915 Y14.378
X13.086 Y14.478
X13.265 Y14.604
X13.458 Y14.764
X13.661 Y14.962
X13.849 Y15.178
X14.021 Y15.405
X14.179 Y15.643
X14.324 Y15.89
X14.456 Y16.143
X14.578 Y16.401
X14.689 Y16.664
X14.795 Y16.929
X14.908 Y17.191
X15.039 Y17.445
X15.193 Y17.686
X15.368 Y17.912
X15.564 Y18.119
X15.778 Y18.308
X16.007 Y18.479
X16.248 Y18.632
X16.5 Y18.767
X16.759 Y18.887
X17.024 Y18.993
X17.299 Y19.069
X17.585 Y19.073
X17.863 Y19.01
X18.125 Y18.894
X18.363 Y18.738
X18.579 Y18.551
X18.773 Y18.341
X18.946 Y18.113
X19.101 Y17.874
X19.24 Y17.624
X19.366 Y17.368
X19.481 Y17.107
X19.588 Y16.842
X19.688 Y16.574
X19.784 Y16.305
X19.878 Y16.036
X19.972 Y15.766
X20.067 Y15.497
X20.167 Y15.229
X20.274 Y14.964
X20.393 Y14.705
X20.483 Y14.537
X20.597 Y14.38
X20.749 Y14.259
X20.928 Y14.183
X21.12 Y14.156
X22.392
G3 X22.549 Y14.727 I-0.011 J0.31
G1 X22.492 Y14.764 Z-0.982
X22.436 Y14.8 Z-0.959
X22.387 Y14.832 Z-0.922
X22.346 Y14.858 Z-0.873
X22.315 Y14.878 Z-0.815
X22.296 Y14.891 Z-0.749
X22.289 Y14.895 Z-0.68
G0 Z5
X11.107 Y14.536
Z-0.37
G1 Z-0.68 F1000
X11.113 Y14.532 Z-0.749
X11.133 Y14.521 Z-0.815
X11.165 Y14.502 Z-0.873
X11.207 Y14.477 Z-0.922
X11.257 Y14.447 Z-0.959
X11.314 Y14.413 Z-0.982
X11.373 Y14.378 Z-0.99
G3 X12.127 Y14.156 I0.809 J1.36
G1 X13.241
X13.379 Y14.163
X13.409 Y14.165
X13.439 Y14.167
X13.469 Y14.171
X13.499 Y14.174
X13.528 Y14.178
X13.558 Y14.183
X13.587 Y14.189
X13.617 Y14.195
X13.646 Y14.202
X13.675 Y14.209
X13.704 Y14.216
X13.733 Y14.225
X13.762 Y14.233
X13.79 Y14.242
X13.819 Y14.252
X13.847 Y14.262
X13.875 Y14.272
X13.903 Y14.283
X13.931 Y14.295
X13.958 Y14.306
X13.986 Y14.319
X14.013 Y14.331
X14.04 Y14.344
X14.067 Y14.357
X14.094 Y14.371
X14.12 Y14.385
X14.147 Y14.399
X14.173 Y14.414
X14.199 Y14.429
X14.225 Y14.444
X14.25 Y14.46
X14.276 Y14.475
X14.301 Y14.492
X14.326 Y14.508
X14.351 Y14.525
X14.376 Y14.542
X14.4 Y14.559
X14.425 Y14.577
X14.449 Y14.594
X14.473 Y14.612
X14.497 Y14.631
X14.52 Y14.649
X14.544 Y14.668
X14.567 Y14.687
X14.59 Y14.706
X14.613 Y14.726
X14.635 Y14.745
X14.658 Y14.765
X14.68 Y14.785
X14.702 Y14.805
X14.724 Y14.826
X14.746 Y14.846
X14.768 Y14.867
X14.789 Y14.888
X14.811 Y14.909
X14.832 Y14.931
X14.853 Y14.952
X14.873 Y14.974
X14.894 Y14.996
X14.914 Y15.018
X14.935 Y15.04
X14.956 Y15.063
X14.975 Y15.085
X14.996 Y15.108
X15.016 Y15.132
X15.037 Y15.157
X15.058 Y15.182
X15.08 Y15.208
X15.102 Y15.235
X15.125 Y15.264
X15.15 Y15.296
X15.176 Y15.33
X15.203 Y15.364
X15.23 Y15.4
X15.267 Y15.45
X15.309 Y15.508
X15.389 Y15.619
X15.554 Y15.852
X15.722 Y16.083
X15.9 Y16.307
X16.091 Y16.519
X16.194 Y16.618
X16.307 Y16.706
X16.435 Y16.769
X16.573 Y16.805
X16.715 Y16.814
X16.998 Y16.776
X17.014 Y16.768
X17.268 Y16.636
X17.499 Y16.469
X17.71 Y16.276
X17.902 Y16.065
X18.079 Y15.84
X18.243 Y15.607
X18.399 Y15.368
X18.549 Y15.124
X18.636 Y14.98
X18.711 Y14.858
X18.762 Y14.777
X18.798 Y14.721
X18.828 Y14.674
X18.854 Y14.634
X18.878 Y14.598
X18.9 Y14.566
X18.921 Y14.535
X18.942 Y14.505
X18.964 Y14.474
X18.977 Y14.457
X19.137 Y14.296
X19.339 Y14.192
X19.563 Y14.156
X21.12
G3 X21.278 Y14.727 I-0.011 J0.31
G1 X21.22 Y14.764 Z-0.982
X21.165 Y14.8 Z-0.959
X21.115 Y14.832 Z-0.922
X21.074 Y14.858 Z-0.873
X21.043 Y14.878 Z-0.815
X21.024 Y14.891 Z-0.749
X21.017 Y14.895 Z-0.68
G0 Z5
X12.221 Y14.536
Z-0.37
G1 Z-0.68 F1000
X12.228 Y14.532 Z-0.749
X12.248 Y14.521 Z-0.815
X12.28 Y14.502 Z-0.873
X12.322 Y14.477 Z-0.922
X12.372 Y14.447 Z-0.959
X12.429 Y14.413 Z-0.982
X12.488 Y14.378 Z-0.99
G3 X13.241 Y14.156 I0.809 J1.36
G1 X14.449
X14.586 Y14.163
X14.702 Y14.179
X14.83 Y14.206
X14.972 Y14.249
X15.132 Y14.311
X15.315 Y14.4
X15.438 Y14.472
X15.705 Y14.574
X15.991 Y14.582
X16.271 Y14.529
X16.54 Y14.433
X16.796 Y14.307
X16.891 Y14.253
X17.005 Y14.2
X17.126 Y14.167
X17.252 Y14.156
G3 X17.241 Y14.776 I-0.011 J0.31
G1 X14.46
G3 X14.449 Y14.156 I0 J-0.31
G1 X19.563
G3 X19.862 Y14.466 I-0.011 J0.31
G1 X19.849 Y14.518 Z-0.985
X19.836 Y14.569 Z-0.971
X19.824 Y14.616 Z-0.947
X19.789 Y14.654 Z-0.909
X19.76 Y14.685 Z-0.861
X19.738 Y14.708 Z-0.805
X19.725 Y14.722 Z-0.744
X19.721 Y14.727 Z-0.681
G0 Z5
X1.598 Y1.305
Z-0.356
G1 Z-0.666 F1000
X1.603 Y1.31 Z-0.734
X1.62 Y1.326 Z-0.8
X1.647 Y1.352 Z-0.859
X1.682 Y1.386 Z-0.908
X1.724 Y1.426 Z-0.945
X1.772 Y1.472 Z-0.968
X1.821 Y1.519 Z-0.976
G3 X2.917 Y2.826 I-5.481 J5.709
G1 X2.922 Y2.834
Y2.843
X2.918 Y2.851
X2.847 Y2.932
X2.774 Y3.025
X2.715 Y3.117
X2.659 Y3.21
X2.558 Y3.403
X2.516 Y3.489
X2.47 Y3.582
X2.466 Y3.592
X2.434 Y3.675
X2.401 Y3.768
X2.374 Y3.861
X2.352 Y3.954
X2.329 Y4.046
X2.305 Y4.139
X2.281 Y4.232
X2.28 Y4.24
X2.265 Y4.325
X2.251 Y4.418
X2.245 Y4.511
X2.242 Y4.604
X2.246 Y4.697
X2.252 Y4.79
X2.276 Y4.976
X2.393 Y5.812
X2.42 Y5.998
X2.434 Y6.09
X2.448 Y6.183
X2.466 Y6.291
X2.494 Y6.462
X2.965 Y9.249
X2.997 Y9.435
X3.014 Y9.528
X3.082 Y9.9
X3.102 Y9.992
X3.121 Y10.085
X3.142 Y10.178
X3.183 Y10.364
X3.226 Y10.55
X3.466 Y11.572
X3.488 Y11.665
X3.512 Y11.758
X3.536 Y11.851
X3.591 Y12.036
X3.649 Y12.222
X3.673 Y12.284
X3.726 Y12.408
X3.766 Y12.501
X3.81 Y12.594
X3.859 Y12.688
X3.962 Y12.872
X4.045 Y13.019
X4.068 Y13.058
X4.138 Y13.16
X4.202 Y13.244
X4.323 Y13.372
X4.385 Y13.43
X4.509 Y13.533
X4.602 Y13.603
X4.695 Y13.66
X4.792 Y13.709
X4.881 Y13.751
X4.974 Y13.787
X5.067 Y13.815
X5.16 Y13.835
X5.252 Y13.853
X5.345 Y13.861
X5.438 Y13.869
X5.624 Y13.87
X30.055
X30.241 Y13.869
X30.334 Y13.861
X30.427 Y13.853
X30.52 Y13.835
X30.613 Y13.815
X30.706 Y13.787
X30.799 Y13.751
X30.892 Y13.707
X30.984 Y13.66
X31.077 Y13.603
X31.17 Y13.532
X31.291 Y13.43
X31.356 Y13.368
X31.474 Y13.244
X31.542 Y13.157
X31.609 Y13.058
X31.635 Y13.016
X31.728 Y12.854
X31.822 Y12.687
X31.87 Y12.594
X31.914 Y12.501
X31.953 Y12.408
X32.006 Y12.282
X32.029 Y12.222
X32.059 Y12.129
X32.088 Y12.036
X32.141 Y11.851
X32.166 Y11.758
X32.192 Y11.657
X32.213 Y11.572
X32.454 Y10.55
X32.497 Y10.364
X32.539 Y10.178
X32.559 Y10.085
X32.579 Y9.992
X32.598 Y9.9
X32.668 Y9.528
X32.684 Y9.435
X32.731 Y9.156
X33.184 Y6.462
X33.215 Y6.276
X33.23 Y6.183
X33.244 Y6.09
X33.258 Y5.998
X33.284 Y5.812
X33.401 Y4.976
X33.425 Y4.79
X33.431 Y4.697
X33.435 Y4.604
X33.432 Y4.511
X33.426 Y4.418
X33.413 Y4.325
X33.4 Y4.25
X33.396 Y4.232
X33.372 Y4.139
X33.347 Y4.046
X33.324 Y3.954
X33.303 Y3.861
X33.277 Y3.768
X33.244 Y3.675
X33.214 Y3.596
X33.207 Y3.582
X33.02 Y3.21
X32.963 Y3.117
X32.905 Y3.025
X32.832 Y2.932
X32.749 Y2.839
X32.564 Y2.643
X32.481 Y2.56
G3 X32.921 Y2.123 I0.22 J-0.219
X32.481 Y2.56 I-0.22 J0.219
X32.397 Y2.404 I0.22 J-0.219
G1 X32.31 Y1.978
G3 X32.917 Y1.854 I0.304 J-0.062
X32.679 Y2.219 I-0.304 J0.062
X31.894 Y2.188 I-0.333 J-1.547
G1 X31.82 Y2.164
X31.728 Y2.139
X31.635 Y2.116
X31.263 Y2.029
X31.077 Y1.986
X30.984 Y1.971
X30.892 Y1.957
X30.799 Y1.951
X30.706 Y1.948
X30.613 Y1.947
X5.067
X4.974 Y1.948
X4.881 Y1.951
X4.788 Y1.957
X4.695 Y1.971
X4.602 Y1.986
X4.416 Y2.028
X4.231 Y2.072
X4.045 Y2.117
X3.952 Y2.14
X3.859 Y2.166
X3.792 Y2.188
X3.673 Y2.237
X3.616 Y2.255
X3.556 Y2.261
X3.555
G3 X3.287 Y1.795 I0 J-0.31
X3.541 Y1.942 I0.127 J0.074
X3.389 Y2.014 I-0.127 J-0.074
X3.494 Y1.402 I0.052 J-0.306
X3.735 Y1.809 I-0.052 J0.306
X3.302 Y2.465 I-1.495 J-0.518
G1 X3.299 Y2.467
X3.209 Y2.551
X3.116 Y2.643
X3.018 Y2.746
X2.929 Y2.839
X2.918 Y2.851
X2.871 Y2.892
X2.816 Y2.922
X2.757 Y2.941
X2.695 Y2.947
X2.694
X2.638 Y2.942
X2.584 Y2.927
X2.534 Y2.903
X2.488 Y2.87
X2.458 Y2.825 Z-0.971
X2.429 Y2.782 Z-0.956
X2.402 Y2.742 Z-0.933
X2.395 Y2.702 Z-0.905
X2.389 Y2.667 Z-0.87
X2.384 Y2.637 Z-0.83
X2.386 Y2.611 Z-0.779
X2.387 Y2.596 Z-0.723
Y2.59 Z-0.666
G0 Z5
X1.619 Y1.305
Z-0.341
G1 Z-0.651 F1000
X1.625 Y1.31 Z-0.72
X1.641 Y1.326 Z-0.785
X1.668 Y1.352 Z-0.844
X1.703 Y1.386 Z-0.893
X1.746 Y1.427 Z-0.93
X1.793 Y1.472 Z-0.953
X1.843 Y1.52 Z-0.961
G3 X2.938 Y2.826 I-5.482 J5.708
G1 X2.943 Y2.834
Y2.844
X2.939 Y2.852
X2.868 Y2.932
X2.837 Y2.97
X2.796 Y3.025
X2.681 Y3.21
X2.651 Y3.267
X2.584 Y3.396
X2.558 Y3.447
X2.493 Y3.582
X2.466 Y3.647
X2.422 Y3.768
X2.396 Y3.861
X2.373 Y3.959
X2.351 Y4.046
X2.326 Y4.139
X2.303 Y4.232
X2.28 Y4.344
X2.271 Y4.418
X2.264 Y4.511
X2.26 Y4.604
X2.264 Y4.697
X2.269 Y4.79
X2.28 Y4.883
X2.385 Y5.626
X2.412 Y5.812
X2.442 Y5.998
X2.474 Y6.183
X2.961 Y9.063
X2.994 Y9.249
X3.028 Y9.435
X3.045 Y9.528
X3.063 Y9.621
X3.081 Y9.714
X3.164 Y10.085
X3.186 Y10.178
X3.469 Y11.386
X3.487 Y11.457
X3.519 Y11.572
X3.545 Y11.665
X3.58 Y11.785
X3.601 Y11.851
X3.634 Y11.943
X3.668 Y12.036
X3.75 Y12.222
X3.766 Y12.257
X3.845 Y12.408
X3.859 Y12.434
X3.952 Y12.6
X4.002 Y12.687
X4.057 Y12.78
X4.118 Y12.872
X4.138 Y12.9
X4.189 Y12.965
X4.231 Y13.012
X4.323 Y13.105
X4.374 Y13.151
X4.416 Y13.187
X4.509 Y13.262
X4.602 Y13.326
X4.62 Y13.337
X4.695 Y13.385
X4.789 Y13.43
X4.881 Y13.472
X4.974 Y13.504
X5.067 Y13.533
X5.16 Y13.555
X5.252 Y13.57
X5.438 Y13.583
X5.996
X30.148
X30.241
X30.427 Y13.57
X30.52 Y13.555
X30.613 Y13.533
X30.706 Y13.504
X30.799 Y13.472
X30.892 Y13.429
X30.984 Y13.385
X31.06 Y13.337
X31.077 Y13.326
X31.17 Y13.262
X31.192 Y13.244
X31.263 Y13.186
X31.302 Y13.151
X31.356 Y13.101
X31.449 Y13.009
X31.487 Y12.965
X31.542 Y12.896
X31.559 Y12.872
X31.621 Y12.78
X31.676 Y12.687
X31.73 Y12.594
X31.82 Y12.435
X31.835 Y12.408
X31.913 Y12.259
X31.93 Y12.222
X32.01 Y12.036
X32.044 Y11.943
X32.078 Y11.851
X32.099 Y11.782
X32.133 Y11.665
X32.159 Y11.572
X32.192 Y11.452
X32.209 Y11.386
X32.495 Y10.178
X32.516 Y10.085
X32.599 Y9.714
X32.618 Y9.621
X32.653 Y9.435
X32.67 Y9.342
X32.688 Y9.249
X32.72 Y9.063
X33.22 Y6.09
X33.251 Y5.905
X33.266 Y5.812
X33.293 Y5.626
X33.397 Y4.883
X33.4 Y4.862
X33.408 Y4.79
X33.414 Y4.697
X33.417 Y4.604
X33.413 Y4.511
X33.407 Y4.418
X33.4 Y4.357
X33.374 Y4.232
X33.351 Y4.139
X33.326 Y4.046
X33.307 Y3.971
X33.281 Y3.861
X33.256 Y3.768
X33.214 Y3.65
X33.184 Y3.582
X33.121 Y3.454
X33.092 Y3.396
X33.028 Y3.269
X32.998 Y3.21
X32.883 Y3.025
X32.842 Y2.971
X32.811 Y2.932
X32.728 Y2.839
X32.552 Y2.653
X32.471 Y2.572
G3 X32.637 Y2.047 I0.219 J-0.219
X32.683 Y2.316 I0.023 J0.134
X32.551 Y2.263 I-0.023 J-0.134
X33.048 Y1.891 I0.248 J-0.186
X32.836 Y2.385 I-0.248 J0.186
X32.058 Y2.281 I-0.187 J-1.572
G1 X32.006 Y2.258
X31.913 Y2.222
X31.818 Y2.188
X31.728 Y2.159
X31.635 Y2.133
X31.449 Y2.089
X31.263 Y2.046
X31.077 Y2.003
X30.984 Y1.987
X30.892 Y1.973
X30.799 Y1.968
X30.706 Y1.964
X30.613
X5.067
X4.974
X4.881 Y1.968
X4.788 Y1.973
X4.695 Y1.987
X4.602 Y2.003
X4.416 Y2.045
X4.323 Y2.067
X4.138 Y2.112
X4.045 Y2.135
X3.952 Y2.161
X3.859 Y2.191
X3.766 Y2.224
X3.673 Y2.261
X3.627 Y2.281
X3.58 Y2.307
X3.487 Y2.36
G3 X3.075 Y2.238 I-0.143 J-0.275
G1 X3.061 Y2.186 Z-0.956
X3.047 Y2.136 Z-0.942
X3.035 Y2.088 Z-0.919
Y2.085 Z-0.917
X3.047 Y2.036 Z-0.878
X3.057 Y1.995 Z-0.83
X3.064 Y1.965 Z-0.775
X3.069 Y1.947 Z-0.714
X3.07 Y1.94 Z-0.651
G0 Z5
X1.284 Y1.678
Z-0.326
G1 Z-0.636 F1000
X1.291 Y1.682 Z-0.705
X1.311 Y1.693 Z-0.771
X1.343 Y1.711 Z-0.83
X1.386 Y1.735 Z-0.879
X1.437 Y1.764 Z-0.916
X1.495 Y1.796 Z-0.939
X1.555 Y1.829 Z-0.946
G3 X2.946 Y2.814 I-3.85 J6.914
G1 X2.968 Y2.835
X2.971 Y2.84
X2.891 Y2.932
X2.837 Y2.998
X2.817 Y3.025
X2.703 Y3.21
X2.651 Y3.308
X2.605 Y3.396
X2.558 Y3.491
X2.515 Y3.582
X2.475 Y3.675
X2.443 Y3.768
X2.418 Y3.861
X2.396 Y3.954
X2.372 Y4.046
X2.347 Y4.139
X2.324 Y4.232
X2.306 Y4.325
X2.289 Y4.418
X2.281 Y4.511
X2.28 Y4.526
X2.278 Y4.604
X2.281 Y4.697
X2.287 Y4.79
X2.311 Y4.976
X2.363 Y5.347
X2.373 Y5.411
X2.392 Y5.533
X2.406 Y5.626
X2.941 Y8.785
X2.957 Y8.878
X2.991 Y9.063
X3.025 Y9.249
X3.044 Y9.342
X3.063 Y9.435
X3.083 Y9.528
X3.124 Y9.714
X3.145 Y9.807
X3.429 Y11.014
X3.451 Y11.107
X3.474 Y11.2
X3.527 Y11.386
X3.554 Y11.479
X3.582 Y11.572
X3.616 Y11.665
X3.654 Y11.758
X3.673 Y11.806
X3.735 Y11.943
X3.766 Y12.009
X3.859 Y12.179
X3.883 Y12.222
X3.987 Y12.408
X4.105 Y12.594
X4.138 Y12.638
X4.179 Y12.687
X4.263 Y12.78
X4.323 Y12.837
X4.365 Y12.872
X4.476 Y12.965
X4.509 Y12.991
X4.602 Y13.05
X4.695 Y13.107
X4.779 Y13.151
X4.881 Y13.194
X4.974 Y13.223
X5.067 Y13.252
X5.16 Y13.269
X5.252 Y13.285
X5.438 Y13.296
X30.241
X30.427 Y13.285
X30.52 Y13.269
X30.613 Y13.252
X30.706 Y13.223
X30.799 Y13.194
X30.9 Y13.151
X30.984 Y13.107
X31.077 Y13.05
X31.17 Y12.991
X31.203 Y12.965
X31.311 Y12.872
X31.356 Y12.833
X31.413 Y12.78
X31.497 Y12.687
X31.542 Y12.635
X31.572 Y12.594
X31.691 Y12.408
X31.796 Y12.222
X31.82 Y12.179
X31.913 Y12.012
X31.945 Y11.943
X32.006 Y11.805
X32.025 Y11.758
X32.062 Y11.665
X32.097 Y11.572
X32.125 Y11.479
X32.205 Y11.2
X32.227 Y11.107
X32.25 Y11.014
X32.425 Y10.271
X32.535 Y9.807
X32.564 Y9.68
X32.598 Y9.528
X32.618 Y9.435
X32.637 Y9.342
X32.657 Y9.244
X32.69 Y9.063
X32.724 Y8.878
X32.74 Y8.785
X33.271 Y5.626
X33.286 Y5.533
X33.307 Y5.4
X33.327 Y5.254
X33.366 Y4.976
X33.39 Y4.79
X33.397 Y4.697
X33.4 Y4.599
Y4.565
X33.397 Y4.511
X33.388 Y4.418
X33.372 Y4.325
X33.353 Y4.232
X33.33 Y4.139
X33.305 Y4.046
X33.281 Y3.954
X33.26 Y3.861
X33.235 Y3.768
X33.204 Y3.675
X33.163 Y3.582
X33.117 Y3.489
X33.071 Y3.396
X33.024 Y3.303
X32.976 Y3.21
X32.862 Y3.025
X32.842 Y2.998
X32.788 Y2.932
X32.706 Y2.839
X32.53 Y2.653
X32.471 Y2.594
X32.435 Y2.56
X32.378 Y2.513
X32.321 Y2.467
X32.285 Y2.44
X32.192 Y2.383
X32.099 Y2.331
X32.006 Y2.285
X31.999 Y2.281
X31.913 Y2.248
X31.82 Y2.214
X31.728 Y2.182
X31.635 Y2.153
X31.542 Y2.129
X31.449 Y2.106
X31.263 Y2.062
X31.077 Y2.019
X30.984 Y2.004
X30.892 Y1.99
X30.799 Y1.984
X30.706 Y1.981
X30.613 Y1.98
X5.067
X4.974 Y1.981
X4.881 Y1.984
X4.788 Y1.99
X4.695 Y2.004
X4.602 Y2.019
X4.416 Y2.061
X4.231 Y2.106
X4.138 Y2.13
X4.045 Y2.154
X3.952 Y2.184
X3.859 Y2.216
X3.766 Y2.25
X3.688 Y2.281
G3 X3.295 Y2.106 I-0.105 J-0.292
G1 X3.284 Y2.047 Z-0.94
X3.273 Y1.99 Z-0.923
X3.285 Y1.944 Z-0.897
X3.295 Y1.903 Z-0.864
X3.304 Y1.868 Z-0.825
X3.311 Y1.84 Z-0.779
X3.322 Y1.824 Z-0.734
X3.328 Y1.814 Z-0.686
X3.33 Y1.81 Z-0.636
G0 Z5
X1.303 Y1.682
Z-0.312
G1 Z-0.622 F1000
X1.31 Y1.686 Z-0.691
X1.33 Y1.697 Z-0.756
X1.362 Y1.715 Z-0.815
X1.405 Y1.739 Z-0.864
X1.456 Y1.767 Z-0.901
X1.514 Y1.799 Z-0.924
X1.574 Y1.832 Z-0.932
G3 X2.968 Y2.814 I-3.835 J6.923
G1 X2.99 Y2.835
X2.993 Y2.84
X2.914 Y2.932
X2.839 Y3.025
X2.725 Y3.21
X2.675 Y3.303
X2.627 Y3.396
X2.581 Y3.489
X2.536 Y3.582
X2.496 Y3.675
X2.466 Y3.762
X2.464 Y3.768
X2.439 Y3.861
X2.417 Y3.954
X2.394 Y4.046
X2.369 Y4.139
X2.345 Y4.232
X2.326 Y4.325
X2.309 Y4.418
X2.301 Y4.511
X2.296 Y4.604
X2.299 Y4.697
X2.305 Y4.79
X2.329 Y4.976
X2.356 Y5.161
X2.373 Y5.265
X2.433 Y5.626
X2.93 Y8.561
X2.936 Y8.599
X2.953 Y8.692
X3.005 Y8.97
X3.023 Y9.063
X3.064 Y9.249
X3.116 Y9.479
X3.411 Y10.736
X3.433 Y10.829
X3.457 Y10.921
X3.482 Y11.014
X3.536 Y11.2
X3.563 Y11.293
X3.58 Y11.341
X3.597 Y11.386
X3.677 Y11.572
X3.721 Y11.665
X3.766 Y11.758
X3.974 Y12.129
X4.031 Y12.222
X4.138 Y12.375
X4.167 Y12.408
X4.257 Y12.501
X4.323 Y12.567
X4.356 Y12.594
X4.509 Y12.716
X4.602 Y12.776
X4.695 Y12.832
X4.788 Y12.874
X4.881 Y12.914
X4.974 Y12.943
X5.052 Y12.965
X5.067 Y12.97
X5.16 Y12.985
X5.252 Y13
X5.438 Y13.009
X30.241
X30.427 Y13
X30.52 Y12.985
X30.613 Y12.97
X30.628 Y12.965
X30.706 Y12.943
X30.799 Y12.914
X30.894 Y12.872
X30.984 Y12.832
X31.077 Y12.776
X31.17 Y12.716
X31.321 Y12.594
X31.356 Y12.564
X31.419 Y12.501
X31.509 Y12.408
X31.542 Y12.371
X31.646 Y12.222
X31.704 Y12.129
X31.913 Y11.761
X31.915 Y11.758
X31.96 Y11.665
X32.003 Y11.572
X32.082 Y11.386
X32.099 Y11.339
X32.115 Y11.293
X32.143 Y11.2
X32.197 Y11.014
X32.222 Y10.921
X32.245 Y10.829
X32.268 Y10.736
X32.564 Y9.484
X32.596 Y9.342
X32.617 Y9.249
X32.658 Y9.063
X32.676 Y8.97
X32.728 Y8.692
X32.745 Y8.599
X33.291 Y5.347
X33.307 Y5.254
X33.322 Y5.161
X33.349 Y4.976
X33.373 Y4.79
X33.378 Y4.697
X33.381 Y4.604
X33.376 Y4.511
X33.368 Y4.418
X33.351 Y4.325
X33.333 Y4.232
X33.307 Y4.133
X33.283 Y4.046
X33.26 Y3.954
X33.238 Y3.861
X33.215 Y3.768
X33.182 Y3.675
X33.142 Y3.582
X33.096 Y3.489
X33.05 Y3.396
X33.002 Y3.303
X32.955 Y3.21
X32.84 Y3.025
X32.765 Y2.932
X32.685 Y2.839
X32.657 Y2.809
X32.564 Y2.711
X32.508 Y2.653
X32.471 Y2.616
X32.407 Y2.56
X32.285 Y2.466
X32.192 Y2.408
X32.099 Y2.356
X32.006 Y2.312
X31.913 Y2.274
X31.82 Y2.24
X31.677 Y2.188
X31.635 Y2.174
X31.542 Y2.146
X31.449 Y2.122
X31.17 Y2.057
X31.077 Y2.036
X30.984 Y2.02
X30.892 Y2.006
X30.85 Y2.003
X30.706 Y1.998
X30.613 Y1.997
X5.067
X4.974 Y1.998
X4.829 Y2.003
X4.788 Y2.006
X4.695 Y2.02
X4.602 Y2.036
X4.509 Y2.057
X4.416 Y2.078
X4.231 Y2.123
X4.138 Y2.147
X4.045 Y2.176
X4.008 Y2.188
X3.859 Y2.242
X3.766 Y2.277
X3.673 Y2.315
X3.58 Y2.359
X3.487 Y2.41
G3 X3.076 Y2.285 I-0.141 J-0.276
G1 X3.062 Y2.233 Z-0.927
X3.049 Y2.183 Z-0.913
X3.037 Y2.136 Z-0.89
Y2.134 Z-0.889
X3.049 Y2.085 Z-0.85
X3.059 Y2.044 Z-0.802
X3.067 Y2.013 Z-0.747
X3.072 Y1.994 Z-0.686
X3.073 Y1.988 Z-0.622
G0 Z5
X1.346 Y1.654
Z-0.297
G1 Z-0.607 F1000
X1.352 Y1.658 Z-0.676
X1.372 Y1.669 Z-0.742
X1.404 Y1.688 Z-0.8
X1.447 Y1.712 Z-0.85
X1.498 Y1.741 Z-0.887
X1.555 Y1.773 Z-0.909
X1.615 Y1.808 Z-0.917
G3 X2.997 Y2.806 I-3.916 J6.878
G1 X3.019 Y2.827
X3.022 Y2.832
X3.015 Y2.839
X2.93 Y2.94
X2.861 Y3.025
X2.744 Y3.214
X2.648 Y3.396
X2.603 Y3.489
X2.558 Y3.582
X2.519 Y3.675
X2.485 Y3.768
X2.466 Y3.842
X2.439 Y3.954
X2.415 Y4.046
X2.373 Y4.203
X2.366 Y4.232
X2.347 Y4.325
X2.329 Y4.418
X2.321 Y4.511
X2.316 Y4.604
X2.318 Y4.697
X2.324 Y4.79
X2.337 Y4.883
X2.351 Y4.976
X2.885 Y8.134
X2.901 Y8.227
X2.917 Y8.32
X2.93 Y8.396
X2.968 Y8.599
X2.986 Y8.692
X3.005 Y8.785
X3.024 Y8.878
X3.066 Y9.063
X3.116 Y9.279
X3.414 Y10.55
X3.464 Y10.736
X3.49 Y10.829
X3.517 Y10.921
X3.546 Y11.014
X3.581 Y11.107
X3.62 Y11.2
X3.673 Y11.321
X3.705 Y11.386
X3.753 Y11.479
X3.766 Y11.503
X3.96 Y11.851
X4.016 Y11.943
X4.045 Y11.985
X4.154 Y12.129
X4.231 Y12.205
X4.323 Y12.295
X4.344 Y12.315
X4.416 Y12.372
X4.509 Y12.444
X4.597 Y12.501
X4.602 Y12.504
X4.695 Y12.556
X4.788 Y12.595
X4.881 Y12.635
X5.064 Y12.687
X5.067
X5.16 Y12.703
X5.252 Y12.715
X5.438 Y12.723
X30.241
X30.427 Y12.715
X30.52 Y12.703
X30.613 Y12.687
X30.706 Y12.661
X30.799 Y12.635
X30.895 Y12.594
X30.984 Y12.556
X31.077 Y12.504
X31.083 Y12.501
X31.17 Y12.444
X31.263 Y12.371
X31.333 Y12.315
X31.356 Y12.293
X31.449 Y12.203
X31.523 Y12.129
X31.635 Y11.982
X31.661 Y11.943
X31.718 Y11.851
X31.913 Y11.506
X31.928 Y11.479
X31.976 Y11.386
X32.006 Y11.323
X32.059 Y11.2
X32.099 Y11.105
X32.133 Y11.014
X32.162 Y10.921
X32.192 Y10.816
X32.215 Y10.736
X32.265 Y10.55
X32.418 Y9.9
X32.572 Y9.249
X32.615 Y9.063
X32.657 Y8.878
X32.676 Y8.785
X32.695 Y8.692
X32.713 Y8.599
X32.749 Y8.407
X32.765 Y8.32
X32.796 Y8.134
X33.327 Y4.976
X33.341 Y4.883
X33.354 Y4.79
X33.359 Y4.697
X33.362 Y4.604
X33.356 Y4.511
X33.348 Y4.418
X33.331 Y4.325
X33.312 Y4.232
X33.307 Y4.21
X33.262 Y4.046
X33.238 Y3.954
X33.214 Y3.848
X33.193 Y3.768
X33.159 Y3.675
X33.12 Y3.582
X33.075 Y3.489
X33.028 Y3.396
X32.98 Y3.303
X32.935 Y3.214
X32.819 Y3.025
X32.749 Y2.94
X32.664 Y2.839
X32.657 Y2.831
X32.564 Y2.734
X32.471 Y2.639
X32.378 Y2.563
X32.251 Y2.467
X32.192 Y2.433
X32.085 Y2.374
X32.006 Y2.339
X31.913 Y2.302
X31.86 Y2.281
X31.728 Y2.233
X31.635 Y2.201
X31.542 Y2.17
X31.449 Y2.14
X31.263 Y2.095
X31.17 Y2.074
X31.077 Y2.052
X30.984 Y2.037
X30.892 Y2.023
X30.799 Y2.017
X30.706 Y2.014
X30.613 Y2.013
X5.067
X4.974 Y2.014
X4.881 Y2.017
X4.788 Y2.023
X4.695 Y2.037
X4.602 Y2.052
X4.509 Y2.073
X4.415 Y2.095
X4.231 Y2.141
X4.138 Y2.171
X4.045 Y2.202
X3.952 Y2.234
X3.859 Y2.268
X3.824 Y2.281
X3.766 Y2.304
X3.673 Y2.342
G3 X3.28 Y2.168 I-0.106 J-0.291
G1 X3.268 Y2.108 Z-0.911
X3.257 Y2.051 Z-0.893
X3.269 Y2.005 Z-0.868
X3.279 Y1.963 Z-0.834
X3.288 Y1.929 Z-0.794
X3.296 Y1.901 Z-0.748
X3.305 Y1.885 Z-0.703
X3.312 Y1.875 Z-0.656
X3.314 Y1.872 Z-0.607
G0 Z5
X1.716 Y1.296
Z-0.283
G1 Z-0.593 F1000
X1.722 Y1.301 Z-0.662
X1.738 Y1.317 Z-0.727
X1.764 Y1.343 Z-0.786
X1.8 Y1.377 Z-0.835
X1.842 Y1.418 Z-0.872
X1.889 Y1.464 Z-0.895
X1.938 Y1.512 Z-0.903
G3 X3.024 Y2.826 I-5.522 J5.67
G1 X3.029 Y2.834
X3.03 Y2.844
X3.026 Y2.852
X2.883 Y3.025
X2.837 Y3.097
X2.768 Y3.21
X2.744 Y3.255
X2.67 Y3.396
X2.651 Y3.433
X2.579 Y3.582
X2.558 Y3.629
X2.508 Y3.768
X2.481 Y3.861
X2.46 Y3.954
X2.437 Y4.046
X2.412 Y4.139
X2.388 Y4.232
X2.37 Y4.325
X2.354 Y4.418
X2.346 Y4.511
X2.342 Y4.604
X2.345 Y4.697
X2.351 Y4.79
X2.373 Y4.944
X2.378 Y4.976
X2.88 Y7.949
X2.897 Y8.041
X2.93 Y8.226
X2.947 Y8.32
X2.965 Y8.413
X3.005 Y8.599
X3.047 Y8.785
X3.069 Y8.878
X3.396 Y10.271
X3.42 Y10.364
X3.446 Y10.457
X3.472 Y10.55
X3.528 Y10.736
X3.564 Y10.829
X3.604 Y10.921
X3.69 Y11.107
X3.739 Y11.2
X3.791 Y11.293
X3.952 Y11.58
X4.005 Y11.665
X4.045 Y11.726
X4.068 Y11.758
X4.143 Y11.851
X4.231 Y11.941
X4.335 Y12.036
X4.416 Y12.104
X4.509 Y12.171
X4.602 Y12.225
X4.695 Y12.278
X4.788 Y12.317
X4.881 Y12.354
X4.974 Y12.38
X5.067 Y12.404
X5.16 Y12.418
X5.252 Y12.43
X5.345 Y12.433
X5.438 Y12.436
X30.241
X30.334 Y12.433
X30.427 Y12.43
X30.52 Y12.418
X30.613 Y12.404
X30.706 Y12.38
X30.799 Y12.354
X30.897 Y12.315
X30.984 Y12.278
X31.082 Y12.222
X31.17 Y12.171
X31.263 Y12.104
X31.344 Y12.036
X31.449 Y11.939
X31.534 Y11.851
X31.609 Y11.758
X31.635 Y11.723
X31.673 Y11.665
X31.728 Y11.578
X31.913 Y11.251
X31.942 Y11.2
X31.991 Y11.107
X32.034 Y11.014
X32.076 Y10.921
X32.116 Y10.829
X32.151 Y10.736
X32.207 Y10.55
X32.233 Y10.457
X32.259 Y10.364
X32.283 Y10.271
X32.612 Y8.878
X32.634 Y8.785
X32.676 Y8.599
X32.716 Y8.413
X32.733 Y8.32
X32.751 Y8.227
X32.768 Y8.134
X32.784 Y8.041
X32.801 Y7.949
X33.3 Y4.976
X33.307 Y4.933
X33.327 Y4.79
X33.333 Y4.697
X33.336 Y4.604
X33.331 Y4.511
X33.324 Y4.418
X33.308 Y4.325
X33.29 Y4.232
X33.266 Y4.139
X33.24 Y4.046
X33.217 Y3.954
X33.197 Y3.861
X33.17 Y3.768
X33.121 Y3.631
X33.099 Y3.582
X33.028 Y3.438
X33.007 Y3.396
X32.935 Y3.256
X32.912 Y3.21
X32.842 Y3.097
X32.797 Y3.025
X32.642 Y2.839
X32.564 Y2.758
X32.46 Y2.653
X32.378 Y2.587
X32.285 Y2.518
X32.213 Y2.467
X32.099 Y2.407
X32.028 Y2.374
X31.913 Y2.329
X31.82 Y2.294
X31.635 Y2.227
X31.527 Y2.188
X31.449 Y2.161
X31.263 Y2.112
X31.17 Y2.09
X31.077 Y2.068
X30.984 Y2.053
X30.892 Y2.039
X30.799 Y2.034
X30.706 Y2.031
X30.613 Y2.03
X5.067
X4.974 Y2.031
X4.881 Y2.034
X4.788 Y2.039
X4.695 Y2.053
X4.602 Y2.068
X4.487 Y2.095
X4.416 Y2.112
X4.231 Y2.162
X4.138 Y2.194
X4.045 Y2.227
X3.952 Y2.26
X3.894 Y2.281
X3.859 Y2.294
X3.766 Y2.331
X3.673 Y2.368
G3 X3.28 Y2.193 I-0.106 J-0.291
G1 X3.269 Y2.134 Z-0.897
X3.258 Y2.077 Z-0.879
X3.269 Y2.031 Z-0.853
X3.28 Y1.99 Z-0.82
X3.289 Y1.955 Z-0.78
X3.296 Y1.927 Z-0.735
X3.306 Y1.911 Z-0.69
X3.312 Y1.901 Z-0.642
X3.315 Y1.898 Z-0.593
G0 Z5
X1.723 Y1.308
Z-0.268
G1 Z-0.578 F1000
X1.729 Y1.313 Z-0.647
X1.745 Y1.329 Z-0.713
X1.772 Y1.355 Z-0.771
X1.808 Y1.389 Z-0.82
X1.85 Y1.429 Z-0.857
X1.897 Y1.475 Z-0.88
X1.947 Y1.522 Z-0.888
G3 X3.046 Y2.826 I-5.469 J5.721
G1 X3.051 Y2.834
Y2.844
X3.047 Y2.852
X2.904 Y3.025
X2.845 Y3.117
X2.79 Y3.21
X2.692 Y3.396
X2.646 Y3.489
X2.601 Y3.582
X2.563 Y3.675
X2.53 Y3.768
X2.503 Y3.861
X2.466 Y4.022
X2.434 Y4.139
X2.411 Y4.232
X2.393 Y4.325
X2.378 Y4.418
X2.372 Y4.511
X2.368 Y4.604
X2.373 Y4.726
X2.378 Y4.79
X2.391 Y4.883
X2.405 Y4.976
X2.876 Y7.763
X2.91 Y7.949
X2.928 Y8.041
X2.946 Y8.134
X2.966 Y8.227
X3.007 Y8.413
X3.051 Y8.599
X3.356 Y9.9
X3.401 Y10.085
X3.427 Y10.178
X3.454 Y10.271
X3.483 Y10.364
X3.513 Y10.457
X3.547 Y10.55
X3.588 Y10.643
X3.631 Y10.736
X3.678 Y10.829
X3.726 Y10.921
X3.882 Y11.2
X3.952 Y11.325
X3.993 Y11.386
X4.057 Y11.479
X4.131 Y11.572
X4.138 Y11.58
X4.231 Y11.674
X4.325 Y11.758
X4.445 Y11.851
X4.509 Y11.898
X4.695 Y12.001
X4.788 Y12.04
X4.881 Y12.074
X4.974 Y12.098
X5.067 Y12.121
X5.16 Y12.133
X5.252 Y12.144
X5.438 Y12.149
X30.241
X30.427 Y12.144
X30.52 Y12.133
X30.613 Y12.121
X30.706 Y12.098
X30.799 Y12.074
X30.892 Y12.04
X30.984 Y12.001
X31.17 Y11.898
X31.235 Y11.851
X31.354 Y11.758
X31.449 Y11.671
X31.542 Y11.577
X31.546 Y11.572
X31.62 Y11.479
X31.685 Y11.386
X31.728 Y11.322
X31.955 Y10.921
X32.006 Y10.823
X32.05 Y10.736
X32.093 Y10.643
X32.132 Y10.55
X32.166 Y10.457
X32.197 Y10.364
X32.225 Y10.271
X32.252 Y10.178
X32.278 Y10.085
X32.323 Y9.9
X32.631 Y8.599
X32.674 Y8.413
X32.716 Y8.227
X32.735 Y8.134
X32.754 Y8.041
X32.771 Y7.949
X32.805 Y7.763
X33.274 Y4.976
X33.287 Y4.883
X33.3 Y4.79
X33.307 Y4.697
X33.31 Y4.604
X33.307 Y4.521
X33.3 Y4.418
X33.285 Y4.325
X33.267 Y4.232
X33.244 Y4.139
X33.214 Y4.03
X33.196 Y3.954
X33.176 Y3.861
X33.149 Y3.768
X33.115 Y3.675
X33.078 Y3.582
X33.028 Y3.481
X32.986 Y3.396
X32.89 Y3.21
X32.835 Y3.117
X32.775 Y3.025
X32.621 Y2.839
X32.533 Y2.746
X32.471 Y2.687
X32.434 Y2.653
X32.378 Y2.611
X32.285 Y2.542
X32.192 Y2.481
X32.168 Y2.467
X32.099 Y2.432
X32.006 Y2.392
X31.913 Y2.355
X31.82 Y2.32
X31.449 Y2.186
X31.356 Y2.155
X31.263 Y2.129
X31.121 Y2.095
X31.077 Y2.085
X30.984 Y2.068
X30.892 Y2.055
X30.799 Y2.05
X30.706 Y2.047
X30.613 Y2.046
X5.067
X4.974 Y2.047
X4.881 Y2.05
X4.788 Y2.055
X4.695 Y2.068
X4.602 Y2.085
X4.509 Y2.107
X4.416 Y2.129
X4.323 Y2.155
X4.226 Y2.188
X4.045 Y2.252
X3.964 Y2.281
X3.859 Y2.321
X3.766 Y2.357
X3.724 Y2.374
G3 X3.331 Y2.198 I-0.105 J-0.292
G1 X3.32 Y2.139 Z-0.882
X3.309 Y2.083 Z-0.864
X3.321 Y2.037 Z-0.839
X3.331 Y1.996 Z-0.806
X3.34 Y1.961 Z-0.767
X3.347 Y1.933 Z-0.721
X3.358 Y1.916 Z-0.676
X3.364 Y1.906 Z-0.628
X3.366 Y1.903 Z-0.578
G0 Z5
X1.798 Y1.264
Z-0.253
G1 Z-0.563 F1000
X1.803 Y1.269 Z-0.632
X1.819 Y1.286 Z-0.698
X1.845 Y1.312 Z-0.757
X1.88 Y1.347 Z-0.806
X1.921 Y1.389 Z-0.843
X1.966 Y1.436 Z-0.866
X2.015 Y1.485 Z-0.873
G3 X3.068 Y2.826 I-5.66 J5.532
G1 X3.073 Y2.834
Y2.844
X3.069 Y2.852
X3.023 Y2.906
X2.926 Y3.025
X2.865 Y3.117
X2.811 Y3.21
X2.713 Y3.396
X2.666 Y3.489
X2.622 Y3.582
X2.585 Y3.675
X2.552 Y3.768
X2.526 Y3.861
X2.504 Y3.954
X2.481 Y4.046
X2.456 Y4.139
X2.433 Y4.232
X2.417 Y4.325
X2.403 Y4.418
X2.398 Y4.511
X2.395 Y4.604
X2.398 Y4.697
X2.405 Y4.79
X2.418 Y4.883
X2.432 Y4.976
X2.825 Y7.298
X2.857 Y7.484
X2.873 Y7.577
X2.907 Y7.763
X2.926 Y7.856
X2.947 Y7.949
X2.989 Y8.134
X3.01 Y8.227
X3.338 Y9.621
X3.36 Y9.714
X3.394 Y9.846
X3.409 Y9.9
X3.463 Y10.085
X3.487 Y10.153
X3.532 Y10.271
X3.572 Y10.364
X3.614 Y10.457
X3.662 Y10.55
X3.713 Y10.643
X3.766 Y10.738
X3.859 Y10.904
X3.952 Y11.066
X3.978 Y11.107
X4.048 Y11.2
X4.119 Y11.293
X4.138 Y11.314
X4.231 Y11.401
X4.315 Y11.479
X4.323 Y11.486
X4.509 Y11.622
X4.582 Y11.665
X4.695 Y11.723
X4.788 Y11.758
X4.881 Y11.793
X4.974 Y11.817
X5.067 Y11.837
X5.171 Y11.851
X5.252 Y11.859
X5.438 Y11.862
X30.241
X30.427 Y11.859
X30.508 Y11.851
X30.613 Y11.837
X30.706 Y11.817
X30.799 Y11.793
X30.894 Y11.758
X30.984 Y11.723
X31.098 Y11.665
X31.17 Y11.622
X31.263 Y11.554
X31.356 Y11.486
X31.364 Y11.479
X31.463 Y11.386
X31.542 Y11.311
X31.558 Y11.293
X31.635 Y11.193
X31.7 Y11.107
X31.728 Y11.064
X31.82 Y10.904
X31.916 Y10.736
X31.968 Y10.643
X32.019 Y10.55
X32.067 Y10.457
X32.109 Y10.364
X32.148 Y10.271
X32.192 Y10.153
X32.217 Y10.085
X32.271 Y9.9
X32.295 Y9.807
X32.319 Y9.714
X32.342 Y9.621
X32.671 Y8.227
X32.693 Y8.134
X32.735 Y7.949
X32.755 Y7.856
X32.774 Y7.763
X32.809 Y7.577
X32.825 Y7.484
X32.857 Y7.298
X33.247 Y4.976
X33.26 Y4.883
X33.274 Y4.79
X33.28 Y4.697
X33.284 Y4.604
X33.281 Y4.511
X33.275 Y4.418
X33.261 Y4.325
X33.245 Y4.232
X33.221 Y4.139
X33.196 Y4.046
X33.174 Y3.954
X33.152 Y3.861
X33.127 Y3.768
X33.094 Y3.675
X33.057 Y3.582
X33.012 Y3.489
X32.964 Y3.396
X32.869 Y3.21
X32.815 Y3.117
X32.754 Y3.025
X32.657 Y2.906
X32.6 Y2.839
X32.51 Y2.746
X32.471 Y2.71
X32.406 Y2.653
X32.276 Y2.56
X32.192 Y2.507
X32.12 Y2.467
X32.099 Y2.457
X32.006 Y2.418
X31.894 Y2.374
X31.82 Y2.347
X31.449 Y2.213
X31.263 Y2.149
X31.17 Y2.125
X31.077 Y2.102
X31.047 Y2.095
X30.984 Y2.085
X30.892 Y2.071
X30.799 Y2.067
X30.706 Y2.064
X30.613 Y2.063
X5.067
X4.974 Y2.064
X4.881 Y2.067
X4.788 Y2.071
X4.695 Y2.085
X4.633 Y2.095
X4.602 Y2.102
X4.509 Y2.125
X4.416 Y2.15
X4.231 Y2.212
X4.035 Y2.281
X3.952 Y2.313
X3.859 Y2.348
X3.79 Y2.374
X3.673 Y2.421
G3 X3.281 Y2.244 I-0.104 J-0.292
G1 X3.27 Y2.185 Z-0.868
X3.259 Y2.129 Z-0.85
X3.271 Y2.083 Z-0.825
X3.281 Y2.042 Z-0.792
X3.29 Y2.007 Z-0.753
X3.297 Y1.979 Z-0.708
X3.308 Y1.963 Z-0.662
X3.314 Y1.952 Z-0.613
X3.316 Y1.949 Z-0.564
G0 Z5
X1.833 Y1.253
Z-0.239
G1 Z-0.549 F1000
X1.838 Y1.259 Z-0.618
X1.854 Y1.275 Z-0.683
X1.88 Y1.302 Z-0.742
X1.914 Y1.337 Z-0.791
X1.954 Y1.38 Z-0.828
X2 Y1.427 Z-0.851
X2.048 Y1.477 Z-0.859
G3 X3.09 Y2.826 I-5.705 J5.485
G1 X3.095 Y2.834
Y2.844
X3.091 Y2.852
X3.022 Y2.932
X2.947 Y3.025
X2.93 Y3.05
X2.885 Y3.117
X2.833 Y3.21
X2.735 Y3.396
X2.687 Y3.489
X2.643 Y3.582
X2.607 Y3.675
X2.573 Y3.768
X2.558 Y3.815
X2.526 Y3.954
X2.503 Y4.046
X2.479 Y4.139
X2.466 Y4.188
X2.456 Y4.232
X2.441 Y4.325
X2.428 Y4.418
X2.423 Y4.511
X2.421 Y4.604
X2.425 Y4.697
X2.432 Y4.79
X2.445 Y4.883
X2.459 Y4.976
X2.82 Y7.112
X2.853 Y7.298
X2.87 Y7.391
X2.888 Y7.484
X2.907 Y7.577
X2.93 Y7.679
X2.949 Y7.763
X3.116 Y8.475
X3.341 Y9.435
X3.365 Y9.528
X3.394 Y9.634
X3.418 Y9.714
X3.446 Y9.807
X3.478 Y9.9
X3.517 Y9.992
X3.556 Y10.085
X3.601 Y10.178
X3.647 Y10.271
X3.859 Y10.65
X3.909 Y10.736
X3.952 Y10.809
X3.964 Y10.829
X4.035 Y10.921
X4.138 Y11.046
X4.2 Y11.107
X4.231 Y11.136
X4.323 Y11.216
X4.416 Y11.284
X4.509 Y11.348
X4.602 Y11.399
X4.695 Y11.444
X4.788 Y11.479
X4.881 Y11.512
X4.974 Y11.534
X5.067 Y11.554
X5.224 Y11.572
X5.252 Y11.573
X5.438 Y11.575
X30.241
X30.427 Y11.573
X30.455 Y11.572
X30.613 Y11.554
X30.706 Y11.534
X30.799 Y11.512
X30.892 Y11.479
X30.984 Y11.444
X31.077 Y11.399
X31.17 Y11.348
X31.263 Y11.284
X31.356 Y11.215
X31.474 Y11.107
X31.542 Y11.043
X31.643 Y10.921
X31.714 Y10.829
X31.728 Y10.806
X31.77 Y10.736
X31.824 Y10.643
X32.035 Y10.271
X32.08 Y10.178
X32.125 Y10.085
X32.164 Y9.992
X32.202 Y9.9
X32.233 Y9.807
X32.262 Y9.714
X32.285 Y9.634
X32.314 Y9.528
X32.338 Y9.435
X32.689 Y7.949
X32.733 Y7.763
X32.754 Y7.67
X32.775 Y7.577
X32.794 Y7.484
X32.811 Y7.391
X32.828 Y7.298
X32.861 Y7.112
X33.22 Y4.976
X33.234 Y4.883
X33.247 Y4.79
X33.254 Y4.697
X33.257 Y4.604
X33.255 Y4.511
X33.25 Y4.418
X33.238 Y4.325
X33.222 Y4.232
X33.214 Y4.192
X33.175 Y4.046
X33.152 Y3.954
X33.121 Y3.817
X33.106 Y3.768
X33.073 Y3.675
X33.036 Y3.582
X32.991 Y3.489
X32.847 Y3.21
X32.795 Y3.117
X32.749 Y3.049
X32.733 Y3.025
X32.657 Y2.93
X32.578 Y2.839
X32.481 Y2.746
X32.44 Y2.698
X32.41 Y2.644
X32.392 Y2.584
X32.385 Y2.522
G3 X32.591 Y2.23 I0.31 J0
G1 X32.737 Y2.178
X32.891 Y2.123
G3 X33.3 Y2.356 I0.104 J0.292
X33.008 Y2.725 I-0.304 J0.059
X32.24 Y2.56 I-0.062 J-1.581
G1 X32.099 Y2.484
X32.064 Y2.467
X31.913 Y2.409
X31.82 Y2.374
X31.449 Y2.24
X31.263 Y2.173
X31.17 Y2.143
X31.077 Y2.119
X30.984 Y2.103
X30.892 Y2.089
X30.799 Y2.084
X30.706 Y2.08
X30.613 Y2.079
X5.067
X4.974 Y2.08
X4.881 Y2.084
X4.788 Y2.089
X4.695 Y2.103
X4.602 Y2.119
X4.509 Y2.143
X4.416 Y2.173
X4.138 Y2.271
X4.045 Y2.304
X3.952 Y2.339
X3.859 Y2.374
X3.766 Y2.41
X3.715 Y2.431
G3 X3.323 Y2.253 I-0.104 J-0.292
G1 X3.312 Y2.195 Z-0.853
X3.301 Y2.139 Z-0.836
X3.313 Y2.093 Z-0.811
X3.323 Y2.052 Z-0.778
X3.332 Y2.017 Z-0.739
X3.34 Y1.989 Z-0.694
X3.35 Y1.972 Z-0.648
X3.357 Y1.962 Z-0.599
X3.359 Y1.958 Z-0.549
G0 Z5
X1.861 Y1.249
Z-0.224
G1 Z-0.534 F1000
X1.866 Y1.255 Z-0.603
X1.882 Y1.272 Z-0.669
X1.907 Y1.299 Z-0.728
X1.941 Y1.334 Z-0.777
X1.981 Y1.377 Z-0.814
X2.026 Y1.425 Z-0.837
X2.074 Y1.475 Z-0.844
G3 X3.104 Y2.834 I-5.756 J5.432
G1 X3.108 Y2.842
Y2.852
X3.104 Y2.86
X3.042 Y2.932
X2.969 Y3.025
X2.909 Y3.117
X2.855 Y3.21
X2.744 Y3.42
X2.709 Y3.489
X2.664 Y3.582
X2.651 Y3.61
X2.595 Y3.768
X2.569 Y3.861
X2.547 Y3.954
X2.524 Y4.046
X2.5 Y4.139
X2.479 Y4.232
X2.465 Y4.325
X2.453 Y4.418
X2.449 Y4.511
X2.448 Y4.604
X2.452 Y4.697
X2.459 Y4.79
X2.472 Y4.883
X2.486 Y4.976
X2.8 Y6.834
X2.816 Y6.927
X2.85 Y7.112
X2.888 Y7.298
X2.909 Y7.391
X2.93 Y7.484
X3.301 Y9.063
X3.345 Y9.249
X3.372 Y9.342
X3.399 Y9.435
X3.43 Y9.528
X3.461 Y9.621
X3.487 Y9.687
X3.539 Y9.807
X3.58 Y9.889
X3.635 Y9.992
X3.673 Y10.063
X3.894 Y10.457
X3.952 Y10.551
X4.018 Y10.643
X4.045 Y10.674
X4.138 Y10.78
X4.188 Y10.829
X4.323 Y10.945
X4.416 Y11.015
X4.509 Y11.073
X4.602 Y11.12
X4.695 Y11.167
X4.781 Y11.2
X4.788 Y11.202
X4.881 Y11.231
X4.974 Y11.252
X5.067 Y11.27
X5.16 Y11.28
X5.252 Y11.287
X5.438 Y11.289
X30.241
X30.427 Y11.287
X30.52 Y11.28
X30.613 Y11.27
X30.706 Y11.252
X30.799 Y11.231
X30.892 Y11.202
X30.898 Y11.2
X30.984 Y11.167
X31.103 Y11.107
X31.17 Y11.073
X31.263 Y11.014
X31.356 Y10.945
X31.489 Y10.829
X31.542 Y10.777
X31.635 Y10.672
X31.66 Y10.643
X31.727 Y10.55
X31.784 Y10.457
X32.006 Y10.067
X32.047 Y9.992
X32.099 Y9.893
X32.142 Y9.807
X32.192 Y9.69
X32.219 Y9.621
X32.25 Y9.528
X32.281 Y9.435
X32.308 Y9.342
X32.334 Y9.249
X32.379 Y9.063
X32.752 Y7.484
X32.773 Y7.391
X32.793 Y7.298
X32.831 Y7.112
X32.865 Y6.927
X32.881 Y6.834
X33.193 Y4.976
X33.207 Y4.883
X33.22 Y4.79
X33.227 Y4.697
X33.231 Y4.604
X33.229 Y4.511
X33.226 Y4.418
X33.214 Y4.323
X33.199 Y4.232
X33.179 Y4.139
X33.154 Y4.046
X33.131 Y3.954
X33.11 Y3.861
X33.085 Y3.768
X33.028 Y3.61
X33.015 Y3.582
X32.97 Y3.489
X32.922 Y3.396
X32.826 Y3.21
X32.772 Y3.117
X32.712 Y3.025
X32.638 Y2.932
X32.564 Y2.846
X32.457 Y2.746
X32.378 Y2.679
X32.342 Y2.653
X32.285 Y2.614
X32.191 Y2.56
X32.099 Y2.511
X32.006 Y2.47
X31.913 Y2.435
X31.82 Y2.4
X31.356 Y2.232
X31.263 Y2.198
X31.234 Y2.188
X31.077 Y2.145
X30.984 Y2.128
X30.892 Y2.114
X30.799 Y2.109
X30.706 Y2.106
X30.613 Y2.105
X5.067
X4.974 Y2.106
X4.881 Y2.109
X4.788 Y2.114
X4.695 Y2.128
X4.602 Y2.145
X4.445 Y2.188
X4.416 Y2.198
X4.231 Y2.264
X4.181 Y2.281
X4.045 Y2.331
X3.929 Y2.374
X3.766 Y2.436
X3.687 Y2.467
G3 X3.296 Y2.286 I-0.101 J-0.293
G1 X3.286 Y2.229 Z-0.839
X3.275 Y2.174 Z-0.822
X3.291 Y2.115 Z-0.789
X3.304 Y2.064 Z-0.742
X3.314 Y2.024 Z-0.685
X3.325 Y2.006 Z-0.637
X3.332 Y1.995 Z-0.586
X3.335 Y1.992 Z-0.534
G0 Z5
X1.388 Y1.769
Z-0.21
G1 Z-0.52 F1000
X1.395 Y1.773 Z-0.589
X1.415 Y1.784 Z-0.654
X1.447 Y1.802 Z-0.713
X1.49 Y1.826 Z-0.762
X1.541 Y1.855 Z-0.799
X1.599 Y1.887 Z-0.822
X1.659 Y1.92 Z-0.83
G3 X3.049 Y2.907 I-3.859 J6.91
G1 X3.062 Y2.919
X3.066 Y2.929
Y2.939
X3.061 Y2.948
X3.023 Y2.995
X2.999 Y3.025
X2.93 Y3.127
X2.877 Y3.21
X2.779 Y3.396
X2.744 Y3.464
X2.685 Y3.582
X2.651 Y3.67
X2.616 Y3.768
X2.591 Y3.861
X2.558 Y3.998
X2.523 Y4.139
X2.501 Y4.232
X2.487 Y4.325
X2.479 Y4.418
X2.476 Y4.511
X2.475 Y4.604
X2.479 Y4.697
X2.485 Y4.79
X2.497 Y4.883
X2.764 Y6.462
X2.796 Y6.648
X2.813 Y6.741
X2.837 Y6.871
X2.849 Y6.927
X2.89 Y7.112
X3.283 Y8.785
X3.302 Y8.862
X3.329 Y8.97
X3.354 Y9.063
X3.394 Y9.202
X3.41 Y9.249
X3.446 Y9.342
X3.482 Y9.435
X3.524 Y9.528
X3.569 Y9.621
X3.673 Y9.808
X3.776 Y9.992
X3.829 Y10.085
X3.882 Y10.178
X3.938 Y10.271
X3.952 Y10.291
X4.045 Y10.411
X4.086 Y10.457
X4.138 Y10.512
X4.231 Y10.597
X4.286 Y10.643
X4.323 Y10.673
X4.416 Y10.737
X4.509 Y10.797
X4.602 Y10.843
X4.695 Y10.887
X4.794 Y10.921
X4.881 Y10.95
X4.974 Y10.971
X5.067 Y10.986
X5.16 Y10.995
X5.252 Y11.001
X5.438 Y11.002
X30.241
X30.427 Y11.001
X30.52 Y10.995
X30.613 Y10.986
X30.706 Y10.971
X30.799 Y10.95
X30.892 Y10.919
X30.984 Y10.887
X31.077 Y10.843
X31.17 Y10.797
X31.264 Y10.736
X31.356 Y10.673
X31.393 Y10.643
X31.449 Y10.595
X31.542 Y10.51
X31.591 Y10.457
X31.635 Y10.409
X31.728 Y10.289
X31.74 Y10.271
X31.796 Y10.178
X31.85 Y10.085
X31.913 Y9.975
X32.009 Y9.807
X32.113 Y9.621
X32.157 Y9.528
X32.199 Y9.435
X32.235 Y9.342
X32.27 Y9.249
X32.285 Y9.205
X32.326 Y9.063
X32.351 Y8.97
X32.378 Y8.864
X32.397 Y8.785
X32.77 Y7.205
X32.792 Y7.112
X32.813 Y7.019
X32.833 Y6.927
X32.842 Y6.883
X32.869 Y6.741
X32.886 Y6.648
X33.182 Y4.883
X33.194 Y4.79
X33.2 Y4.697
X33.204 Y4.604
Y4.511
X33.201 Y4.418
X33.192 Y4.325
X33.178 Y4.232
X33.156 Y4.139
X33.121 Y4.002
X33.088 Y3.861
X33.063 Y3.768
X33.028 Y3.67
X32.994 Y3.582
X32.935 Y3.464
X32.9 Y3.396
X32.804 Y3.21
X32.749 Y3.124
X32.684 Y3.025
X32.609 Y2.932
X32.564 Y2.884
X32.519 Y2.839
X32.471 Y2.795
X32.414 Y2.746
X32.378 Y2.719
X32.287 Y2.653
X32.285 Y2.651
X32.192 Y2.596
X32.099 Y2.543
X32.006 Y2.497
X31.931 Y2.467
X31.82 Y2.426
X31.356 Y2.258
X31.263 Y2.224
X31.17 Y2.197
X31.077 Y2.171
X30.984 Y2.154
X30.892 Y2.14
X30.799 Y2.134
X30.706 Y2.131
X30.613 Y2.13
X5.067
X4.974 Y2.131
X4.881 Y2.134
X4.788 Y2.14
X4.695 Y2.154
X4.602 Y2.171
X4.509 Y2.197
X4.416 Y2.224
X4.231 Y2.289
X4.045 Y2.357
X3.999 Y2.374
X3.859 Y2.428
X3.766 Y2.463
X3.756 Y2.467
X3.673 Y2.501
X3.58 Y2.548
X3.487 Y2.6
G3 X3.075 Y2.479 I-0.143 J-0.275
G1 X3.061 Y2.427 Z-0.825
X3.047 Y2.377 Z-0.811
X3.034 Y2.33 Z-0.788
Y2.326 Z-0.785
X3.046 Y2.277 Z-0.746
X3.056 Y2.237 Z-0.699
X3.063 Y2.207 Z-0.643
X3.068 Y2.188 Z-0.583
X3.069 Y2.182 Z-0.52
G0 Z5
X1.457 Y1.736
Z-0.195
G1 Z-0.505 F1000
X1.463 Y1.74 Z-0.574
X1.483 Y1.751 Z-0.64
X1.515 Y1.77 Z-0.698
X1.557 Y1.795 Z-0.748
X1.608 Y1.825 Z-0.784
X1.664 Y1.858 Z-0.807
X1.724 Y1.893 Z-0.815
G3 X3.091 Y2.912 I-4.019 J6.818
G1 X3.103 Y2.925
X3.107 Y2.934
X3.106 Y2.945
X3.101 Y2.953
X3.034 Y3.025
X3.023 Y3.039
X2.903 Y3.21
X2.85 Y3.303
X2.801 Y3.396
X2.754 Y3.489
X2.709 Y3.582
X2.671 Y3.675
X2.638 Y3.768
X2.613 Y3.861
X2.591 Y3.954
X2.568 Y4.046
X2.546 Y4.139
X2.526 Y4.232
X2.513 Y4.325
X2.504 Y4.418
X2.502 Y4.511
Y4.604
X2.506 Y4.697
X2.513 Y4.79
X2.526 Y4.883
X2.54 Y4.976
X2.744 Y6.184
X2.76 Y6.276
X2.793 Y6.462
X2.83 Y6.648
X2.837 Y6.681
X2.872 Y6.834
X2.894 Y6.927
X3.286 Y8.599
X3.336 Y8.785
X3.364 Y8.878
X3.394 Y8.977
X3.428 Y9.063
X3.467 Y9.156
X3.487 Y9.204
X3.509 Y9.249
X3.555 Y9.342
X3.58 Y9.387
X3.815 Y9.807
X3.871 Y9.9
X3.927 Y9.992
X3.952 Y10.03
X4.075 Y10.178
X4.138 Y10.243
X4.277 Y10.364
X4.323 Y10.401
X4.416 Y10.462
X4.509 Y10.522
X4.562 Y10.55
X4.602 Y10.569
X4.695 Y10.608
X4.799 Y10.643
X4.881 Y10.667
X4.974 Y10.686
X5.067 Y10.702
X5.16 Y10.709
X5.252 Y10.715
X5.438
X30.241
X30.427
X30.52 Y10.709
X30.613 Y10.702
X30.706 Y10.686
X30.799 Y10.667
X30.88 Y10.643
X30.984 Y10.608
X31.077 Y10.569
X31.117 Y10.55
X31.17 Y10.522
X31.271 Y10.457
X31.356 Y10.401
X31.402 Y10.364
X31.542 Y10.241
X31.602 Y10.178
X31.728 Y10.027
X31.751 Y9.992
X31.82 Y9.878
X31.864 Y9.807
X32.099 Y9.393
X32.127 Y9.342
X32.173 Y9.249
X32.192 Y9.209
X32.214 Y9.156
X32.253 Y9.063
X32.285 Y8.98
X32.317 Y8.878
X32.344 Y8.785
X32.394 Y8.599
X32.789 Y6.927
X32.81 Y6.834
X32.842 Y6.694
X32.852 Y6.648
X32.889 Y6.462
X32.921 Y6.276
X32.968 Y5.998
X33.14 Y4.976
X33.154 Y4.883
X33.167 Y4.79
X33.174 Y4.697
X33.178 Y4.604
Y4.511
X33.175 Y4.418
X33.166 Y4.325
X33.153 Y4.232
X33.134 Y4.139
X33.111 Y4.046
X33.088 Y3.954
X33.067 Y3.861
X33.042 Y3.768
X33.009 Y3.675
X32.971 Y3.582
X32.925 Y3.489
X32.879 Y3.396
X32.83 Y3.303
X32.778 Y3.21
X32.657 Y3.034
X32.649 Y3.025
X32.563 Y2.932
X32.471 Y2.841
X32.468 Y2.839
X32.378 Y2.769
X32.285 Y2.703
X32.211 Y2.653
X32.061 Y2.56
X32.006 Y2.532
X31.913 Y2.488
X31.862 Y2.467
X31.542 Y2.351
X31.351 Y2.281
X31.263 Y2.25
X31.17 Y2.222
X31.077 Y2.197
X31.043 Y2.188
X30.892 Y2.166
X30.799 Y2.16
X30.706 Y2.157
X30.613 Y2.156
X5.067
X4.974 Y2.157
X4.881 Y2.16
X4.788 Y2.166
X4.636 Y2.188
X4.602 Y2.197
X4.509 Y2.222
X4.416 Y2.249
X4.231 Y2.315
X4.045 Y2.384
X3.952 Y2.419
X3.825 Y2.467
X3.766 Y2.492
X3.673 Y2.536
X3.625 Y2.56
X3.487 Y2.645
G3 X3.071 Y2.538 I-0.153 J-0.27
G1 X3.055 Y2.486 Z-0.81
X3.039 Y2.437 Z-0.796
X3.025 Y2.39 Z-0.773
Y2.375 Z-0.764
X3.035 Y2.329 Z-0.725
X3.044 Y2.292 Z-0.678
X3.05 Y2.264 Z-0.624
X3.054 Y2.247 Z-0.566
X3.055 Y2.241 Z-0.506
G0 Z5
X1.401 Y1.843
Z-0.181
G1 Z-0.491 F1000
X1.408 Y1.847 Z-0.56
X1.427 Y1.858 Z-0.625
X1.46 Y1.877 Z-0.684
X1.502 Y1.901 Z-0.733
X1.553 Y1.931 Z-0.77
X1.61 Y1.963 Z-0.793
X1.67 Y1.997 Z-0.801
G3 X3.049 Y3 I-3.936 J6.866
G1 X3.061 Y3.011
X3.065 Y3.021
Y3.033
X3.06 Y3.043
X3.023 Y3.089
X2.93 Y3.213
X2.873 Y3.303
X2.823 Y3.396
X2.776 Y3.489
X2.73 Y3.582
X2.69 Y3.675
X2.651 Y3.79
X2.634 Y3.861
X2.568 Y4.139
X2.558 Y4.18
X2.55 Y4.232
X2.538 Y4.325
X2.53 Y4.418
X2.528 Y4.511
X2.529 Y4.604
X2.533 Y4.697
X2.54 Y4.79
X2.558 Y4.92
X2.567 Y4.976
X2.744 Y6.024
X2.773 Y6.183
X2.791 Y6.276
X2.832 Y6.462
X3.246 Y8.227
X3.268 Y8.32
X3.291 Y8.413
X3.344 Y8.599
X3.376 Y8.692
X3.394 Y8.743
X3.41 Y8.785
X3.493 Y8.97
X3.542 Y9.063
X3.802 Y9.528
X3.856 Y9.621
X3.952 Y9.768
X3.982 Y9.807
X4.045 Y9.881
X4.063 Y9.9
X4.138 Y9.975
X4.158 Y9.992
X4.231 Y10.056
X4.267 Y10.085
X4.323 Y10.13
X4.398 Y10.178
X4.416 Y10.19
X4.509 Y10.245
X4.602 Y10.288
X4.695 Y10.33
X4.804 Y10.364
X4.881 Y10.385
X4.974 Y10.403
X5.067 Y10.417
X5.16 Y10.424
X5.252 Y10.428
X5.717 Y10.429
X30.334 Y10.428
X30.427
X30.52 Y10.424
X30.613 Y10.417
X30.706 Y10.403
X30.799 Y10.385
X30.875 Y10.364
X30.984 Y10.33
X31.077 Y10.288
X31.17 Y10.245
X31.263 Y10.19
X31.281 Y10.178
X31.356 Y10.13
X31.412 Y10.085
X31.449 Y10.056
X31.52 Y9.992
X31.542 Y9.973
X31.614 Y9.9
X31.635 Y9.879
X31.695 Y9.807
X31.728 Y9.766
X31.823 Y9.621
X31.877 Y9.528
X32.099 Y9.137
X32.141 Y9.063
X32.19 Y8.97
X32.271 Y8.785
X32.285 Y8.747
X32.304 Y8.692
X32.336 Y8.599
X32.389 Y8.413
X32.412 Y8.32
X32.657 Y7.285
X32.851 Y6.462
X32.871 Y6.369
X32.891 Y6.276
X32.909 Y6.183
X32.935 Y6.035
X33.113 Y4.976
X33.121 Y4.925
X33.141 Y4.79
X33.147 Y4.697
X33.151 Y4.604
X33.152 Y4.511
X33.15 Y4.418
X33.142 Y4.325
X33.13 Y4.232
X33.121 Y4.181
X33.089 Y4.046
X33.067 Y3.954
X33.045 Y3.861
X33.028 Y3.789
X32.99 Y3.675
X32.95 Y3.582
X32.904 Y3.489
X32.857 Y3.396
X32.808 Y3.303
X32.749 Y3.21
X32.657 Y3.084
X32.608 Y3.025
X32.471 Y2.891
X32.408 Y2.839
X32.277 Y2.746
X32.192 Y2.688
X32.139 Y2.653
X32.099 Y2.627
X32.006 Y2.572
X31.913 Y2.524
X31.82 Y2.479
X31.728 Y2.445
X31.635 Y2.41
X31.263 Y2.275
X31.17 Y2.248
X31.077 Y2.222
X30.984 Y2.205
X30.872 Y2.188
X30.706 Y2.183
X30.613 Y2.182
X5.067
X4.974 Y2.183
X4.808 Y2.188
X4.695 Y2.205
X4.602 Y2.222
X4.509 Y2.248
X4.416 Y2.275
X4.231 Y2.341
X4.045 Y2.41
X3.897 Y2.467
X3.859 Y2.482
X3.766 Y2.527
X3.673 Y2.576
X3.58 Y2.63
X3.544 Y2.653
X3.487 Y2.69
X3.408 Y2.746
X3.343 Y2.792
G3 X2.92 Y2.717 I-0.173 J-0.257
G1 X2.9 Y2.667 Z-0.796
X2.881 Y2.618 Z-0.781
X2.863 Y2.573 Z-0.758
X2.861 Y2.535 Z-0.732
X2.87 Y2.487 Z-0.683
X2.876 Y2.452 Z-0.624
X2.881 Y2.43 Z-0.559
X2.882 Y2.422 Z-0.491
G0 Z5
X1.509 Y1.76
Z-0.166
G1 Z-0.476 F1000
X1.515 Y1.765 Z-0.545
X1.535 Y1.777 Z-0.611
X1.566 Y1.797 Z-0.669
X1.607 Y1.824 Z-0.718
X1.656 Y1.856 Z-0.755
X1.711 Y1.892 Z-0.778
X1.769 Y1.929 Z-0.786
G3 X3.092 Y3.005 I-4.304 J6.641
G1 X3.112 Y3.027
X3.115 Y3.032
G3 X2.659 Y2.612 I-0.228 J-0.21
X3.115 Y3.032 I0.228 J0.21
X2.919 Y3.131 I-0.228 J-0.21
G1 X2.554 Y3.169
G3 X2.49 Y2.552 I-0.032 J-0.308
X2.829 Y2.816 I0.032 J0.308
X2.744 Y3.597 I-1.567 J0.225
G1 X2.712 Y3.675
X2.68 Y3.768
X2.656 Y3.861
X2.634 Y3.954
X2.612 Y4.046
X2.591 Y4.139
X2.574 Y4.232
X2.558 Y4.357
X2.555 Y4.418
Y4.511
X2.556 Y4.604
X2.56 Y4.697
X2.567 Y4.79
X2.58 Y4.883
X2.594 Y4.976
X2.735 Y5.812
X2.772 Y5.998
X2.792 Y6.09
X2.837 Y6.284
X3.228 Y7.949
X3.273 Y8.134
X3.299 Y8.227
X3.327 Y8.32
X3.358 Y8.413
X3.395 Y8.506
X3.436 Y8.599
X3.487 Y8.705
X3.528 Y8.785
X3.736 Y9.156
X3.766 Y9.209
X3.859 Y9.371
X3.902 Y9.435
X3.952 Y9.506
X3.97 Y9.528
X4.045 Y9.61
X4.138 Y9.706
X4.146 Y9.714
X4.231 Y9.783
X4.26 Y9.807
X4.323 Y9.856
X4.416 Y9.917
X4.509 Y9.968
X4.602 Y10.01
X4.695 Y10.049
X4.814 Y10.085
X4.881 Y10.104
X4.974 Y10.12
X5.067 Y10.132
X5.16 Y10.138
X5.252 Y10.142
X30.427
X30.52 Y10.138
X30.613 Y10.132
X30.706 Y10.12
X30.799 Y10.104
X30.865 Y10.085
X30.984 Y10.049
X31.077 Y10.01
X31.17 Y9.968
X31.263 Y9.917
X31.356 Y9.856
X31.419 Y9.807
X31.449 Y9.782
X31.531 Y9.714
X31.542 Y9.704
X31.635 Y9.608
X31.708 Y9.528
X31.728 Y9.504
X31.776 Y9.435
X31.82 Y9.37
X31.913 Y9.209
X31.943 Y9.156
X32.155 Y8.785
X32.192 Y8.712
X32.246 Y8.599
X32.285 Y8.51
X32.323 Y8.413
X32.354 Y8.32
X32.381 Y8.227
X32.407 Y8.134
X32.453 Y7.949
X32.847 Y6.276
X32.869 Y6.183
X32.891 Y6.09
X32.911 Y5.998
X32.946 Y5.812
X33.087 Y4.976
X33.1 Y4.883
X33.114 Y4.79
X33.121 Y4.697
X33.125 Y4.604
X33.126 Y4.511
X33.125 Y4.418
X33.121 Y4.353
X33.106 Y4.232
X33.089 Y4.139
X33.024 Y3.861
X33 Y3.768
X32.968 Y3.675
X32.935 Y3.596
X32.883 Y3.489
X32.842 Y3.408
X32.836 Y3.396
X32.783 Y3.303
X32.749 Y3.25
X32.719 Y3.21
X32.646 Y3.117
X32.564 Y3.027
X32.462 Y2.932
X32.378 Y2.863
X32.285 Y2.799
X32.206 Y2.746
X32.065 Y2.653
X32.006 Y2.616
X31.909 Y2.56
X31.82 Y2.511
X31.728 Y2.471
X31.635 Y2.436
X31.449 Y2.368
X31.263 Y2.301
X31.206 Y2.281
X31.17 Y2.272
X31.077 Y2.247
X30.984 Y2.231
X30.892 Y2.217
X30.799 Y2.211
X30.706 Y2.208
X30.613 Y2.207
X5.067
X4.974 Y2.208
X4.881 Y2.211
X4.788 Y2.217
X4.695 Y2.231
X4.602 Y2.247
X4.509 Y2.272
X4.474 Y2.281
X4.416 Y2.301
X4.231 Y2.367
X4.045 Y2.437
X3.952 Y2.473
X3.859 Y2.514
X3.775 Y2.56
X3.673 Y2.619
X3.616 Y2.653
X3.58 Y2.676
X3.477 Y2.746
X3.394 Y2.803
G3 X2.972 Y2.72 I-0.168 J-0.261
G1 X2.954 Y2.669 Z-0.781
X2.935 Y2.621 Z-0.767
X2.918 Y2.575 Z-0.744
X2.917 Y2.542 Z-0.722
X2.925 Y2.502 Z-0.683
X2.931 Y2.469 Z-0.638
X2.936 Y2.444 Z-0.587
X2.939 Y2.429 Z-0.533
X2.94 Y2.424 Z-0.476
G0 Z5
X1.529 Y1.778
Z-0.151
G1 Z-0.461 F1000
X1.536 Y1.783 Z-0.53
X1.555 Y1.795 Z-0.596
X1.585 Y1.816 Z-0.655
X1.626 Y1.843 Z-0.704
X1.675 Y1.876 Z-0.741
X1.729 Y1.912 Z-0.764
X1.787 Y1.951 Z-0.771
G3 X3.092 Y3.048 I-4.409 J6.573
G1 X3.112 Y3.07
X3.115 Y3.075
G3 X2.879 Y3.169 I-0.223 J-0.215
G1 X2.545 Y3.152
G3 X2.576 Y2.533 I0.016 J-0.31
X2.868 Y2.802 I-0.016 J0.31
G1 X2.878 Y2.905
X2.881 Y3.007
Y3.008
G3 X2.773 Y3.582 I-1.583 J0
G1 X2.744 Y3.65
X2.701 Y3.768
X2.677 Y3.861
X2.651 Y3.972
X2.634 Y4.046
X2.614 Y4.139
X2.598 Y4.232
X2.587 Y4.325
X2.581 Y4.418
Y4.511
X2.583 Y4.604
X2.587 Y4.697
X2.594 Y4.79
X2.607 Y4.883
X2.621 Y4.976
X2.7 Y5.44
X2.716 Y5.533
X2.733 Y5.626
X2.773 Y5.812
X3.209 Y7.67
X3.232 Y7.763
X3.256 Y7.856
X3.281 Y7.949
X3.34 Y8.134
X3.379 Y8.227
X3.418 Y8.32
X3.467 Y8.413
X3.516 Y8.506
X3.567 Y8.599
X3.766 Y8.955
X3.859 Y9.109
X3.888 Y9.156
X3.952 Y9.241
X3.959 Y9.249
X4.04 Y9.342
X4.138 Y9.436
X4.231 Y9.515
X4.248 Y9.528
X4.323 Y9.582
X4.416 Y9.638
X4.509 Y9.693
X4.602 Y9.732
X4.695 Y9.768
X4.824 Y9.807
X4.881 Y9.82
X4.974 Y9.836
X5.067 Y9.847
X5.16 Y9.852
X5.252 Y9.855
X30.427
X30.52 Y9.852
X30.613 Y9.847
X30.706 Y9.836
X30.799 Y9.82
X30.856 Y9.807
X30.984 Y9.768
X31.077 Y9.732
X31.17 Y9.693
X31.263 Y9.638
X31.356 Y9.582
X31.431 Y9.528
X31.449 Y9.514
X31.542 Y9.434
X31.637 Y9.342
X31.719 Y9.249
X31.728 Y9.24
X31.79 Y9.156
X31.82 Y9.107
X31.913 Y8.954
X32.115 Y8.599
X32.167 Y8.506
X32.216 Y8.413
X32.264 Y8.32
X32.303 Y8.227
X32.342 Y8.134
X32.4 Y7.949
X32.424 Y7.856
X32.448 Y7.763
X32.471 Y7.67
X32.91 Y5.812
X32.935 Y5.691
X32.949 Y5.626
X32.966 Y5.533
X33.06 Y4.976
X33.074 Y4.883
X33.087 Y4.79
X33.094 Y4.697
X33.098 Y4.604
X33.099 Y4.511
Y4.418
X33.093 Y4.325
X33.082 Y4.232
X33.066 Y4.139
X33.045 Y4.046
X33.024 Y3.954
X33.003 Y3.861
X32.979 Y3.768
X32.935 Y3.648
X32.907 Y3.582
X32.842 Y3.451
X32.813 Y3.396
X32.754 Y3.303
X32.749 Y3.296
X32.686 Y3.21
X32.61 Y3.117
X32.564 Y3.069
X32.471 Y2.986
X32.405 Y2.932
X32.378 Y2.912
X32.285 Y2.847
X32.099 Y2.724
X32.006 Y2.663
X31.841 Y2.56
X31.82 Y2.548
X31.728 Y2.503
X31.648 Y2.467
X31.449 Y2.394
X31.263 Y2.327
X31.17 Y2.297
X31.116 Y2.281
X31.077 Y2.272
X30.984 Y2.257
X30.892 Y2.243
X30.799 Y2.237
X30.706 Y2.234
X30.613 Y2.233
X5.067
X4.974 Y2.234
X4.881 Y2.237
X4.788 Y2.243
X4.695 Y2.257
X4.602 Y2.272
X4.563 Y2.281
X4.509 Y2.297
X4.416 Y2.327
X4.282 Y2.374
X4.231 Y2.393
X4.035 Y2.467
X3.952 Y2.505
X3.859 Y2.551
X3.842 Y2.56
X3.673 Y2.663
X3.58 Y2.725
X3.487 Y2.788
X3.413 Y2.839
X3.394 Y2.851
X3.343 Y2.888
G3 X2.92 Y2.811 I-0.171 J-0.258
G1 X2.901 Y2.761 Z-0.766
X2.882 Y2.712 Z-0.752
X2.864 Y2.667 Z-0.729
X2.862 Y2.63 Z-0.704
X2.871 Y2.582 Z-0.655
X2.878 Y2.546 Z-0.596
X2.882 Y2.523 Z-0.531
X2.884 Y2.516 Z-0.462
G0 Z5
X1.448 Y1.906
Z-0.137
G1 Z-0.447 F1000
X1.454 Y1.91 Z-0.516
X1.474 Y1.922 Z-0.581
X1.506 Y1.941 Z-0.64
X1.548 Y1.966 Z-0.689
X1.599 Y1.996 Z-0.726
X1.655 Y2.03 Z-0.749
X1.714 Y2.065 Z-0.757
G3 X3.078 Y3.088 I-4.04 J6.805
G1 X3.097 Y3.107
X3.102 Y3.121
X3.101 Y3.136
X3.093 Y3.15
G3 X2.566 Y3.006 I-0.225 J-0.213
X2.827 Y2.946 I0.13 J-0.03
X2.785 Y3.077 I-0.13 J0.03
X2.375 Y2.612 I-0.205 J-0.233
X2.887 Y2.802 I0.205 J0.233
X2.799 Y3.582 I-1.568 J0.218
G1 X2.759 Y3.675
X2.726 Y3.768
X2.698 Y3.861
X2.677 Y3.954
X2.657 Y4.046
X2.637 Y4.139
X2.622 Y4.232
X2.612 Y4.325
X2.607 Y4.418
X2.608 Y4.511
X2.609 Y4.604
X2.614 Y4.697
X2.621 Y4.79
X2.634 Y4.883
X2.648 Y4.976
X2.679 Y5.161
X2.696 Y5.254
X2.713 Y5.347
X2.734 Y5.44
X2.777 Y5.626
X3.213 Y7.484
X3.237 Y7.577
X3.263 Y7.67
X3.292 Y7.763
X3.325 Y7.856
X3.362 Y7.949
X3.405 Y8.041
X3.45 Y8.134
X3.554 Y8.32
X3.766 Y8.7
X3.818 Y8.785
X3.879 Y8.878
X3.947 Y8.97
X4.045 Y9.077
X4.127 Y9.156
X4.243 Y9.249
X4.323 Y9.308
X4.416 Y9.362
X4.509 Y9.414
X4.602 Y9.454
X4.695 Y9.488
X4.835 Y9.528
X4.881 Y9.537
X4.974 Y9.552
X5.067 Y9.562
X5.16 Y9.566
X5.252 Y9.568
X30.427
X30.52 Y9.566
X30.613 Y9.562
X30.706 Y9.552
X30.799 Y9.537
X30.845 Y9.528
X30.984 Y9.488
X31.077 Y9.454
X31.17 Y9.414
X31.263 Y9.362
X31.356 Y9.308
X31.435 Y9.249
X31.551 Y9.156
X31.635 Y9.076
X31.731 Y8.97
X31.799 Y8.878
X31.86 Y8.785
X31.913 Y8.699
X32.129 Y8.32
X32.233 Y8.134
X32.278 Y8.041
X32.32 Y7.949
X32.357 Y7.856
X32.389 Y7.763
X32.418 Y7.67
X32.443 Y7.577
X32.468 Y7.484
X32.906 Y5.626
X32.935 Y5.501
X32.949 Y5.44
X32.97 Y5.347
X33.002 Y5.161
X33.033 Y4.976
X33.047 Y4.883
X33.061 Y4.79
X33.068 Y4.697
X33.072 Y4.604
X33.073 Y4.511
Y4.418
X33.068 Y4.325
X33.058 Y4.232
X33.043 Y4.139
X33.023 Y4.046
X33.003 Y3.954
X32.982 Y3.861
X32.956 Y3.768
X32.923 Y3.675
X32.885 Y3.582
X32.868 Y3.525
X32.862 Y3.465
G3 X33.328 Y3.197 I0.31 J0
X33.18 Y3.452 I-0.074 J0.127
X33.109 Y3.298 I0.074 J-0.127
X33.719 Y3.408 I0.305 J0.055
X33.314 Y3.647 I-0.305 J-0.055
X32.657 Y3.218 I0.509 J-1.499
G1 X32.65 Y3.21
X32.563 Y3.117
X32.471 Y3.032
X32.462 Y3.025
X32.378 Y2.962
X32.285 Y2.896
X32.192 Y2.834
X32.006 Y2.712
X31.913 Y2.651
X31.82 Y2.59
X31.635 Y2.492
X31.573 Y2.467
X31.449 Y2.42
X31.263 Y2.353
X31.17 Y2.325
X31.077 Y2.299
X30.984 Y2.281
X30.892 Y2.268
X30.799 Y2.263
X30.706 Y2.26
X30.613 Y2.259
X5.067
X4.974 Y2.26
X4.881 Y2.263
X4.788 Y2.268
X4.693 Y2.281
X4.602 Y2.299
X4.509 Y2.325
X4.416 Y2.352
X4.323 Y2.386
X4.231 Y2.419
X4.108 Y2.467
X4.045 Y2.493
X3.859 Y2.592
X3.762 Y2.653
X3.673 Y2.709
X3.618 Y2.746
X3.483 Y2.839
X3.394 Y2.901
X3.352 Y2.932
G3 X2.928 Y2.856 I-0.172 J-0.258
G1 X2.909 Y2.806 Z-0.752
X2.889 Y2.757 Z-0.738
X2.872 Y2.712 Z-0.715
X2.869 Y2.674 Z-0.689
X2.878 Y2.626 Z-0.639
X2.885 Y2.591 Z-0.581
X2.889 Y2.568 Z-0.516
X2.891 Y2.561 Z-0.447
G0 Z5
X1.611 Y1.796
Z-0.122
G1 Z-0.432 F1000
X1.618 Y1.801 Z-0.501
X1.637 Y1.814 Z-0.567
X1.667 Y1.834 Z-0.626
X1.708 Y1.861 Z-0.675
X1.757 Y1.894 Z-0.712
X1.811 Y1.931 Z-0.735
X1.868 Y1.969 Z-0.742
G3 X3.173 Y3.067 I-4.413 J6.57
G1 X3.185 Y3.08
X3.191 Y3.1
X3.189 Y3.122
X3.177 Y3.14
X3.111 Y3.21
X3.037 Y3.303
X2.972 Y3.396
X2.93 Y3.459
X2.912 Y3.489
X2.858 Y3.582
X2.837 Y3.618
X2.81 Y3.675
X2.744 Y3.82
X2.731 Y3.861
X2.701 Y3.954
X2.679 Y4.046
X2.651 Y4.183
X2.646 Y4.232
X2.638 Y4.325
X2.634 Y4.418
Y4.511
X2.636 Y4.604
X2.64 Y4.697
X2.648 Y4.79
X2.661 Y4.883
X2.675 Y4.976
X2.694 Y5.068
X2.715 Y5.161
X3.173 Y7.112
X3.218 Y7.298
X3.273 Y7.484
X3.302 Y7.561
X3.345 Y7.67
X3.394 Y7.77
X3.438 Y7.856
X3.488 Y7.949
X3.748 Y8.413
X3.802 Y8.506
X3.868 Y8.599
X3.935 Y8.692
X3.952 Y8.712
X4.017 Y8.785
X4.045 Y8.811
X4.116 Y8.878
X4.237 Y8.97
X4.323 Y9.035
X4.369 Y9.063
X4.416 Y9.089
X4.509 Y9.135
X4.602 Y9.174
X4.695 Y9.208
X4.788 Y9.235
X4.852 Y9.249
X4.974 Y9.267
X5.067 Y9.276
X5.16 Y9.279
X5.252 Y9.281
X30.427
X30.52 Y9.279
X30.613 Y9.276
X30.706 Y9.267
X30.827 Y9.249
X30.892 Y9.235
X30.984 Y9.208
X31.077 Y9.174
X31.17 Y9.135
X31.263 Y9.089
X31.31 Y9.063
X31.356 Y9.035
X31.442 Y8.97
X31.562 Y8.878
X31.661 Y8.785
X31.728 Y8.711
X31.743 Y8.692
X31.82 Y8.585
X31.877 Y8.506
X31.931 Y8.413
X32.195 Y7.949
X32.246 Y7.856
X32.292 Y7.763
X32.338 Y7.67
X32.378 Y7.567
X32.409 Y7.484
X32.463 Y7.298
X32.508 Y7.112
X32.969 Y5.161
X32.989 Y5.068
X33.006 Y4.976
X33.02 Y4.883
X33.034 Y4.79
X33.041 Y4.697
X33.045 Y4.604
X33.047 Y4.511
Y4.418
X33.043 Y4.325
X33.034 Y4.232
X33.028 Y4.178
X33.001 Y4.046
X32.98 Y3.954
X32.952 Y3.861
X32.935 Y3.81
X32.877 Y3.675
X32.842 Y3.605
X32.83 Y3.582
X32.776 Y3.489
X32.749 Y3.447
X32.651 Y3.303
X32.578 Y3.21
X32.471 Y3.097
X32.387 Y3.025
X32.264 Y2.932
X32.192 Y2.882
X32.006 Y2.761
X31.82 Y2.638
X31.689 Y2.56
X31.635 Y2.528
X31.542 Y2.482
X31.449 Y2.446
X31.356 Y2.412
X31.252 Y2.374
X31.17 Y2.351
X31.077 Y2.325
X30.984 Y2.308
X30.892 Y2.294
X30.799 Y2.288
X30.706 Y2.285
X30.613 Y2.284
X5.067
X4.974 Y2.285
X4.881 Y2.288
X4.788 Y2.294
X4.695 Y2.308
X4.602 Y2.325
X4.509 Y2.351
X4.428 Y2.374
X4.323 Y2.412
X4.231 Y2.446
X4.138 Y2.483
X4.045 Y2.529
X3.859 Y2.638
X3.834 Y2.653
X3.766 Y2.696
X3.673 Y2.756
X3.58 Y2.82
X3.487 Y2.884
X3.422 Y2.932
X3.394 Y2.953
G3 X2.969 Y2.889 I-0.18 J-0.253
G1 X2.948 Y2.84 Z-0.737
X2.927 Y2.792 Z-0.723
X2.908 Y2.747 Z-0.7
X2.905 Y2.7 Z-0.666
X2.912 Y2.656 Z-0.618
X2.918 Y2.623 Z-0.561
X2.922 Y2.603 Z-0.498
X2.923 Y2.596 Z-0.433
G0 Z5
X1.599 Y1.896
Z-0.108
G1 Z-0.418 F1000
X1.606 Y1.9 Z-0.487
X1.626 Y1.911 Z-0.552
X1.657 Y1.93 Z-0.611
X1.699 Y1.955 Z-0.66
X1.75 Y1.986 Z-0.697
X1.806 Y2.019 Z-0.72
X1.866 Y2.054 Z-0.728
G3 X3.228 Y3.08 I-4.05 J6.8
G1 X3.247 Y3.099
X3.251 Y3.114
X3.249 Y3.13
X3.241 Y3.145
X3.182 Y3.21
X3.116 Y3.29
X3.106 Y3.303
X3.042 Y3.396
X3.023 Y3.424
X2.981 Y3.489
X2.923 Y3.582
X2.87 Y3.675
X2.823 Y3.768
X2.781 Y3.861
X2.744 Y3.967
X2.72 Y4.046
X2.699 Y4.139
X2.686 Y4.232
X2.677 Y4.325
X2.672 Y4.418
X2.673 Y4.511
X2.675 Y4.604
X2.68 Y4.697
X2.687 Y4.79
X2.702 Y4.883
X2.719 Y4.976
X2.784 Y5.254
X3.155 Y6.834
X3.177 Y6.927
X3.209 Y7.049
X3.227 Y7.112
X3.257 Y7.205
X3.29 Y7.298
X3.329 Y7.391
X3.374 Y7.484
X3.475 Y7.67
X3.735 Y8.134
X3.766 Y8.188
X3.79 Y8.227
X3.853 Y8.32
X3.924 Y8.413
X3.952 Y8.448
X4.01 Y8.506
X4.108 Y8.599
X4.138 Y8.626
X4.225 Y8.692
X4.231 Y8.696
X4.323 Y8.759
X4.416 Y8.812
X4.509 Y8.857
X4.602 Y8.894
X4.695 Y8.926
X4.788 Y8.951
X4.881 Y8.97
X4.974 Y8.983
X5.067 Y8.99
X5.16 Y8.993
X5.252 Y8.994
X30.427
X30.52 Y8.993
X30.613 Y8.99
X30.706 Y8.983
X30.799 Y8.97
X30.892 Y8.951
X30.984 Y8.926
X31.077 Y8.894
X31.17 Y8.857
X31.263 Y8.812
X31.356 Y8.759
X31.449 Y8.696
X31.454 Y8.692
X31.542 Y8.625
X31.571 Y8.599
X31.668 Y8.506
X31.728 Y8.446
X31.755 Y8.413
X31.826 Y8.32
X31.888 Y8.227
X31.913 Y8.186
X31.944 Y8.134
X32.208 Y7.67
X32.31 Y7.484
X32.354 Y7.391
X32.393 Y7.298
X32.425 Y7.205
X32.454 Y7.112
X32.471 Y7.055
X32.503 Y6.927
X32.526 Y6.834
X32.943 Y5.068
X32.965 Y4.976
X32.982 Y4.883
X32.996 Y4.79
X33.004 Y4.697
X33.008 Y4.604
X33.011 Y4.511
X33.012 Y4.418
X33.008 Y4.325
X32.999 Y4.232
X32.986 Y4.139
X32.966 Y4.046
X32.937 Y3.954
X32.905 Y3.861
X32.863 Y3.768
X32.817 Y3.675
X32.763 Y3.582
X32.703 Y3.489
X32.643 Y3.396
X32.582 Y3.303
X32.564 Y3.279
X32.504 Y3.21
X32.421 Y3.117
X32.378 Y3.075
X32.285 Y3
X32.196 Y2.932
X32.099 Y2.868
X32.006 Y2.808
X31.82 Y2.687
X31.768 Y2.653
X31.622 Y2.56
X31.542 Y2.519
X31.449 Y2.473
X31.434 Y2.467
X31.263 Y2.404
X31.17 Y2.376
X31.077 Y2.351
X30.984 Y2.334
X30.892 Y2.32
X30.799 Y2.314
X30.706 Y2.311
X30.613 Y2.31
X5.067
X4.974 Y2.311
X4.881 Y2.314
X4.788 Y2.32
X4.695 Y2.334
X4.602 Y2.351
X4.509 Y2.376
X4.416 Y2.404
X4.247 Y2.467
X4.231 Y2.474
X4.138 Y2.519
X4.058 Y2.56
X3.908 Y2.653
X3.859 Y2.683
X3.673 Y2.804
X3.623 Y2.839
X3.49 Y2.932
G3 X3.067 Y2.85 I-0.169 J-0.26
G1 X3.048 Y2.799 Z-0.723
X3.03 Y2.751 Z-0.709
X3.013 Y2.705 Z-0.685
X3.011 Y2.671 Z-0.663
X3.021 Y2.622 Z-0.614
X3.028 Y2.585 Z-0.554
X3.033 Y2.562 Z-0.488
X3.034 Y2.554 Z-0.418
G0 Z5
X1.625 Y1.946
Z-0.093
G1 Z-0.403 F1000
X1.632 Y1.95 Z-0.472
X1.652 Y1.962 Z-0.538
X1.684 Y1.98 Z-0.596
X1.726 Y2.005 Z-0.646
X1.777 Y2.035 Z-0.682
X1.833 Y2.068 Z-0.705
X1.893 Y2.103 Z-0.713
G3 X3.264 Y3.117 I-3.995 J6.832
G1 X3.281 Y3.134
X3.286 Y3.151
X3.285 Y3.168
X3.276 Y3.183
X3.251 Y3.21
X3.209 Y3.263
X3.113 Y3.396
X3.05 Y3.489
X2.988 Y3.582
X2.93 Y3.672
X2.879 Y3.768
X2.838 Y3.861
X2.804 Y3.954
X2.774 Y4.046
X2.744 Y4.177
X2.736 Y4.232
X2.726 Y4.325
X2.72 Y4.418
Y4.511
X2.722 Y4.604
X2.727 Y4.697
X2.735 Y4.79
X2.749 Y4.883
X2.766 Y4.976
X2.853 Y5.347
X3.158 Y6.648
X3.183 Y6.741
X3.209 Y6.835
X3.24 Y6.927
X3.274 Y7.019
X3.302 Y7.086
X3.313 Y7.112
X3.359 Y7.205
X3.394 Y7.271
X3.722 Y7.856
X3.766 Y7.93
X3.839 Y8.041
X3.859 Y8.069
X3.912 Y8.134
X3.952 Y8.181
X3.996 Y8.227
X4.045 Y8.273
X4.097 Y8.32
X4.138 Y8.354
X4.231 Y8.426
X4.323 Y8.484
X4.416 Y8.534
X4.509 Y8.581
X4.553 Y8.599
X4.602 Y8.617
X4.695 Y8.645
X4.788 Y8.668
X4.881 Y8.686
X4.974 Y8.698
X5.067 Y8.705
X5.16 Y8.706
X5.252 Y8.708
X30.427
X30.52 Y8.706
X30.613 Y8.705
X30.706 Y8.698
X30.799 Y8.686
X30.892 Y8.668
X30.984 Y8.645
X31.077 Y8.617
X31.127 Y8.599
X31.17 Y8.581
X31.263 Y8.534
X31.356 Y8.484
X31.449 Y8.426
X31.542 Y8.354
X31.582 Y8.32
X31.635 Y8.272
X31.682 Y8.227
X31.728 Y8.179
X31.767 Y8.134
X31.82 Y8.068
X31.839 Y8.041
X31.913 Y7.929
X31.957 Y7.856
X32.274 Y7.298
X32.285 Y7.279
X32.325 Y7.205
X32.37 Y7.112
X32.378 Y7.094
X32.408 Y7.019
X32.442 Y6.927
X32.471 Y6.842
X32.498 Y6.741
X32.523 Y6.648
X32.874 Y5.161
X32.917 Y4.976
X32.934 Y4.883
X32.949 Y4.79
X32.957 Y4.697
X32.962 Y4.604
X32.965 Y4.511
Y4.418
X32.959 Y4.325
X32.949 Y4.232
X32.935 Y4.153
X32.911 Y4.046
X32.881 Y3.954
X32.842 Y3.846
X32.807 Y3.768
X32.758 Y3.675
X32.749 Y3.659
X32.632 Y3.489
X32.57 Y3.396
X32.471 Y3.254
X32.434 Y3.21
X32.378 Y3.147
X32.348 Y3.117
X32.285 Y3.057
X32.247 Y3.025
X32.192 Y2.981
X32.099 Y2.916
X32.006 Y2.853
X31.728 Y2.674
X31.635 Y2.613
X31.542 Y2.559
X31.449 Y2.509
X31.358 Y2.467
X31.263 Y2.43
X31.17 Y2.402
X31.069 Y2.374
X30.984 Y2.359
X30.892 Y2.345
X30.799 Y2.34
X30.706 Y2.337
X30.613 Y2.336
X5.067
X4.974 Y2.337
X4.881 Y2.34
X4.788 Y2.345
X4.695 Y2.359
X4.61 Y2.374
X4.509 Y2.402
X4.416 Y2.431
X4.322 Y2.467
X4.231 Y2.509
X4.137 Y2.56
X4.045 Y2.612
X3.952 Y2.67
X3.859 Y2.729
X3.673 Y2.853
X3.58 Y2.918
G3 X3.158 Y2.839 I-0.17 J-0.259
G1 X3.138 Y2.789 Z-0.708
X3.12 Y2.74 Z-0.694
X3.102 Y2.694 Z-0.671
X3.1 Y2.659 Z-0.647
X3.11 Y2.611 Z-0.598
X3.117 Y2.574 Z-0.539
X3.121 Y2.551 Z-0.473
X3.123 Y2.544 Z-0.403
G0 Z5
X1.667 Y1.971
Z-0.079
G1 Z-0.389 F1000
X1.674 Y1.975 Z-0.458
X1.694 Y1.986 Z-0.523
X1.727 Y2.004 Z-0.582
X1.77 Y2.027 Z-0.631
X1.822 Y2.055 Z-0.668
X1.879 Y2.086 Z-0.691
X1.94 Y2.119 Z-0.699
G3 X3.342 Y3.089 I-3.773 J6.957
G1 X3.355 Y3.101
X3.366 Y3.13
X3.363 Y3.161
X3.347 Y3.188
X3.302 Y3.237
X3.252 Y3.303
X3.186 Y3.396
X3.116 Y3.493
X3.051 Y3.582
X3.023 Y3.623
X2.99 Y3.675
X2.93 Y3.788
X2.895 Y3.861
X2.837 Y4.012
X2.828 Y4.046
X2.805 Y4.139
X2.787 Y4.232
X2.775 Y4.325
X2.768 Y4.418
Y4.511
X2.769 Y4.604
X2.773 Y4.697
X2.781 Y4.79
X2.796 Y4.883
X2.813 Y4.976
X2.922 Y5.44
X3.14 Y6.369
X3.164 Y6.462
X3.209 Y6.614
X3.221 Y6.648
X3.259 Y6.741
X3.298 Y6.834
X3.302 Y6.842
X3.345 Y6.927
X3.397 Y7.019
X3.604 Y7.391
X3.673 Y7.513
X3.709 Y7.577
X3.765 Y7.67
X3.859 Y7.803
X3.899 Y7.856
X3.952 Y7.913
X4.045 Y8.004
X4.086 Y8.041
X4.138 Y8.081
X4.231 Y8.147
X4.323 Y8.209
X4.416 Y8.257
X4.509 Y8.3
X4.602 Y8.335
X4.695 Y8.366
X4.788 Y8.388
X4.881 Y8.402
X4.974 Y8.413
X5.067 Y8.419
X5.16 Y8.42
X5.252 Y8.421
X30.427
X30.52 Y8.42
X30.613 Y8.419
X30.706 Y8.413
X30.799 Y8.402
X30.892 Y8.388
X30.984 Y8.366
X31.077 Y8.335
X31.17 Y8.3
X31.263 Y8.257
X31.356 Y8.209
X31.449 Y8.147
X31.542 Y8.081
X31.592 Y8.041
X31.635 Y8.003
X31.728 Y7.912
X31.78 Y7.856
X31.82 Y7.802
X31.914 Y7.67
X31.97 Y7.577
X32.076 Y7.391
X32.287 Y7.019
X32.339 Y6.927
X32.378 Y6.851
X32.386 Y6.834
X32.424 Y6.741
X32.462 Y6.648
X32.471 Y6.623
X32.518 Y6.462
X32.541 Y6.369
X32.848 Y5.068
X32.87 Y4.976
X32.887 Y4.883
X32.902 Y4.79
X32.91 Y4.697
X32.915 Y4.604
X32.916 Y4.511
X32.915 Y4.418
X32.909 Y4.325
X32.898 Y4.232
X32.879 Y4.139
X32.857 Y4.046
X32.842 Y3.998
X32.791 Y3.861
X32.749 Y3.775
X32.695 Y3.675
X32.657 Y3.614
X32.634 Y3.582
X32.566 Y3.489
X32.564 Y3.486
X32.498 Y3.396
X32.433 Y3.303
X32.378 Y3.23
X32.273 Y3.117
X32.192 Y3.04
X32.051 Y2.932
X32.006 Y2.899
X31.625 Y2.653
X31.542 Y2.604
X31.465 Y2.56
X31.449 Y2.551
X31.356 Y2.504
X31.263 Y2.466
X31.17 Y2.438
X31.077 Y2.413
X30.984 Y2.396
X30.892 Y2.382
X30.799 Y2.376
X30.706 Y2.373
X30.613 Y2.372
X5.067
X4.974 Y2.373
X4.881 Y2.376
X4.788 Y2.382
X4.695 Y2.396
X4.602 Y2.413
X4.509 Y2.438
X4.416 Y2.466
X4.323 Y2.504
X4.231 Y2.55
X4.138 Y2.603
X4.053 Y2.653
X3.904 Y2.746
X3.859 Y2.775
X3.765 Y2.839
X3.673 Y2.901
X3.633 Y2.932
X3.58 Y2.972
G3 X3.155 Y2.911 I-0.181 J-0.252
G1 X3.133 Y2.862 Z-0.694
X3.113 Y2.814 Z-0.679
X3.093 Y2.769 Z-0.656
X3.089 Y2.721 Z-0.621
X3.097 Y2.677 Z-0.573
X3.103 Y2.644 Z-0.516
X3.106 Y2.624 Z-0.454
X3.107 Y2.617 Z-0.389
G0 Z5
X1.896 Y1.791
Z-0.064
G1 Z-0.374 F1000
X1.903 Y1.795 Z-0.443
X1.922 Y1.808 Z-0.508
X1.952 Y1.829 Z-0.567
X1.993 Y1.856 Z-0.616
X2.042 Y1.889 Z-0.653
X2.096 Y1.926 Z-0.676
X2.153 Y1.965 Z-0.684
G3 X3.452 Y3.069 I-4.446 J6.548
G1 X3.463 Y3.081
X3.47 Y3.103
X3.467 Y3.125
X3.456 Y3.144
X3.394 Y3.214
X3.322 Y3.303
X3.302 Y3.331
X3.209 Y3.462
X3.115 Y3.582
X3.051 Y3.675
X3 Y3.768
X2.951 Y3.861
X2.912 Y3.954
X2.882 Y4.046
X2.858 Y4.139
X2.838 Y4.232
X2.825 Y4.325
X2.817 Y4.418
X2.815 Y4.511
X2.816 Y4.604
X2.82 Y4.697
X2.828 Y4.79
X2.843 Y4.883
X2.86 Y4.976
X3.023 Y5.67
X3.116 Y6.065
X3.122 Y6.09
X3.145 Y6.183
X3.174 Y6.276
X3.209 Y6.382
X3.242 Y6.462
X3.302 Y6.593
X3.331 Y6.648
X3.643 Y7.205
X3.673 Y7.258
X3.749 Y7.391
X3.766 Y7.417
X3.891 Y7.577
X3.952 Y7.646
X3.975 Y7.67
X4.045 Y7.735
X4.077 Y7.763
X4.138 Y7.809
X4.231 Y7.874
X4.323 Y7.934
X4.35 Y7.949
X4.416 Y7.983
X4.509 Y8.021
X4.602 Y8.055
X4.695 Y8.082
X4.788 Y8.103
X4.881 Y8.118
X4.974 Y8.128
X5.067 Y8.133
X5.16
X5.252 Y8.134
X30.427
X30.52 Y8.133
X30.613
X30.706 Y8.128
X30.799 Y8.118
X30.892 Y8.103
X30.984 Y8.082
X31.077 Y8.055
X31.17 Y8.021
X31.263 Y7.983
X31.33 Y7.949
X31.356 Y7.934
X31.449 Y7.874
X31.542 Y7.809
X31.602 Y7.763
X31.635 Y7.734
X31.703 Y7.67
X31.728 Y7.645
X31.788 Y7.577
X31.86 Y7.484
X31.913 Y7.416
X31.929 Y7.391
X32.006 Y7.259
X32.037 Y7.205
X32.354 Y6.648
X32.378 Y6.603
X32.4 Y6.555
X32.441 Y6.462
X32.471 Y6.392
X32.508 Y6.276
X32.537 Y6.183
X32.56 Y6.09
X32.779 Y5.161
X32.823 Y4.976
X32.84 Y4.883
X32.855 Y4.79
X32.863 Y4.697
X32.868 Y4.604
Y4.511
X32.867 Y4.418
X32.859 Y4.325
X32.842 Y4.202
X32.802 Y4.046
X32.773 Y3.954
X32.749 Y3.897
X32.734 Y3.861
X32.685 Y3.768
X32.634 Y3.675
X32.571 Y3.582
X32.498 Y3.489
X32.471 Y3.453
X32.378 Y3.325
X32.362 Y3.303
X32.285 Y3.209
X32.192 Y3.104
X32.099 Y3.023
X32.006 Y2.947
X31.913 Y2.885
X31.635 Y2.705
X31.549 Y2.653
X31.449 Y2.596
X31.376 Y2.56
X31.263 Y2.514
X31.17 Y2.483
X31.077 Y2.458
X30.984 Y2.441
X30.892 Y2.427
X30.799 Y2.422
X30.706 Y2.418
X30.613
X5.067
X4.974
X4.881 Y2.422
X4.788 Y2.427
X4.695 Y2.441
X4.602 Y2.458
X4.509 Y2.483
X4.416 Y2.514
X4.304 Y2.56
X4.231 Y2.596
X4.13 Y2.653
X4.045 Y2.704
X3.952 Y2.762
X3.859 Y2.821
X3.766 Y2.885
X3.73 Y2.911
G3 X3.307 Y2.83 I-0.169 J-0.26
G1 X3.288 Y2.779 Z-0.679
X3.27 Y2.731 Z-0.665
X3.253 Y2.685 Z-0.642
X3.251 Y2.651 Z-0.619
X3.26 Y2.602 Z-0.569
X3.267 Y2.565 Z-0.51
X3.272 Y2.542 Z-0.444
X3.273 Y2.534 Z-0.374
G0 Z5
X1.786 Y2.014
Z-0.049
G1 Z-0.359 F1000
X1.793 Y2.017 Z-0.428
X1.813 Y2.029 Z-0.494
X1.845 Y2.047 Z-0.553
X1.888 Y2.07 Z-0.602
X1.939 Y2.099 Z-0.639
X1.996 Y2.131 Z-0.662
X2.057 Y2.164 Z-0.669
G3 X3.449 Y3.149 I-3.849 J6.915
G1 X3.466 Y3.166
X3.472 Y3.182
X3.471 Y3.2
X3.463 Y3.216
X3.394 Y3.304
X3.302 Y3.432
X3.255 Y3.489
X3.116 Y3.669
X3.112 Y3.675
X3.059 Y3.768
X3.023 Y3.832
X3.009 Y3.861
X2.971 Y3.954
X2.935 Y4.046
X2.93 Y4.062
X2.909 Y4.139
X2.889 Y4.232
X2.875 Y4.325
X2.865 Y4.418
X2.862 Y4.511
Y4.604
X2.867 Y4.697
X2.875 Y4.79
X2.89 Y4.883
X2.907 Y4.976
X3.082 Y5.719
X3.104 Y5.812
X3.127 Y5.905
X3.154 Y5.998
X3.209 Y6.144
X3.224 Y6.183
X3.318 Y6.369
X3.474 Y6.648
X3.673 Y7.004
X3.682 Y7.019
X3.737 Y7.112
X3.766 Y7.156
X3.802 Y7.205
X3.88 Y7.298
X3.952 Y7.38
X4.07 Y7.484
X4.138 Y7.54
X4.191 Y7.577
X4.231 Y7.602
X4.323 Y7.656
X4.416 Y7.702
X4.509 Y7.744
X4.602 Y7.775
X4.695 Y7.8
X4.788 Y7.82
X4.881 Y7.834
X4.974 Y7.842
X5.067 Y7.846
X5.16 Y7.847
X5.252
X30.427
X30.52
X30.613 Y7.846
X30.706 Y7.842
X30.799 Y7.834
X30.892 Y7.82
X30.984 Y7.8
X31.077 Y7.775
X31.17 Y7.744
X31.263 Y7.702
X31.356 Y7.656
X31.449 Y7.602
X31.488 Y7.577
X31.542 Y7.54
X31.609 Y7.484
X31.728 Y7.379
X31.799 Y7.298
X31.877 Y7.205
X31.913 Y7.155
X31.942 Y7.112
X31.997 Y7.019
X32.006 Y7.004
X32.314 Y6.462
X32.367 Y6.369
X32.459 Y6.183
X32.471 Y6.154
X32.528 Y5.998
X32.554 Y5.905
X32.578 Y5.812
X32.6 Y5.719
X32.754 Y5.068
X32.775 Y4.976
X32.793 Y4.883
X32.808 Y4.79
X32.816 Y4.697
X32.821 Y4.604
Y4.511
X32.818 Y4.418
X32.808 Y4.325
X32.795 Y4.232
X32.775 Y4.139
X32.749 Y4.046
X32.713 Y3.954
X32.675 Y3.861
X32.657 Y3.824
X32.625 Y3.768
X32.573 Y3.675
X32.564 Y3.663
X32.43 Y3.489
X32.378 Y3.428
X32.285 Y3.299
X32.216 Y3.21
X32.192 Y3.182
X32.131 Y3.117
X32.099 Y3.085
X32.032 Y3.025
X32.006 Y3.002
X31.909 Y2.932
X31.82 Y2.87
X31.628 Y2.746
X31.542 Y2.691
X31.473 Y2.653
X31.449 Y2.64
X31.356 Y2.597
X31.263 Y2.559
X31.17 Y2.529
X31.077 Y2.503
X30.984 Y2.487
X30.892 Y2.473
X30.799 Y2.467
X30.706 Y2.464
X30.613 Y2.463
X5.067
X4.974 Y2.464
X4.881 Y2.467
X4.788 Y2.473
X4.695 Y2.487
X4.602 Y2.503
X4.509 Y2.529
X4.416 Y2.559
X4.323 Y2.597
X4.231 Y2.64
X4.207 Y2.653
X4.138 Y2.691
X4.045 Y2.75
X3.906 Y2.839
X3.859 Y2.869
X3.773 Y2.932
G3 X3.349 Y2.857 I-0.173 J-0.257
G1 X3.329 Y2.807 Z-0.664
X3.31 Y2.758 Z-0.65
X3.292 Y2.713 Z-0.627
X3.29 Y2.674 Z-0.601
X3.299 Y2.627 Z-0.551
X3.306 Y2.591 Z-0.493
X3.31 Y2.569 Z-0.428
X3.311 Y2.562 Z-0.36
G0 Z5
X1.807 Y2.057
Z-0.035
G1 Z-0.345 F1000
X1.814 Y2.06 Z-0.414
X1.834 Y2.071 Z-0.479
X1.867 Y2.088 Z-0.538
X1.91 Y2.111 Z-0.587
X1.962 Y2.139 Z-0.624
X2.02 Y2.17 Z-0.647
X2.08 Y2.202 Z-0.655
G3 X3.49 Y3.162 I-3.725 J6.983
G1 X3.502 Y3.173
X3.514 Y3.202
X3.513 Y3.234
X3.498 Y3.261
X3.487 Y3.274
X3.394 Y3.396
X3.322 Y3.489
X3.302 Y3.512
X3.246 Y3.582
X3.209 Y3.63
X3.175 Y3.675
X3.116 Y3.769
X3.068 Y3.861
X3.023 Y3.965
X2.991 Y4.046
X2.964 Y4.139
X2.939 Y4.232
X2.93 Y4.281
X2.923 Y4.325
X2.914 Y4.418
X2.91 Y4.511
X2.909 Y4.604
X2.914 Y4.697
X2.921 Y4.79
X2.93 Y4.855
X2.935 Y4.883
X2.954 Y4.976
X3.085 Y5.533
X3.109 Y5.626
X3.135 Y5.719
X3.171 Y5.812
X3.21 Y5.905
X3.255 Y5.998
X3.305 Y6.09
X3.357 Y6.183
X3.58 Y6.583
X3.673 Y6.748
X3.724 Y6.834
X3.766 Y6.894
X3.79 Y6.927
X3.859 Y7.011
X3.866 Y7.019
X3.952 Y7.111
X4.045 Y7.193
X4.059 Y7.205
X4.138 Y7.265
X4.231 Y7.329
X4.323 Y7.38
X4.416 Y7.424
X4.509 Y7.462
X4.602 Y7.493
X4.695 Y7.519
X4.788 Y7.537
X4.881 Y7.549
X4.974 Y7.557
X5.067 Y7.56
X5.252
X30.427
X30.613
X30.706 Y7.557
X30.799 Y7.549
X30.892 Y7.537
X30.984 Y7.519
X31.077 Y7.493
X31.17 Y7.462
X31.263 Y7.424
X31.356 Y7.38
X31.449 Y7.329
X31.542 Y7.265
X31.62 Y7.205
X31.635 Y7.193
X31.725 Y7.112
X31.728 Y7.11
X31.813 Y7.019
X31.82 Y7.011
X31.889 Y6.927
X31.913 Y6.893
X31.955 Y6.834
X32.006 Y6.748
X32.116 Y6.555
X32.327 Y6.183
X32.379 Y6.09
X32.43 Y5.998
X32.471 Y5.912
X32.512 Y5.812
X32.547 Y5.719
X32.573 Y5.626
X32.597 Y5.533
X32.728 Y4.976
X32.748 Y4.883
X32.749 Y4.873
X32.762 Y4.79
X32.769 Y4.697
X32.774 Y4.604
X32.773 Y4.511
G3 X33.287 Y4.275 I0.31 J-0.003
X33.107 Y4.48 I-0.09 J0.103
X33.065 Y4.344 I0.09 J-0.103
X33.676 Y4.418 I0.301 J0.075
G1 Y4.419
G3 X33.177 Y4.665 I-0.31 J0
X32.693 Y4.046 I0.965 J-1.254
G1 X32.655 Y3.954
X32.616 Y3.861
X32.567 Y3.768
X32.509 Y3.675
X32.471 Y3.624
X32.438 Y3.582
X32.378 Y3.506
X32.362 Y3.489
X32.285 Y3.391
X32.192 Y3.27
X32.14 Y3.21
X32.006 Y3.064
X31.957 Y3.025
X31.82 Y2.919
X31.728 Y2.856
X31.635 Y2.796
X31.553 Y2.746
X31.449 Y2.684
X31.38 Y2.653
X31.263 Y2.605
X31.17 Y2.575
X31.077 Y2.549
X30.984 Y2.532
X30.892 Y2.518
X30.799 Y2.513
X30.706 Y2.51
X30.613 Y2.509
X5.067
X4.974 Y2.51
X4.881 Y2.513
X4.788 Y2.518
X4.695 Y2.532
X4.602 Y2.549
X4.509 Y2.575
X4.416 Y2.605
X4.299 Y2.653
X4.231 Y2.684
X4.126 Y2.746
X4.045 Y2.795
X3.952 Y2.856
X3.859 Y2.92
X3.801 Y2.965
G3 X3.375 Y2.905 I-0.182 J-0.251
G1 X3.354 Y2.856 Z-0.65
X3.333 Y2.808 Z-0.636
X3.313 Y2.764 Z-0.613
X3.309 Y2.714 Z-0.576
X3.317 Y2.671 Z-0.528
X3.322 Y2.639 Z-0.472
X3.325 Y2.619 Z-0.41
X3.327 Y2.612 Z-0.345
G0 Z5
X1.853 Y2.095
Z-0.02
G1 Z-0.33 F1000
X1.86 Y2.099 Z-0.399
X1.88 Y2.109 Z-0.465
X1.913 Y2.126 Z-0.524
X1.957 Y2.148 Z-0.573
X2.01 Y2.174 Z-0.61
X2.068 Y2.204 Z-0.632
X2.13 Y2.235 Z-0.64
G3 X3.56 Y3.163 I-3.57 J7.063
G1 X3.573 Y3.175
X3.585 Y3.202
Y3.232
X3.572 Y3.259
X3.539 Y3.303
X3.487 Y3.37
X3.467 Y3.396
X3.394 Y3.485
X3.302 Y3.591
X3.238 Y3.675
X3.125 Y3.861
X3.116 Y3.879
X3.084 Y3.954
X3.046 Y4.046
X3.018 Y4.139
X2.992 Y4.232
X2.976 Y4.325
X2.963 Y4.418
X2.958 Y4.511
X2.956 Y4.604
X2.961 Y4.697
X2.969 Y4.79
X2.984 Y4.883
X3.001 Y4.976
X3.045 Y5.161
X3.09 Y5.347
X3.119 Y5.44
X3.152 Y5.533
X3.24 Y5.719
X3.291 Y5.812
X3.58 Y6.328
X3.603 Y6.369
X3.712 Y6.555
X3.766 Y6.631
X3.853 Y6.741
X3.859 Y6.748
X3.944 Y6.834
X4.047 Y6.927
X4.138 Y6.991
X4.231 Y7.05
X4.323 Y7.105
X4.416 Y7.147
X4.509 Y7.182
X4.602 Y7.212
X4.695 Y7.235
X4.788 Y7.253
X4.881 Y7.264
X4.974 Y7.271
X5.067 Y7.273
X5.531
X30.52
X30.613
X30.706 Y7.271
X30.799 Y7.264
X30.892 Y7.253
X30.984 Y7.235
X31.077 Y7.212
X31.17 Y7.182
X31.263 Y7.147
X31.356 Y7.105
X31.449 Y7.05
X31.542 Y6.991
X31.632 Y6.927
X31.735 Y6.834
X31.82 Y6.748
X31.913 Y6.63
X31.967 Y6.555
