(1001)
(WC deskel)
(T1  D=3.1 CR=0 - ZMIN=-3 - flat end mill)
G90 G94
G17
G21

(Adaptive4)
S5000 M3
G54
G0 Z10
G0 X21.445 Y21.911
G3 X22.284 Y19.088 Z2.338 I0.42 J-1.411 F333.3
X21.445 Y21.911 Z2.177 I-0.42 J1.411
X22.284 Y19.088 Z2.015 I0.42 J-1.411
X21.445 Y21.911 Z1.854 I-0.42 J1.411
X22.284 Y19.088 Z1.692 I0.42 J-1.411
X21.445 Y21.911 Z1.531 I-0.42 J1.411
X22.284 Y19.088 Z1.369 I0.42 J-1.411
X21.445 Y21.911 Z1.208 I-0.42 J1.411
X22.284 Y19.088 Z1.046 I0.42 J-1.411
X21.445 Y21.911 Z0.885 I-0.42 J1.411
X22.284 Y19.088 Z0.723 I0.42 J-1.411
X21.445 Y21.911 Z0.561 I-0.42 J1.411
X22.284 Y19.088 Z0.4 I0.42 J-1.411
X21.445 Y21.911 Z0.238 I-0.42 J1.411
X22.284 Y19.088 Z0.077 I0.42 J-1.411
X21.445 Y21.911 Z-0.085 I-0.42 J1.411
X22.284 Y19.088 Z-0.246 I0.42 J-1.411
X21.445 Y21.911 Z-0.408 I-0.42 J1.411
X22.284 Y19.088 Z-0.569 I0.42 J-1.411
X21.445 Y21.911 Z-0.731 I-0.42 J1.411
X22.284 Y19.088 Z-0.892 I0.42 J-1.411
X23.337 Y20.5 Z-0.958 I-0.42 J1.411
X20.392 Y20.5 I-1.472 J0
X23.337 Y20.5 I1.472 J0
S10000
G1 X23.369 Y21.133 F1000
X23.395 Y21.208
X23.425 Y21.355
Y21.505
X23.401 Y21.653
X23.355 Y21.796
X23.292 Y21.932
X23.213 Y22.06
X23.121 Y22.178
X23.017 Y22.287
X22.904 Y22.385
X22.782 Y22.472
X22.653 Y22.549
X22.518 Y22.614
X22.377 Y22.669
X22.228 Y22.713
X22.072 Y22.746
X21.912 Y22.767
X21.747 Y22.775
X21.58 Y22.769
X21.411 Y22.75
X21.242 Y22.717
X21.074 Y22.67
X20.91 Y22.609
X20.749 Y22.534
X20.593 Y22.446
X20.444 Y22.345
X20.302 Y22.232
X20.17 Y22.107
X20.047 Y21.971
X19.935 Y21.826
X19.835 Y21.671
X19.747 Y21.508
X19.673 Y21.338
X19.612 Y21.162
X19.565 Y20.981
X19.533 Y20.797
X19.516 Y20.611
X19.514 Y20.423
X19.526 Y20.236
X19.554 Y20.05
X19.597 Y19.867
X19.654 Y19.688
X19.726 Y19.513
X19.812 Y19.345
X19.91 Y19.184
X20.022 Y19.032
X20.145 Y18.889
X20.279 Y18.756
X20.424 Y18.635
X20.578 Y18.525
X20.74 Y18.428
X20.91 Y18.345
X21.086 Y18.275
X21.267 Y18.22
X21.451 Y18.179
X21.639 Y18.153
X21.828 Y18.142
X22.017 Y18.147
X22.205 Y18.167
X22.391 Y18.202
X22.574 Y18.251
X22.752 Y18.315
X22.925 Y18.394
X23.09 Y18.486
X23.248 Y18.59
X23.397 Y18.708
X23.536 Y18.836
X23.664 Y18.976
X23.78 Y19.125
X23.885 Y19.284
X23.997 Y19.488
X24.166 Y19.866
X24.282 Y20.192
X24.354 Y20.459
X24.398 Y20.703
X24.421 Y20.935
X24.426 Y21.155
X24.413 Y21.365
X24.385 Y21.567
X24.34 Y21.766
X24.28 Y21.96
X24.204 Y22.149
X24.113 Y22.332
X24.007 Y22.507
X23.887 Y22.674
X23.752 Y22.833
X23.604 Y22.982
X23.442 Y23.121
X23.267 Y23.247
X23.079 Y23.362
X22.88 Y23.462
X22.67 Y23.547
X22.451 Y23.616
X22.224 Y23.668
X21.991 Y23.702
X21.754 Y23.717
X21.513 Y23.713
X21.27 Y23.69
X21.029 Y23.646
X20.789 Y23.583
X20.553 Y23.501
X20.324 Y23.399
X20.101 Y23.278
X19.888 Y23.139
X19.686 Y22.982
X19.495 Y22.809
X19.319 Y22.62
X19.157 Y22.416
X19.012 Y22.2
X18.884 Y21.971
X18.775 Y21.733
X18.685 Y21.485
X18.615 Y21.231
X18.565 Y20.971
X18.536 Y20.708
X18.529 Y20.443
X18.543 Y20.177
X18.578 Y19.913
X18.634 Y19.653
X18.711 Y19.397
X18.809 Y19.149
X18.926 Y18.908
X19.062 Y18.678
X19.216 Y18.459
X19.388 Y18.254
X19.575 Y18.062
X19.778 Y17.887
X19.994 Y17.728
X20.222 Y17.586
X20.46 Y17.464
X20.708 Y17.361
X20.963 Y17.278
X21.225 Y17.216
X21.49 Y17.175
X21.758 Y17.156
X22.026 Y17.158
X22.294 Y17.182
X22.559 Y17.227
X22.819 Y17.293
X23.073 Y17.38
X23.32 Y17.487
X23.557 Y17.613
X23.783 Y17.758
X23.997 Y17.921
X24.204 Y18.106
X24.424 Y18.338
X24.631 Y18.595
X24.826 Y18.88
X24.998 Y19.182
X25.144 Y19.493
X25.261 Y19.808
X25.351 Y20.121
X25.413 Y20.432
X25.449 Y20.739
X25.46 Y21.044
X25.447 Y21.345
X25.41 Y21.641
X25.35 Y21.93
X25.267 Y22.212
X25.162 Y22.486
X25.036 Y22.75
X24.889 Y23.004
X24.721 Y23.245
X24.534 Y23.474
X24.328 Y23.688
X24.104 Y23.886
X23.863 Y24.067
X23.606 Y24.229
X23.334 Y24.371
X23.049 Y24.492
X22.753 Y24.591
X22.447 Y24.666
X22.134 Y24.717
X21.815 Y24.743
X21.493
X21.17 Y24.717
X20.847 Y24.665
X20.528 Y24.586
X20.214 Y24.482
X19.908 Y24.352
X19.611 Y24.197
X19.327 Y24.018
X19.056 Y23.815
X18.801 Y23.591
X18.565 Y23.345
X18.347 Y23.081
X18.152 Y22.799
X17.978 Y22.501
X17.829 Y22.189
X17.705 Y21.866
X17.607 Y21.533
X17.536 Y21.192
X17.493 Y20.846
X17.477 Y20.497
X17.49 Y20.148
X17.53 Y19.8
X17.599 Y19.456
X17.695 Y19.118
X17.817 Y18.789
X17.966 Y18.471
X18.14 Y18.165
X18.338 Y17.874
X18.559 Y17.6
X18.802 Y17.344
X19.064 Y17.109
X19.345 Y16.895
X19.641 Y16.705
X19.952 Y16.538
X20.276 Y16.398
X20.61 Y16.283
X20.952 Y16.196
X21.3 Y16.137
X21.652 Y16.105
X22.005 Y16.102
X22.357 Y16.127
X22.706 Y16.181
X23.05 Y16.262
X23.386 Y16.371
X23.713 Y16.506
X24.029 Y16.668
X24.342 Y16.862
X24.647 Y17.086
X24.943 Y17.343
X25.224 Y17.63
X25.486 Y17.944
X25.724 Y18.28
X25.934 Y18.635
X26.115 Y19.004
X26.263 Y19.382
X26.38 Y19.768
X26.465 Y20.159
X26.518 Y20.552
X26.538 Y20.944
X26.528 Y21.333
X26.486 Y21.718
X26.414 Y22.097
X26.312 Y22.467
X26.181 Y22.827
X26.022 Y23.174
X25.836 Y23.508
X25.622 Y23.827
X25.384 Y24.128
X25.121 Y24.41
X24.835 Y24.671
X24.527 Y24.91
X24.199 Y25.124
X23.854 Y25.312
X23.492 Y25.473
X23.115 Y25.606
X22.728 Y25.708
X22.33 Y25.779
X21.926 Y25.819
X21.518 Y25.826
X21.108 Y25.799
X20.7 Y25.74
X20.295 Y25.648
X19.897 Y25.523
X19.508 Y25.366
X19.132 Y25.177
X18.771 Y24.957
X18.427 Y24.708
X18.102 Y24.432
X17.8 Y24.129
X17.523 Y23.802
X17.271 Y23.453
X17.048 Y23.083
X16.855 Y22.696
X16.693 Y22.294
X16.564 Y21.879
X16.468 Y21.455
X16.407 Y21.023
X16.38 Y20.587
X16.389 Y20.15
X16.432 Y19.714
X16.511 Y19.283
X16.623 Y18.859
X16.77 Y18.445
X16.95 Y18.044
X17.161 Y17.658
X17.403 Y17.29
X17.673 Y16.943
X17.971 Y16.618
X18.294 Y16.319
X18.64 Y16.046
X19.007 Y15.801
X19.393 Y15.587
X19.795 Y15.405
X20.21 Y15.255
X20.635 Y15.139
X21.069 Y15.057
X21.508 Y15.011
X21.95 Y15
X22.391 Y15.024
X22.828 Y15.084
X23.26 Y15.178
X23.685 Y15.308
X24.102 Y15.473
X24.51 Y15.674
X24.905 Y15.909
X25.288 Y16.181
X25.655 Y16.489
X26.001 Y16.83
X26.322 Y17.202
X26.613 Y17.6
X26.873 Y18.022
X27.097 Y18.462
X27.285 Y18.918
X27.434 Y19.385
X27.546 Y19.86
X27.618 Y20.34
X27.652 Y20.822
X27.646 Y21.302
X27.603 Y21.778
X27.521 Y22.247
X27.403 Y22.707
X27.248 Y23.155
X27.058 Y23.588
X26.834 Y24.005
X26.577 Y24.404
X26.288 Y24.78
X25.97 Y25.134
X25.622 Y25.462
X25.248 Y25.762
X24.85 Y26.032
X24.429 Y26.27
X23.989 Y26.475
X23.531 Y26.644
X23.059 Y26.777
X22.575 Y26.872
X22.083 Y26.928
X21.586 Y26.945
X21.086 Y26.921
X20.588 Y26.857
X20.095 Y26.753
X19.609 Y26.609
X19.135 Y26.426
X18.675 Y26.205
X18.233 Y25.946
X17.811 Y25.652
X17.413 Y25.324
X17.042 Y24.964
X16.7 Y24.574
X16.389 Y24.157
X16.113 Y23.715
X15.872 Y23.251
X15.668 Y22.769
X15.504 Y22.271
X15.38 Y21.761
X15.297 Y21.241
X15.257 Y20.716
X15.258 Y20.188
X15.302 Y19.662
X15.388 Y19.141
X15.516 Y18.627
X15.684 Y18.125
X15.893 Y17.638
X16.14 Y17.169
X16.424 Y16.721
X16.743 Y16.297
X17.096 Y15.9
X17.479 Y15.533
X17.891 Y15.197
X18.328 Y14.895
X18.789 Y14.629
X19.269 Y14.401
X19.766 Y14.212
X20.277 Y14.064
X20.798 Y13.957
X21.326 Y13.892
X21.858 Y13.87
X22.39 Y13.891
X22.919 Y13.954
X23.444 Y14.06
X23.961 Y14.209
X24.469 Y14.4
X24.964 Y14.634
X25.446 Y14.91
X25.909 Y15.228
X26.35 Y15.586
X26.765 Y15.982
X27.15 Y16.413
X27.5 Y16.876
X27.813 Y17.366
X28.086 Y17.88
X28.316 Y18.414
X28.502 Y18.963
X28.643 Y19.524
X28.738 Y20.092
X28.788 Y20.664
X28.791 Y21.236
X28.748 Y21.805
X28.66 Y22.367
X28.528 Y22.919
X28.352 Y23.457
X28.133 Y23.98
X27.873 Y24.483
X27.574 Y24.964
X27.236 Y25.42
X26.862 Y25.848
X26.454 Y26.246
X26.014 Y26.611
X25.545 Y26.94
X25.049 Y27.232
X24.53 Y27.484
X23.989 Y27.694
X23.432 Y27.861
X22.861 Y27.983
X22.279 Y28.059
X21.691 Y28.088
X21.1 Y28.07
X20.51 Y28.005
X19.925 Y27.891
X19.349 Y27.731
X18.786 Y27.524
X18.239 Y27.272
X17.713 Y26.976
X17.211 Y26.637
X16.736 Y26.258
X16.292 Y25.842
X15.882 Y25.39
X15.508 Y24.905
X15.174 Y24.391
X14.882 Y23.85
X14.634 Y23.287
X14.431 Y22.705
X14.276 Y22.108
X14.168 Y21.499
X14.11 Y20.883
X14.102 Y20.263
X14.143 Y19.644
X14.234 Y19.03
X14.374 Y18.425
X14.562 Y17.832
X14.798 Y17.256
X15.079 Y16.7
X15.404 Y16.169
X15.771 Y15.665
X16.177 Y15.192
X16.62 Y14.753
X17.097 Y14.351
X17.604 Y13.988
X18.14 Y13.667
X18.699 Y13.39
X19.279 Y13.159
X19.876 Y12.975
X20.486 Y12.839
X21.105 Y12.753
X21.729 Y12.717
X22.355 Y12.731
X22.979 Y12.795
X23.599 Y12.91
X24.21 Y13.075
X24.808 Y13.289
X25.386 Y13.549
X25.942 Y13.855
X26.472 Y14.203
X26.974 Y14.591
X27.444 Y15.018
X27.88 Y15.479
X28.279 Y15.972
X28.64 Y16.494
X28.96 Y17.041
X29.238 Y17.612
X29.472 Y18.201
X29.661 Y18.807
X29.804 Y19.425
X29.899 Y20.052
X29.947 Y20.685
X29.946 Y21.319
X29.896 Y21.952
X29.798 Y22.579
X29.653 Y23.196
X29.46 Y23.801
X29.221 Y24.388
X28.938 Y24.956
X28.611 Y25.5
X28.244 Y26.017
X27.837 Y26.504
X27.394 Y26.959
X26.918 Y27.377
X26.41 Y27.758
X25.875 Y28.099
X25.315 Y28.398
X24.735 Y28.654
X24.137 Y28.865
X23.524 Y29.03
X22.901 Y29.15
X22.271 Y29.222
X21.637 Y29.248
X21.003 Y29.226
X20.372 Y29.158
X19.748 Y29.043
X19.134 Y28.883
X18.534 Y28.677
X17.951 Y28.426
X17.388 Y28.134
X16.848 Y27.801
X16.334 Y27.43
X15.847 Y27.022
X15.392 Y26.581
X14.969 Y26.108
X14.58 Y25.606
X14.229 Y25.078
X13.917 Y24.525
X13.648 Y23.951
X13.42 Y23.359
X13.236 Y22.752
X13.095 Y22.133
X12.998 Y21.506
X12.946 Y20.874
X12.939 Y20.24
X12.976 Y19.606
X13.059 Y18.977
X13.188 Y18.356
X13.362 Y17.746
X13.578 Y17.15
X13.836 Y16.57
X14.134 Y16.01
X14.471 Y15.472
X14.845 Y14.96
X15.253 Y14.474
X15.696 Y14.02
X16.171 Y13.599
X16.675 Y13.214
X17.205 Y12.865
X17.758 Y12.554
X18.331 Y12.282
X18.922 Y12.051
X19.528 Y11.862
X20.145 Y11.717
X20.772 Y11.617
X21.404 Y11.563
X22.038 Y11.553
X22.672 Y11.589
X23.301 Y11.668
X23.923 Y11.791
X24.536 Y11.956
X25.136 Y12.164
X25.719 Y12.414
X26.283 Y12.704
X26.825 Y13.033
X27.344 Y13.398
X27.838 Y13.797
X28.303 Y14.227
X28.739 Y14.688
X29.144 Y15.177
X29.514 Y15.692
X29.848 Y16.232
X30.145 Y16.792
X30.404 Y17.371
X30.625 Y17.966
X30.807 Y18.574
X30.949 Y19.192
X31.05 Y19.819
X31.107 Y20.45
X31.121 Y21.085
X31.092 Y21.719
X31.021 Y22.349
X30.908 Y22.973
X30.754 Y23.589
X30.559 Y24.193
X30.325 Y24.782
X30.051 Y25.354
X29.737 Y25.906
X29.386 Y26.434
X29.001 Y26.938
X28.583 Y27.416
X28.134 Y27.864
X27.656 Y28.281
X27.152 Y28.666
X26.622 Y29.015
X26.069 Y29.327
X25.497 Y29.601
X24.908 Y29.837
X24.305 Y30.033
X23.69 Y30.19
X23.067 Y30.307
X22.437 Y30.383
X21.803 Y30.417
X21.169 Y30.409
X20.536 Y30.358
X19.909 Y30.267
X19.288 Y30.136
X18.677 Y29.964
X18.079 Y29.754
X17.495 Y29.505
X16.928 Y29.219
X16.382 Y28.896
X15.859 Y28.538
X15.359 Y28.148
X14.885 Y27.726
X14.438 Y27.276
X14.02 Y26.798
X13.633 Y26.296
X13.278 Y25.77
X12.959 Y25.221
X12.677 Y24.653
X12.432 Y24.068
X12.224 Y23.468
X12.055 Y22.857
X11.923 Y22.236
X11.831 Y21.609
X11.777 Y20.977
X11.762 Y20.342
X11.789 Y19.708
X11.858 Y19.078
X11.966 Y18.453
X12.114 Y17.836
X12.3 Y17.229
X12.523 Y16.635
X12.783 Y16.056
X13.077 Y15.494
X13.406 Y14.952
X13.77 Y14.432
X14.166 Y13.936
X14.592 Y13.467
X15.048 Y13.025
X15.53 Y12.612
X16.036 Y12.231
X16.566 Y11.881
X17.116 Y11.564
X17.685 Y11.284
X18.27 Y11.04
X18.87 Y10.833
X19.482 Y10.664
X20.103 Y10.534
X20.731 Y10.444
X21.363 Y10.392
X21.997 Y10.38
X22.631 Y10.407
X23.262 Y10.474
X23.887 Y10.581
X24.505 Y10.727
X25.112 Y10.91
X25.707 Y11.13
X26.287 Y11.387
X26.851 Y11.678
X27.396 Y12.003
X27.92 Y12.36
X28.421 Y12.749
X28.898 Y13.168
X29.349 Y13.614
X29.772 Y14.087
X30.167 Y14.584
X30.531 Y15.103
X30.864 Y15.643
X31.165 Y16.201
X31.433 Y16.777
X31.665 Y17.367
X31.861 Y17.97
X32.022 Y18.584
X32.146 Y19.206
X32.234 Y19.835
X32.283 Y20.467
X32.295 Y21.101
X32.27 Y21.735
X32.207 Y22.367
X32.106 Y22.993
X31.966 Y23.612
X31.791 Y24.222
X31.579 Y24.82
X31.332 Y25.404
X31.051 Y25.973
X30.736 Y26.523
X30.388 Y27.054
X30.009 Y27.563
X29.6 Y28.048
X29.162 Y28.507
X28.698 Y28.939
X28.209 Y29.343
X27.696 Y29.717
X27.162 Y30.06
X26.609 Y30.37
X26.038 Y30.648
X25.452 Y30.891
X24.853 Y31.098
X24.242 Y31.27
X23.622 Y31.405
X22.996 Y31.505
X22.364 Y31.568
X21.73 Y31.593
X21.096 Y31.582
X20.463 Y31.535
X19.835 Y31.451
X19.212 Y31.329
X18.598 Y31.171
X17.993 Y30.977
X17.401 Y30.75
X16.823 Y30.488
X16.261 Y30.193
X15.717 Y29.867
X15.193 Y29.51
X14.689 Y29.124
X14.209 Y28.71
X13.753 Y28.268
X13.324 Y27.801
X12.921 Y27.311
X12.547 Y26.799
X12.202 Y26.266
X11.889 Y25.714
X11.608 Y25.146
X11.359 Y24.562
X11.144 Y23.965
X10.964 Y23.357
X10.818 Y22.739
X10.708 Y22.115
X10.632 Y21.485
X10.592 Y20.852
X10.587 Y20.217
X10.619 Y19.583
X10.686 Y18.953
X10.788 Y18.327
X10.927 Y17.707
X11.101 Y17.097
X11.309 Y16.498
X11.55 Y15.911
X11.823 Y15.338
X12.128 Y14.782
X12.463 Y14.243
X12.828 Y13.724
X13.222 Y13.227
X13.643 Y12.752
X14.09 Y12.303
X14.563 Y11.88
X15.059 Y11.484
X15.576 Y11.116
X16.112 Y10.778
X16.667 Y10.469
X17.238 Y10.193
X17.823 Y9.948
X18.422 Y9.737
X19.031 Y9.56
X19.649 Y9.418
X20.275 Y9.312
X20.905 Y9.241
X21.539 Y9.205
X22.173 Y9.204
X22.807 Y9.239
X23.437 Y9.309
X24.063 Y9.413
X24.682 Y9.552
X25.292 Y9.726
X25.891 Y9.934
X26.478 Y10.175
X27.051 Y10.448
X27.608 Y10.751
X28.148 Y11.085
X28.669 Y11.447
X29.17 Y11.837
X29.649 Y12.253
X30.105 Y12.694
X30.535 Y13.159
X30.94 Y13.648
X31.318 Y14.158
X31.668 Y14.687
X31.99 Y15.233
X32.282 Y15.796
X32.544 Y16.374
X32.775 Y16.965
X32.975 Y17.567
X33.143 Y18.179
X33.276 Y18.799
X33.376 Y19.426
X33.442 Y20.057
X33.474 Y20.691
X33.473 Y21.325
X33.437 Y21.958
X33.368 Y22.589
X33.265 Y23.215
X33.129 Y23.835
X32.961 Y24.446
X32.758 Y25.048
X32.523 Y25.637
X32.256 Y26.212
X31.959 Y26.773
X31.632 Y27.317
X31.276 Y27.842
X30.893 Y28.348
X30.483 Y28.832
X30.048 Y29.293
X29.588 Y29.731
X29.105 Y30.142
X28.601 Y30.527
X28.076 Y30.883
X27.533 Y31.212
X26.974 Y31.511
X26.399 Y31.78
X25.811 Y32.018
X25.211 Y32.224
X24.601 Y32.399
X23.983 Y32.542
X23.358 Y32.651
X22.728 Y32.726
X22.095 Y32.767
X21.46 Y32.776
X20.827 Y32.752
X20.195 Y32.694
X19.567 Y32.604
X18.944 Y32.48
X18.329 Y32.325
X17.723 Y32.137
X17.128 Y31.918
X16.545 Y31.667
X15.976 Y31.386
X15.423 Y31.076
X14.886 Y30.737
X14.368 Y30.372
X13.869 Y29.98
X13.39 Y29.564
X12.934 Y29.123
X12.5 Y28.66
X12.091 Y28.175
X11.709 Y27.669
X11.353 Y27.143
X11.025 Y26.6
X10.725 Y26.041
X10.455 Y25.467
X10.214 Y24.88
X10.003 Y24.282
X9.823 Y23.674
X9.674 Y23.057
X9.557 Y22.433
X9.472 Y21.805
X9.42 Y21.172
X9.4 Y20.538
X9.413 Y19.904
X9.458 Y19.271
X9.535 Y18.641
X9.644 Y18.016
X9.785 Y17.398
X9.957 Y16.787
X10.16 Y16.186
X10.393 Y15.596
X10.657 Y15.019
X10.949 Y14.456
X11.27 Y13.909
X11.618 Y13.378
X11.993 Y12.866
X12.393 Y12.374
X12.818 Y11.903
X13.266 Y11.454
X13.736 Y11.028
X14.227 Y10.626
X14.739 Y10.251
X15.269 Y9.902
X15.816 Y9.581
X16.379 Y9.288
X16.955 Y9.023
X17.544 Y8.788
X18.145 Y8.583
X18.755 Y8.409
X19.373 Y8.266
X19.998 Y8.155
X20.627 Y8.075
X21.26 Y8.029
X21.894 Y8.014
X22.528 Y8.032
X23.161 Y8.082
X23.79 Y8.163
X24.414 Y8.276
X25.032 Y8.42
X25.642 Y8.595
X26.242 Y8.8
X26.832 Y9.034
X27.409 Y9.299
X27.971 Y9.592
X28.518 Y9.913
X29.049 Y10.261
X29.562 Y10.634
X30.056 Y11.032
X30.531 Y11.453
X30.984 Y11.897
X31.414 Y12.363
X31.822 Y12.849
X32.205 Y13.355
X32.563 Y13.879
X32.895 Y14.42
X33.2 Y14.976
X33.477 Y15.546
X33.727 Y16.13
X33.949 Y16.724
X34.142 Y17.328
X34.305 Y17.941
X34.439 Y18.562
X34.542 Y19.188
X34.614 Y19.818
X34.656 Y20.451
X34.666 Y21.085
X34.644 Y21.719
X34.592 Y22.352
X34.51 Y22.981
X34.397 Y23.605
X34.255 Y24.223
X34.082 Y24.834
X33.879 Y25.435
X33.647 Y26.026
X33.387 Y26.604
X33.098 Y27.169
X32.781 Y27.719
X32.438 Y28.252
X32.069 Y28.768
X31.675 Y29.265
X31.372 Y29.613
X31.339 Y29.647
X31.305 Y29.68
X31.268 Y29.71
X30.238 Y30.503
X30.119 Y30.59
X30.024 Y30.647
X29.399 Y30.994
X28.39 Y31.549
X28.165 Y31.655
X28.102 Y31.683
X27.237 Y32.037
X27.11 Y32.087
X26.661 Y32.24
X26.229 Y32.377
X26.085 Y32.415
X24.211 Y32.822
X23.779 Y32.886
X23.635 Y32.904
X23.226 Y32.95
X22.77 Y32.973
X22.338 Y32.992
X22.194 Y32.997
X21.762 Y33.009
X20.897 Y32.973
X20.753 Y32.966
X20.321 Y32.934
X20.177 Y32.919
X19.889 Y32.885
X19.745 Y32.865
X19.312 Y32.788
X17.871 Y32.477
X17.439 Y32.372
X17.295 Y32.332
X16.863 Y32.193
X16.43 Y32.035
X15.85 Y31.799
X15.422 Y31.621
X15.278 Y31.548
X13.91 Y30.791
X13.549 Y30.584
X13.439 Y30.503
X12.108 Y29.479
X11.964 Y29.367
X11.676 Y29.101
X11.191 Y28.632
X11.099 Y28.531
X10.934 Y28.344
X10.54 Y27.848
X10.177 Y27.361
X9.839 Y26.824
X9.539 Y26.265
X9.272 Y25.69
X9.036 Y25.101
X8.831 Y24.501
X8.654 Y23.891
X8.507 Y23.274
X8.389 Y22.651
X8.3 Y22.023
X8.241 Y21.391
X8.212 Y20.757
X8.214 Y20.123
X8.245 Y19.489
X8.306 Y18.858
X8.396 Y18.23
X8.515 Y17.606
X8.663 Y16.989
X8.839 Y16.38
X9.043 Y15.779
X9.274 Y15.188
X9.533 Y14.609
X9.612 Y14.452
X9.627 Y14.424
X9.643 Y14.397
X9.66 Y14.371
X10.339 Y13.375
X10.441 Y13.231
X10.523 Y13.126
X11.061 Y12.512
X11.099 Y12.469
X11.191 Y12.368
X11.676 Y11.899
X11.964 Y11.633
X12.315 Y11.36
X13.437 Y10.497
X13.549 Y10.415
X13.908 Y10.209
X15.278 Y9.452
X15.422 Y9.379
X15.854 Y9.2
X16.43 Y8.965
X16.863 Y8.807
X17.295 Y8.668
X17.448 Y8.626
X17.871 Y8.523
X19.312 Y8.211
X19.745 Y8.134
X19.889 Y8.114
X20.177 Y8.081
X20.321 Y8.065
X20.753 Y8.034
X21.041 Y8.02
X21.762 Y7.99
X22.194 Y8.003
X22.482 Y8.014
X22.77 Y8.027
X23.227 Y8.05
X23.635 Y8.097
X23.779 Y8.115
X24.211 Y8.179
X26.085 Y8.583
X26.229 Y8.621
X26.661 Y8.759
X27.111 Y8.913
X27.237 Y8.963
X28.102 Y9.314
X28.171 Y9.345
X28.39 Y9.449
X29.305 Y9.921
X29.399 Y9.973
X29.558 Y10.065
X29.687 Y10.143
X30.027 Y10.353
X30.119 Y10.411
X30.236 Y10.497
X31.547 Y11.504
X31.992 Y11.891
X32.484 Y12.368
X32.569 Y12.461
X33.001 Y12.953
X33.11 Y13.087
X33.335 Y13.375
X34.021 Y14.383
X34.314 Y14.815
X34.394 Y14.959
X34.586 Y15.321
X34.619 Y15.39
X34.82 Y15.822
X35.018 Y16.293
X35.114 Y16.542
X35.168 Y16.686
X35.221 Y16.83
X35.605 Y18.269
X35.697 Y18.701
X35.722 Y18.845
X35.779 Y19.277
X35.829 Y20.14
X35.835 Y20.284
Y20.716
X35.829 Y20.86
X35.779 Y21.723
X35.721 Y22.155
X35.697 Y22.299
X35.605 Y22.731
X35.221 Y24.17
X35.162 Y24.33
X35.059 Y24.602
X35.018 Y24.707
X34.82 Y25.178
X34.619 Y25.61
X34.586 Y25.678
X34.393 Y26.041
X34.314 Y26.185
X33.332 Y27.625
X33.106 Y27.913
X33.001 Y28.043
X32.569 Y28.537
X32.483 Y28.632
X31.992 Y29.108
X31.546 Y29.496
X31.268 Y29.71
G3 X30.795 Y29.354 I-0.18 J-0.252
G1 X30.819 Y29.289 Z-0.951
X30.841 Y29.227 Z-0.928
X30.86 Y29.172 Z-0.891
X30.877 Y29.126 Z-0.842
X30.889 Y29.091 Z-0.783
X30.897 Y29.069 Z-0.717
X30.899 Y29.062 Z-0.648
G0 Z5
X11.893 Y28.859
Z-0.338
G1 Z-0.648 F1000
X11.886 Y28.857 Z-0.717
X11.864 Y28.85 Z-0.783
X11.829 Y28.839 Z-0.842
X11.782 Y28.824 Z-0.891
X11.726 Y28.805 Z-0.928
X11.664 Y28.785 Z-0.951
X11.598 Y28.764 Z-0.958
G3 X10.934 Y28.344 I0.487 J-1.506
G1 X10.523 Y27.875
X10.44 Y27.769
X10.338 Y27.625
X9.358 Y26.185
X9.279 Y26.041
X9.051 Y25.61
X8.982 Y25.466
X8.855 Y25.178
X8.554 Y24.458
X8.506 Y24.332
X8.455 Y24.17
X8.031 Y22.587
X7.978 Y22.299
X7.955 Y22.155
X7.898 Y21.723
X7.861 Y21.292
X7.852 Y21.148
X7.839 Y20.86
X7.834 Y20.716
X7.835 Y20.284
X7.84 Y20.14
X7.853 Y19.852
X7.862 Y19.708
X7.9 Y19.277
X7.957 Y18.845
X7.979 Y18.701
X8.033 Y18.413
X8.455 Y16.83
X8.506 Y16.668
X8.553 Y16.542
X8.855 Y15.822
X8.982 Y15.534
X9.052 Y15.39
X9.279 Y14.959
X9.358 Y14.815
X9.66 Y14.371
G3 X9.909 Y14.244 I0.25 J0.183
G1 X9.91
X9.971 Y14.25
X10.03 Y14.268
X10.084 Y14.297
X10.12 Y14.338 Z-0.953
X10.154 Y14.377 Z-0.939
X10.186 Y14.413 Z-0.916
X10.198 Y14.463 Z-0.879
X10.208 Y14.504 Z-0.832
X10.215 Y14.535 Z-0.777
X10.22 Y14.554 Z-0.717
Y14.562 Z-0.648
G0 Z5
X-0.308 Y-3.628
Z-0.304
G1 Z-0.614 F1000
X-0.307 Y-3.62 Z-0.683
X-0.301 Y-3.598 Z-0.748
X-0.292 Y-3.562 Z-0.807
X-0.28 Y-3.515 Z-0.856
X-0.265 Y-3.458 Z-0.893
X-0.249 Y-3.394 Z-0.916
X-0.232 Y-3.327 Z-0.924
G3 X0.011 Y-1.64 I-7.667 J1.964
G1 Y-1.49
X-0.116 Y-0.868
X-0.191 Y-0.238
X-0.236 Y0.395
X-0.262 Y1.029
X-0.277 Y1.663
X-0.286 Y2.297
X-0.291 Y2.932
X-0.294 Y3.566
X-0.297 Y4.835
X-0.298 Y8.642
X-0.293 Y39.57
X-0.259 Y39.725
X-0.13 Y40.015
X0.073 Y40.259
X0.563 Y40.662
X1.144 Y40.916
X1.759 Y41.071
X2.387 Y41.163
X3.019 Y41.218
X3.653 Y41.25
X4.287 Y41.269
X4.921 Y41.28
X5.556 Y41.286
X6.19 Y41.29
X7.459 Y41.293
X8.093 Y41.294
X13.803 Y41.295
X43.622 Y41.294
X43.92 Y41.187
X44.173 Y40.996
X44.593 Y40.52
X44.858 Y39.943
X45.019 Y39.33
X45.116 Y38.703
X45.173 Y38.071
X45.206 Y37.437
X45.225 Y36.803
X45.236 Y36.169
X45.243 Y35.535
X45.246 Y34.9
X45.249 Y33.631
X45.248 Y31.093
X45.245 Y27.287
X45.224 Y1.434
X45.194 Y1.278
X45.07 Y0.986
X44.87 Y0.74
X44.384 Y0.332
X43.803 Y0.076
X43.189 Y-0.08
X42.561 Y-0.174
X41.929 Y-0.229
X41.295 Y-0.261
X40.661 Y-0.28
X40.027 Y-0.291
X39.393 Y-0.298
X38.758 Y-0.301
X37.489 Y-0.304
X34.952 Y-0.305
X21.628 Y-0.301
X2.754 Y-0.295
X2.443 Y-0.233
X2.171 Y-0.071
X1.711 Y0.367
X1.413 Y0.927
X1.226 Y1.533
X1.112 Y2.157
X1.043 Y2.788
X1.002 Y3.421
X0.978 Y4.055
X0.963 Y4.689
X0.954 Y5.324
X0.949 Y5.958
X0.946 Y6.592
X0.944 Y7.861
X0.943 Y11.033
X0.945 Y30.701
X0.946 Y37.997
X1.015 Y38.307
X1.157 Y38.59
X1.55 Y39.088
X2.081 Y39.435
X2.673 Y39.665
X3.29 Y39.812
X3.917 Y39.905
X4.549 Y39.963
X5.182 Y39.999
X5.816 Y40.021
X6.451 Y40.034
X7.085 Y40.043
X7.719 Y40.048
X8.354 Y40.051
X9.623 Y40.053
X12.795 Y40.055
X41.979 Y40.054
X42.288 Y39.985
X42.571 Y39.84
X43.064 Y39.441
X43.407 Y38.907
X43.632 Y38.314
X43.776 Y37.696
X43.867 Y37.068
X43.923 Y36.436
X43.958 Y35.803
X43.978 Y35.169
X43.991 Y34.535
X43.998 Y33.9
X44.003 Y33.266
X44.005 Y32.631
X44.007 Y31.362
X44.006 Y28.19
X43.986 Y3.13
X43.955 Y2.814
X43.842 Y2.518
X43.668 Y2.253
X43.23 Y1.794
X42.678 Y1.481
X42.077 Y1.276
X41.456 Y1.146
X40.827 Y1.064
X40.195 Y1.014
X39.561 Y0.982
X38.927 Y0.963
X38.293 Y0.952
X37.658 Y0.945
X37.024 Y0.941
X36.389 Y0.938
X35.121 Y0.936
X31.314
X4.351 Y0.945
X4.036 Y0.987
X3.743 Y1.108
X3.223 Y1.471
X2.854 Y1.987
X2.607 Y2.572
X2.448 Y3.186
X2.347 Y3.812
X2.284 Y4.443
X2.245 Y5.077
X2.22 Y5.711
X2.206 Y6.345
X2.196 Y6.979
X2.191 Y7.614
X2.188 Y8.248
X2.184 Y9.517
X2.183 Y12.055
Y15.639
X2.181 Y15.693
X2.175 Y15.747
X2.165 Y15.8
X1.798 Y17.405
X1.773 Y17.549
X1.73 Y17.837
X1.715 Y17.981
X1.553 Y20.14
X1.543 Y20.284
Y20.716
X1.563 Y21.004
X1.715 Y23.019
X1.73 Y23.163
X1.773 Y23.451
X1.798 Y23.595
X1.864 Y23.882
X1.974 Y24.507
X2.063 Y25.135
X2.115 Y25.768
X2.144 Y26.401
X2.161 Y27.036
X2.171 Y27.67
X2.177 Y28.304
X2.181 Y28.939
X2.184 Y30.208
X2.186 Y33.38
Y36.552
X2.235 Y36.865
X2.352 Y37.16
X2.702 Y37.69
X3.206 Y38.075
X3.784 Y38.337
X4.394 Y38.51
X5.019 Y38.622
X5.649 Y38.694
X6.282 Y38.739
X6.916 Y38.768
X7.55 Y38.786
X8.184 Y38.797
X8.818 Y38.804
X9.453 Y38.808
X10.087 Y38.811
X11.356 Y38.813
X14.528 Y38.815
X15.573
X15.645 Y38.818
X15.716 Y38.829
X15.786 Y38.847
X15.998 Y38.912
X16.142 Y38.952
X16.43 Y39.014
X16.575 Y39.043
X18.88 Y39.391
X19.024 Y39.402
X19.312 Y39.418
X19.456 Y39.421
X21.185
X21.33 Y39.422
X21.762 Y39.431
X21.906 Y39.429
X21.985 Y39.427
X22.194 Y39.398
X23.779 Y39.081
X24.407 Y38.988
X25.037 Y38.914
X25.67 Y38.872
X26.304 Y38.848
X26.938 Y38.834
X27.573 Y38.826
X28.207 Y38.821
X28.841 Y38.818
X30.11 Y38.816
X33.917 Y38.814
X40.261
X40.578 Y38.811
X40.89 Y38.75
X41.179 Y38.621
X41.695 Y38.251
X42.066 Y37.737
X42.317 Y37.154
X42.482 Y36.541
X42.589 Y35.916
X42.657 Y35.285
X42.699 Y34.652
X42.726 Y34.018
X42.742 Y33.384
X42.751 Y32.853
X42.763 Y32.729
X42.797 Y32.609
X42.851 Y32.497
X42.943 Y32.34
X42.991 Y32.23
X43.037 Y32.123
X43.048 Y32.087
X43.107 Y31.799
X43.134 Y31.655
X43.273 Y30.791
X43.293 Y30.647
X43.33 Y30.359
X43.343 Y30.215
X43.383 Y29.352
X43.4 Y28.92
X43.404 Y28.776
X43.435 Y26.473
X43.439 Y25.897
X43.446 Y20.14
Y17.262
X43.434 Y14.095
X43.429 Y13.663
X43.426 Y13.519
X43.277 Y10.209
X43.244 Y9.777
X43.214 Y9.633
X43.154 Y9.345
X43.087 Y9.072
X42.966 Y8.449
X42.874 Y7.821
X42.821 Y7.189
X42.79 Y6.555
X42.772 Y5.921
X42.762 Y5.287
X42.755 Y4.652
X42.741 Y4.336
X42.668 Y4.027
X42.53 Y3.741
X42.15 Y3.234
X41.63 Y2.869
X41.046 Y2.621
X40.433 Y2.459
X39.807 Y2.354
X39.177 Y2.287
X38.543 Y2.244
X37.91 Y2.218
X37.275 Y2.201
X36.641 Y2.191
X36.007 Y2.185
X35.372 Y2.181
X34.103 Y2.178
X31.566 Y2.176
X25.022 Y2.178
X24.972 Y2.176
X24.921 Y2.171
X24.872 Y2.162
X23.923 Y1.963
X22.194 Y1.603
X21.985 Y1.573
X21.906 Y1.571
X21.762 Y1.569
X21.33 Y1.578
X21.041 Y1.579
X19.456
X19.312 Y1.582
X19.024 Y1.598
X18.88 Y1.609
X16.575 Y1.957
X16.43 Y1.986
X16.006 Y2.056
X15.373 Y2.109
X14.74 Y2.139
X14.105 Y2.157
X13.471 Y2.167
X12.837 Y2.174
X12.202 Y2.177
X10.933 Y2.181
X7.761 Y2.183
X5.858 Y2.184
X5.541 Y2.2
X5.235 Y2.282
X4.953 Y2.428
X4.454 Y2.82
X4.099 Y3.346
X3.859 Y3.933
X3.701 Y4.547
X3.598 Y5.173
X3.533 Y5.805
X3.492 Y6.438
X3.466 Y7.071
X3.449 Y7.706
X3.439 Y8.34
X3.433 Y8.974
X3.429 Y9.609
X3.425 Y10.878
X3.424 Y12.084
X3.418 Y12.181
X3.399 Y12.276
X3.368 Y12.368
X3.31 Y12.512
X2.454 Y14.69
X2.406 Y14.815
X2.362 Y14.959
X2.325 Y15.103
X2.165 Y15.8
X1.99 Y16.566
X1.798 Y17.405
X1.773 Y17.549
X1.73 Y17.837
X1.715 Y17.981
X1.553 Y20.14
X1.543 Y20.284
Y20.716
X1.553 Y20.86
X1.715 Y23.019
X1.725 Y23.11
X1.73 Y23.163
X1.773 Y23.451
X1.798 Y23.595
X1.864 Y23.882
X2.325 Y25.897
X2.362 Y26.041
X2.406 Y26.185
X2.517 Y26.473
X2.886 Y27.411
X3.063 Y27.938
X3.179 Y28.401
X3.283 Y29.027
X3.342 Y29.659
X3.377 Y30.293
X3.397 Y30.927
X3.409 Y31.561
X3.416 Y32.195
X3.42 Y32.83
X3.424 Y34.099
X3.425 Y35.367
X3.5 Y35.676
X3.637 Y35.962
X4.011 Y36.474
X4.527 Y36.844
X5.108 Y37.098
X5.72 Y37.267
X6.344 Y37.378
X6.975 Y37.45
X7.607 Y37.496
X8.241 Y37.525
X8.875 Y37.543
X9.51 Y37.555
X10.144 Y37.563
X10.778 Y37.567
X11.413 Y37.57
X12.178 Y37.572
X12.285 Y37.58
X12.39 Y37.604
X12.49 Y37.644
X13.261 Y38.015
X13.549 Y38.147
X13.693 Y38.201
X15.786 Y38.847
X15.998 Y38.912
X16.142 Y38.952
X16.43 Y39.014
X16.547 Y39.038
X16.575 Y39.043
X18.88 Y39.391
X19.024 Y39.402
X19.312 Y39.418
X19.456 Y39.421
X21.185
X21.33 Y39.422
X21.762 Y39.431
X21.906 Y39.429
X21.985 Y39.427
X22.05 Y39.418
X22.194 Y39.398
X23.009 Y39.235
X23.779 Y39.081
X24.788 Y38.878
X25.94 Y38.644
X26.085 Y38.612
X28.966 Y37.912
X29.59 Y37.793
X30.217 Y37.7
X30.849 Y37.648
X31.483 Y37.617
X32.117 Y37.599
X32.752 Y37.589
X33.386 Y37.583
X34.02 Y37.579
X35.289 Y37.576
X38.461 Y37.574
X39.096
X39.412 Y37.548
X39.716 Y37.457
X39.994 Y37.305
X40.489 Y36.907
X40.842 Y36.38
X41.083 Y35.793
X41.243 Y35.179
X41.346 Y34.553
X41.381 Y34.224
X41.44 Y34.006
X41.563 Y33.816
X41.738 Y33.674
X42.138 Y33.427
X42.168 Y33.407
X42.198 Y33.382
X42.367 Y33.221
X42.468 Y33.094
X42.511 Y33.038
X42.569 Y32.95
X42.821 Y32.547
X42.851 Y32.497
G3 X43.422 Y32.651 I0.262 J0.166
G1 X43.425 Y32.72 Z-0.916
X43.427 Y32.785 Z-0.893
X43.43 Y32.844 Z-0.856
X43.432 Y32.893 Z-0.807
X43.433 Y32.93 Z-0.748
X43.434 Y32.953 Z-0.683
X43.435 Y32.961 Z-0.614
G0 Z5
X28.065 Y38.522
Z-0.304
G1 Z-0.614 F1000
X28.07 Y38.516 Z-0.683
X28.087 Y38.5 Z-0.748
X28.113 Y38.474 Z-0.807
X28.148 Y38.44 Z-0.856
X28.19 Y38.399 Z-0.893
X28.237 Y38.353 Z-0.916
X28.286 Y38.305 Z-0.924
G3 X28.966 Y37.912 I1.107 J1.131
G1 X29.836 Y37.7
X30.119 Y37.618
X33.145 Y36.728
X33.762 Y36.579
X34.388 Y36.476
X35.019 Y36.417
X35.653 Y36.382
X36.287 Y36.362
X36.921 Y36.351
X37.556 Y36.344
X38.19 Y36.338
X38.489 Y36.231
X39.035 Y35.908
X39.443 Y35.423
X39.733 Y34.858
X39.798 Y34.704
X39.9 Y34.533
X40.045 Y34.397
X40.221 Y34.305
G3 X40.561 Y34.789 I0.094 J0.295
G1 X40.519 Y34.844 Z-0.916
X40.479 Y34.896 Z-0.893
X40.443 Y34.943 Z-0.856
X40.413 Y34.982 Z-0.807
X40.391 Y35.011 Z-0.748
X40.377 Y35.029 Z-0.683
X40.372 Y35.035 Z-0.614
G0 Z5
X32.274 Y37.381
Z-0.304
G1 Z-0.614 F1000
X32.28 Y37.376 Z-0.683
X32.295 Y37.359 Z-0.748
X32.32 Y37.332 Z-0.807
X32.354 Y37.296 Z-0.856
X32.394 Y37.253 Z-0.893
X32.438 Y37.205 Z-0.916
X32.485 Y37.154 Z-0.924
G3 X33.145 Y36.728 I1.161 J1.075
G1 X33.577 Y36.6
X33.739 Y36.548
X37.179 Y35.374
X37.529 Y35.253
X40.205 Y34.311
X40.792 Y34.102
X41.214 Y33.948
X41.358 Y33.89
X41.502 Y33.811
X41.738 Y33.674
G3 X42.16 Y34.089 I0.146 J0.273
G1 X42.129 Y34.15 Z-0.916
X42.099 Y34.208 Z-0.893
X42.072 Y34.261 Z-0.856
X42.05 Y34.304 Z-0.807
X42.033 Y34.337 Z-0.748
X42.022 Y34.358 Z-0.683
X42.019 Y34.365 Z-0.614
G0 Z5
X43.7 Y9.971
Z-0.304
G1 Z-0.614 F1000
X43.695 Y9.966 Z-0.683
X43.678 Y9.949 Z-0.748
X43.652 Y9.923 Z-0.807
X43.618 Y9.888 Z-0.856
X43.577 Y9.846 Z-0.893
X43.531 Y9.8 Z-0.916
X43.482 Y9.75 Z-0.924
G3 X43.087 Y9.072 I1.127 J-1.111
G1 X43.047 Y8.913
X42.989 Y8.77
X42.849 Y8.436
X42.655 Y8.14
X42.592 Y8.05
X42.479 Y7.906
X42.417 Y7.834
X42.326 Y7.715
X42.226 Y7.561
X42.12 Y7.363
X42.008 Y7.108
X41.892 Y6.772
X41.772 Y6.307
X41.664 Y5.682
X41.581 Y5.376
X41.445 Y5.089
X41.077 Y4.572
X40.571 Y4.189
X39.995 Y3.923
X39.387 Y3.744
X38.763 Y3.626
X38.134 Y3.55
X37.501 Y3.5
X36.867 Y3.469
X36.233 Y3.449
X35.599 Y3.436
X34.965 Y3.429
X34.33 Y3.424
X33.696 Y3.421
X32.427 Y3.418
X30.095 Y3.417
X30.029 Y3.414
X29.962 Y3.404
X29.897 Y3.389
X29.399 Y3.247
X29.255 Y3.209
X28.966 Y3.134
X28.822 Y3.098
X25.94 Y2.396
X25.796 Y2.362
X25.487 Y2.293
X24.872 Y2.162
X24.5 Y2.084
X24.103 Y2.001
X22.194 Y1.603
X22.05 Y1.582
X21.985 Y1.573
X21.906 Y1.571
X21.762 Y1.569
X21.33 Y1.578
X21.185 Y1.579
X19.456
X19.312 Y1.582
X19.024 Y1.598
X18.88 Y1.609
X17.206 Y1.861
X16.575 Y1.957
X16.43 Y1.986
X16.142 Y2.048
X15.998 Y2.088
X13.693 Y2.799
X13.549 Y2.853
X13.514 Y2.868
X13.231 Y2.982
X12.869 Y3.095
X12.349 Y3.211
X11.721 Y3.3
X11.088 Y3.351
X10.454 Y3.381
X9.82 Y3.399
X9.186 Y3.409
X8.551 Y3.415
X7.917 Y3.419
X7.283 Y3.421
X6.965 Y3.427
X6.653 Y3.483
X6.36 Y3.603
X5.83 Y3.952
X5.44 Y4.453
X5.171 Y5.027
X4.991 Y5.636
X4.873 Y6.259
X4.797 Y6.889
X4.748 Y7.521
X4.716 Y8.155
X4.697 Y8.789
X4.684 Y9.423
X4.678 Y9.879
X4.666 Y10.001
X4.634 Y10.12
X4.581 Y10.232
X3.678 Y11.792
X3.434 Y12.224
X3.368 Y12.368
G3 X2.784 Y12.274 I-0.277 J-0.139
G1 X2.774 Y12.206 Z-0.916
X2.765 Y12.141 Z-0.893
X2.756 Y12.083 Z-0.856
X2.749 Y12.034 Z-0.807
X2.744 Y11.998 Z-0.748
X2.74 Y11.975 Z-0.683
X2.739 Y11.967 Z-0.614
G0 Z5
X14.282 Y2.097
Z-0.304
G1 Z-0.614 F1000
X14.278 Y2.103 Z-0.683
X14.265 Y2.122 Z-0.748
X14.244 Y2.152 Z-0.807
X14.216 Y2.193 Z-0.856
X14.183 Y2.241 Z-0.893
X14.145 Y2.295 Z-0.916
X14.106 Y2.352 Z-0.924
G3 X13.514 Y2.868 I-1.304 J-0.897
G1 X13.261 Y2.985
X11.387 Y3.887
X11.243 Y3.962
X11.136 Y4.02
X10.909 Y4.127
X10.607 Y4.241
X10.2 Y4.358
X9.602 Y4.479
X8.973 Y4.554
X8.34 Y4.599
X8.026 Y4.645
X7.726 Y4.748
X7.177 Y5.066
X6.763 Y5.546
X6.471 Y6.11
X6.274 Y6.713
X6.143 Y7.333
X6.057 Y7.962
X6.047 Y8.083
X6.021 Y8.222
X5.968 Y8.353
X5.891 Y8.471
G3 X5.347 Y8.238 I-0.235 J-0.202
G1 X5.354 Y8.169 Z-0.916
X5.361 Y8.104 Z-0.893
X5.367 Y8.046 Z-0.856
X5.372 Y7.997 Z-0.807
X5.376 Y7.96 Z-0.748
X5.378 Y7.937 Z-0.683
X5.379 Y7.929 Z-0.614
G0 Z5
X11.856 Y3.204
Z-0.304
G1 Z-0.614 F1000
X11.852 Y3.211 Z-0.683
X11.841 Y3.23 Z-0.748
X11.821 Y3.262 Z-0.807
X11.796 Y3.304 Z-0.856
X11.766 Y3.354 Z-0.893
X11.732 Y3.41 Z-0.916
X11.696 Y3.469 Z-0.924
G3 X11.136 Y4.02 I-1.354 J-0.818
G1 X10.955 Y4.116
X10.872 Y4.164
X8.972 Y5.459
X8.766 Y5.603
X8.65 Y5.69
X8.584 Y5.747
X8.506 Y5.817
X6.874 Y7.33
X6.721 Y7.474
X6.632 Y7.559
X6.344 Y7.908
X6.2 Y8.084
X5.191 Y9.347
X5.08 Y9.489
X4.865 Y9.777
X4.759 Y9.924
X4.581 Y10.232
G3 X4.009 Y10.082 I-0.263 J-0.165
G1 X4.005 Y10.014 Z-0.916
X4.002 Y9.948 Z-0.893
X3.999 Y9.889 Z-0.856
X3.997 Y9.84 Z-0.807
X3.995 Y9.803 Z-0.748
X3.994 Y9.781 Z-0.683
Y9.773 Z-0.614
G0 Z5
X2.159 Y26.601
Z-0.304
G1 Z-0.614 F1000
X2.165 Y26.605 Z-0.683
X2.183 Y26.619 Z-0.748
X2.213 Y26.642 Z-0.807
X2.251 Y26.672 Z-0.856
X2.298 Y26.708 Z-0.893
X2.35 Y26.748 Z-0.916
X2.404 Y26.791 Z-0.924
G3 X2.886 Y27.411 I-0.97 J1.251
G1 X3.318 Y28.51
X3.368 Y28.632
X3.434 Y28.776
X3.678 Y29.208
X3.928 Y29.64
X4.083 Y29.942
X4.195 Y30.211
X4.31 Y30.566
X4.43 Y31.067
X4.527 Y31.694
X4.583 Y32.326
X4.617 Y32.96
X4.637 Y33.594
X4.649 Y34.228
X4.755 Y34.527
X5.076 Y35.074
X5.56 Y35.485
X6.125 Y35.773
X6.729 Y35.968
X7.35 Y36.098
X7.979 Y36.183
X8.611 Y36.237
X9.244 Y36.273
X9.878 Y36.295
X10.014 Y36.313
X10.143 Y36.355
X10.262 Y36.421
X10.872 Y36.836
X10.955 Y36.884
X11.243 Y37.038
X11.387 Y37.113
X12.49 Y37.644
G3 X12.385 Y38.226 I-0.144 J0.274
G1 X12.316 Y38.234 Z-0.916
X12.251 Y38.243 Z-0.893
X12.193 Y38.25 Z-0.856
X12.144 Y38.256 Z-0.807
X12.107 Y38.261 Z-0.748
X12.085 Y38.263 Z-0.683
X12.077 Y38.264 Z-0.614
G0 Z5
X3.088 Y28.947
Z-0.304
G1 Z-0.614 F1000
X3.095 Y28.951 Z-0.683
X3.115 Y28.962 Z-0.748
X3.147 Y28.98 Z-0.807
X3.19 Y29.004 Z-0.856
X3.242 Y29.033 Z-0.893
X3.299 Y29.065 Z-0.916
X3.359 Y29.098 Z-0.924
G3 X3.928 Y29.64 I-0.772 J1.381
G1 X4.761 Y31.079
X4.865 Y31.223
X5.047 Y31.467
X5.146 Y31.614
X5.254 Y31.806
X5.368 Y32.052
X5.486 Y32.375
X5.655 Y32.986
X5.911 Y33.566
X6.34 Y34.034
X6.874 Y34.376
X7.462 Y34.616
X7.895 Y34.731
X8.006 Y34.771
X8.108 Y34.827
X8.201 Y34.9
G3 X7.928 Y35.425 I-0.219 J0.22
G1 X7.86 Y35.413 Z-0.916
X7.796 Y35.402 Z-0.893
X7.738 Y35.392 Z-0.856
X7.69 Y35.383 Z-0.807
X7.653 Y35.377 Z-0.748
X7.631 Y35.373 Z-0.683
X7.623 Y35.371 Z-0.614
G0 Z5
X4.132 Y30.877
Z-0.304
G1 Z-0.614 F1000
X4.14 Y30.88 Z-0.683
X4.161 Y30.889 Z-0.748
X4.195 Y30.903 Z-0.807
X4.24 Y30.922 Z-0.856
X4.295 Y30.944 Z-0.893
X4.355 Y30.969 Z-0.916
X4.419 Y30.996 Z-0.924
G3 X5.047 Y31.467 I-0.605 J1.462
G1 X5.08 Y31.511
X5.193 Y31.655
X6.228 Y32.95
X6.488 Y33.267
X6.632 Y33.441
X6.72 Y33.526
X7.029 Y33.814
X8.506 Y35.183
X8.584 Y35.253
X8.65 Y35.31
X8.766 Y35.397
X8.972 Y35.541
X10.262 Y36.421
G0 Z5
X43.368 Y8.363
Z-0.304
G1 Z-0.614 F1000
X43.361 Y8.361 Z-0.683
X43.339 Y8.353 Z-0.748
X43.304 Y8.341 Z-0.807
X43.258 Y8.326 Z-0.856
X43.202 Y8.307 Z-0.893
X43.14 Y8.285 Z-0.916
X43.075 Y8.263 Z-0.924
G3 X42.417 Y7.834 I0.51 J-1.498
G1 X42.367 Y7.775
X42.2 Y7.618
X42.169 Y7.593
X41.738 Y7.33
X41.612 Y7.249
X41.495 Y7.155
X41.387 Y7.047
X40.974 Y6.565
X40.587 Y6.062
X40.104 Y5.651
X39.551 Y5.34
X38.957 Y5.118
X38.341 Y4.963
X37.716 Y4.858
X37.085 Y4.788
X36.452 Y4.741
X35.819 Y4.711
X35.184 Y4.691
X34.55 Y4.678
X34.297 Y4.675
X34.224 Y4.67
X34.152 Y4.659
X34.082 Y4.639
G3 X34.109 Y4.049 I0.106 J-0.291
G1 X34.176 Y4.031 Z-0.916
X34.239 Y4.014 Z-0.893
X34.296 Y3.999 Z-0.856
X34.343 Y3.987 Z-0.807
X34.379 Y3.977 Z-0.748
X34.401 Y3.972 Z-0.683
X34.409 Y3.97 Z-0.614
G0 Z5
X42.812 Y7.508
Z-0.304
G1 Z-0.614 F1000
X42.804 Z-0.683
X42.781 Y7.509 Z-0.748
X42.744 Z-0.807
X42.695 Y7.51 Z-0.856
X42.636 Y7.511 Z-0.893
X42.571 Y7.512 Z-0.916
X42.502 Y7.513 Z-0.924
G3 X41.738 Y7.33 I-0.025 J-1.582
G1 X41.487 Y7.186
X41.358 Y7.115
X41.214 Y7.055
X40.926 Y6.949
X40.782 Y6.898
X40.349 Y6.75
X38.62 Y6.172
X36.147 Y5.315
X36.027 Y5.274
X32.713 Y4.193
X31.992 Y3.986
X29.897 Y3.389
G3 X29.682 Y3.094 I0.095 J-0.295
G1 X29.685 Y3.052
X29.694 Y3.01
X29.721 Y2.963 Z-0.919
X29.747 Y2.918 Z-0.904
X29.772 Y2.876 Z-0.881
X29.816 Y2.85 Z-0.843
X29.852 Y2.828 Z-0.795
X29.88 Y2.811 Z-0.739
X29.896 Y2.801 Z-0.678
X29.902 Y2.798 Z-0.614
G0 Z5
X21.075 Y30.921
Z-0.296
G1 Z-0.606 F1000
X21.076 Y30.929 Z-0.675
X21.081 Y30.951 Z-0.741
X21.089 Y30.988 Z-0.799
X21.099 Y31.036 Z-0.848
X21.111 Y31.093 Z-0.885
X21.125 Y31.157 Z-0.908
X21.139 Y31.225 Z-0.916
G3 X21.31 Y32.921 I-7.743 J1.639
G1 X21.304 Y33.071
X21.287 Y33.089
X21.265 Y33.101
X21.241 Y33.104
X20.897 Y33.089
X20.753 Y33.082
X20.321 Y33.051
X20.177 Y33.036
X20.033 Y33.019
X19.889 Y33.001
X19.745 Y32.981
X19.312 Y32.915
X17.871 Y32.605
X17.583 Y32.537
X17.513 Y32.518
X17.007 Y32.36
X16.863 Y32.315
X16.43 Y32.158
X16.248 Y32.087
X15.71 Y31.867
X15.422 Y31.749
X15.278 Y31.678
X14.952 Y31.511
X14.845 Y31.454
X13.981 Y30.976
X13.909 Y30.935
X13.44 Y30.647
X13.405 Y30.624
X13.261 Y30.524
X12.396 Y29.858
X12.108 Y29.634
X11.964 Y29.521
X11.531 Y29.122
X11.47 Y29.064
X11.243 Y28.844
X11.035 Y28.632
X10.955 Y28.544
X10.654 Y28.2
X10.523 Y28.049
X10.414 Y27.913
X10.19 Y27.625
X9.99 Y27.337
X9.514 Y26.638
X9.226 Y26.176
X9.152 Y26.041
X8.997 Y25.754
X8.938 Y25.638
X8.729 Y25.178
X8.549 Y24.746
X8.506 Y24.638
X8.361 Y24.256
X8.331 Y24.17
X8.208 Y23.738
X8.13 Y23.451
X7.937 Y22.731
X7.929 Y22.689
X7.86 Y22.299
X7.837 Y22.155
X7.777 Y21.723
X7.747 Y21.292
X7.738 Y21.148
X7.724 Y20.86
X7.719 Y20.716
Y20.284
X7.725 Y20.14
X7.739 Y19.852
X7.748 Y19.708
X7.78 Y19.277
X7.84 Y18.845
X7.862 Y18.701
X7.929 Y18.323
X7.94 Y18.269
X8.17 Y17.405
X8.217 Y17.232
X8.331 Y16.83
X8.361 Y16.744
X8.506 Y16.359
X8.548 Y16.254
X8.728 Y15.822
X8.938 Y15.359
X8.995 Y15.246
X9.15 Y14.959
X9.231 Y14.815
X9.514 Y14.362
X9.991 Y13.663
X10.191 Y13.375
X10.415 Y13.087
X10.531 Y12.944
X10.811 Y12.621
X10.955 Y12.456
X11.035 Y12.368
X11.243 Y12.156
X11.47 Y11.936
X11.531 Y11.878
X11.964 Y11.478
X12.252 Y11.252
X12.54 Y11.028
X13.261 Y10.474
X13.405 Y10.373
X13.436 Y10.353
X13.907 Y10.065
X13.981 Y10.022
X14.845 Y9.546
X14.99 Y9.469
X15.278 Y9.322
X15.422 Y9.251
X16.286 Y8.898
X16.43 Y8.842
X16.863 Y8.686
X17.439 Y8.505
X17.513 Y8.482
X17.583 Y8.463
X17.871 Y8.395
X19.312 Y8.084
X19.745 Y8.018
X19.889 Y7.998
X20.033 Y7.98
X20.177 Y7.964
X20.321 Y7.948
X20.753 Y7.917
X21.041 Y7.904
X21.762 Y7.874
X22.194 Y7.887
X22.482 Y7.898
X22.77 Y7.911
X23.203 Y7.932
X23.347 Y7.947
X23.635 Y7.98
X24.211 Y8.053
X24.871 Y8.194
X25.652 Y8.363
X26.085 Y8.461
X26.162 Y8.482
X26.661 Y8.637
X27.093 Y8.782
X27.237 Y8.837
X27.958 Y9.131
X28.129 Y9.201
X28.534 Y9.396
X28.678 Y9.467
X29.11 Y9.691
X29.543 Y9.921
X29.687 Y10.008
X30.119 Y10.279
X30.263 Y10.372
X30.407 Y10.471
X31.189 Y11.072
X31.56 Y11.36
X31.704 Y11.482
X32.054 Y11.792
X32.205 Y11.936
X32.502 Y12.224
X32.569 Y12.292
X32.64 Y12.368
X32.713 Y12.449
X33.02 Y12.8
X33.145 Y12.95
X33.484 Y13.375
X33.879 Y13.951
X34.154 Y14.355
X34.442 Y14.815
X34.522 Y14.959
X34.676 Y15.246
X34.73 Y15.349
X34.946 Y15.822
X35.127 Y16.254
X35.162 Y16.341
X35.306 Y16.723
X35.345 Y16.83
X35.468 Y17.262
X35.545 Y17.549
X35.739 Y18.275
X35.814 Y18.701
X35.837 Y18.845
X35.895 Y19.277
X35.945 Y20.14
X35.951 Y20.284
Y20.716
X35.945 Y20.86
X35.895 Y21.723
X35.837 Y22.155
X35.814 Y22.299
X35.739 Y22.724
X35.507 Y23.595
X35.468 Y23.738
X35.345 Y24.17
X35.292 Y24.314
X35.162 Y24.66
X35.127 Y24.746
X34.946 Y25.178
X34.73 Y25.652
X34.676 Y25.754
X34.522 Y26.041
X34.442 Y26.185
X34.154 Y26.644
X33.779 Y27.193
X33.481 Y27.625
X33.137 Y28.056
X33.001 Y28.219
X32.713 Y28.55
X32.639 Y28.632
X32.569 Y28.708
X32.501 Y28.776
X32.136 Y29.129
X32.054 Y29.208
X31.704 Y29.519
X31.56 Y29.641
X30.984 Y30.087
X30.407 Y30.531
X30.263 Y30.63
X30.119 Y30.723
X29.975 Y30.81
X29.687 Y30.978
X29.543 Y31.06
X29.11 Y31.298
X28.678 Y31.532
X28.534 Y31.604
X28.127 Y31.799
X27.237 Y32.163
X27.093 Y32.218
X26.661 Y32.362
X26.158 Y32.518
X26.085 Y32.538
X25.652 Y32.636
X24.5 Y32.886
X24.211 Y32.947
X23.779 Y33.003
X23.635 Y33.021
X23.347 Y33.054
X23.203 Y33.069
X22.668 Y33.094
X22.338 Y33.108
X22.194 Y33.113
X21.762 Y33.126
X21.241 Y33.104
G3 X20.955 Y32.782 I0.024 J-0.309
G1 X20.97 Y32.731 Z-0.911
X20.985 Y32.681 Z-0.897
X20.999 Y32.634 Z-0.874
X21.036 Y32.598 Z-0.835
X21.066 Y32.568 Z-0.787
X21.089 Y32.546 Z-0.732
X21.103 Y32.532 Z-0.67
X21.108 Y32.527 Z-0.606
G0 Z5
X22.608 Y9.966
Z-0.254
G1 Z-0.564 F1000
X22.606 Y9.958 Z-0.633
X22.601 Y9.936 Z-0.699
X22.594 Y9.899 Z-0.757
X22.583 Y9.851 Z-0.806
X22.571 Y9.794 Z-0.843
X22.558 Y9.73 Z-0.866
X22.543 Y9.662 Z-0.874
G3 X22.373 Y7.966 I7.743 J-1.637
G1 X22.379 Y7.816
X22.396 Y7.797
X22.419 Y7.785
X22.445 Y7.782
X22.915 Y7.802
X23.203 Y7.816
X23.347 Y7.832
X23.939 Y7.906
X24.211 Y7.941
X24.5 Y7.988
X25.652 Y8.237
X26.085 Y8.345
X26.229 Y8.386
X26.661 Y8.519
X27.093 Y8.658
X27.237 Y8.713
X28.102 Y9.066
X28.246 Y9.133
X28.534 Y9.267
X28.692 Y9.345
X29.521 Y9.777
X29.543 Y9.788
X29.687 Y9.873
X29.831 Y9.964
X30.551 Y10.427
X30.695 Y10.537
X31.128 Y10.87
X31.57 Y11.216
X31.751 Y11.36
X31.848 Y11.443
X32.518 Y12.08
X32.569 Y12.132
X32.793 Y12.368
X32.857 Y12.439
X33.168 Y12.8
X33.29 Y12.944
X33.433 Y13.113
X33.53 Y13.231
X34.029 Y13.951
X34.298 Y14.345
X34.489 Y14.671
X34.648 Y14.959
X34.805 Y15.246
X34.879 Y15.39
X34.945 Y15.534
X35.01 Y15.678
X35.25 Y16.254
X35.306 Y16.398
X35.45 Y16.783
X35.466 Y16.83
X35.594 Y17.271
X35.739 Y17.785
X35.851 Y18.269
X35.901 Y18.557
X35.975 Y18.989
X35.994 Y19.133
X36.011 Y19.277
X36.06 Y20.14
X36.066 Y20.284
Y20.716
X36.06 Y20.86
X36.011 Y21.723
X35.994 Y21.867
X35.975 Y22.011
X35.876 Y22.587
X35.851 Y22.731
X35.739 Y23.215
X35.592 Y23.738
X35.466 Y24.17
X35.45 Y24.217
X35.306 Y24.603
X35.25 Y24.746
X35.011 Y25.322
X34.946 Y25.466
X34.874 Y25.622
X34.806 Y25.754
X34.57 Y26.185
X34.49 Y26.329
X34.298 Y26.655
X34.009 Y27.077
X33.529 Y27.769
X33.409 Y27.913
X33.289 Y28.056
X33.043 Y28.344
X32.857 Y28.56
X32.793 Y28.632
X32.569 Y28.868
X32.518 Y28.92
X31.848 Y29.559
X31.753 Y29.64
X31.56 Y29.794
X31.021 Y30.215
X30.647 Y30.503
X30.551 Y30.576
X29.975 Y30.947
X29.831 Y31.04
X29.765 Y31.079
X29.543 Y31.205
X29.11 Y31.439
X28.678 Y31.663
X28.534 Y31.734
X28.246 Y31.868
X28.102 Y31.934
X27.237 Y32.287
X27.093 Y32.342
X26.661 Y32.48
X26.229 Y32.614
X26.085 Y32.654
X25.652 Y32.762
X24.5 Y33.012
X24.211 Y33.06
X23.635 Y33.133
X23.347 Y33.169
X23.203 Y33.185
X22.626 Y33.211
X22.338 Y33.223
X22.194 Y33.229
X21.762 Y33.241
X20.897 Y33.205
X20.753 Y33.198
X20.321 Y33.167
X20.177 Y33.151
X19.312 Y33.04
X19.168 Y33.011
X17.871 Y32.731
X17.727 Y32.691
X17.439 Y32.61
X17.295 Y32.568
X16.863 Y32.434
X16.43 Y32.283
X16.286 Y32.227
X15.422 Y31.873
X15.269 Y31.799
X14.982 Y31.655
X14.845 Y31.585
X14.413 Y31.359
X13.981 Y31.12
X13.909 Y31.079
X13.405 Y30.756
X13.116 Y30.569
X12.828 Y30.347
X12.396 Y30.012
X11.964 Y29.674
X11.922 Y29.64
X11.82 Y29.551
X11.308 Y29.064
X11.008 Y28.776
X10.955 Y28.719
X10.811 Y28.555
X10.506 Y28.2
X10.379 Y28.047
X10.043 Y27.625
X9.645 Y27.049
X9.448 Y26.761
X9.37 Y26.646
X9.082 Y26.144
X8.869 Y25.754
X8.794 Y25.604
X8.605 Y25.178
X8.426 Y24.746
X8.361 Y24.581
X8.217 Y24.197
X8.209 Y24.17
X8.041 Y23.595
X7.961 Y23.307
X7.929 Y23.188
X7.823 Y22.731
X7.773 Y22.443
X7.748 Y22.299
X7.724 Y22.155
X7.659 Y21.723
X7.611 Y20.86
X7.605 Y20.716
Y20.284
X7.612 Y20.14
X7.662 Y19.277
X7.728 Y18.845
X7.751 Y18.701
X7.801 Y18.413
X7.826 Y18.269
X7.929 Y17.823
X7.963 Y17.693
X8.043 Y17.405
X8.209 Y16.83
X8.217 Y16.803
X8.368 Y16.398
X8.424 Y16.254
X8.603 Y15.822
X8.794 Y15.39
X8.867 Y15.246
X9.082 Y14.854
X9.37 Y14.354
X9.546 Y14.095
X9.845 Y13.663
X10.045 Y13.375
X10.387 Y12.944
X10.523 Y12.781
X10.879 Y12.368
X10.955 Y12.281
X11.009 Y12.224
X11.458 Y11.792
X11.82 Y11.447
X11.919 Y11.36
X11.964 Y11.324
X12.54 Y10.873
X13.026 Y10.497
X13.116 Y10.428
X13.549 Y10.149
X13.906 Y9.921
X13.981 Y9.878
X14.424 Y9.633
X14.845 Y9.414
X14.99 Y9.341
X15.278 Y9.197
X15.422 Y9.127
X16.297 Y8.77
X16.43 Y8.718
X16.863 Y8.566
X17.295 Y8.432
X17.439 Y8.39
X17.727 Y8.309
X17.871 Y8.269
X19.168 Y7.989
X19.312 Y7.96
X20.177 Y7.849
X20.321 Y7.832
X20.753 Y7.802
X21.041 Y7.789
X21.762 Y7.759
X22.194 Y7.772
X22.445 Y7.782
G3 X22.731 Y8.103 I-0.024 J0.309
G1 X22.715 Y8.155 Z-0.869
X22.7 Y8.204 Z-0.855
X22.686 Y8.251 Z-0.832
X22.649 Y8.287 Z-0.794
X22.619 Y8.317 Z-0.745
X22.596 Y8.34 Z-0.69
X22.582 Y8.353 Z-0.628
X22.578 Y8.358 Z-0.565
G0 Z5
X21.061 Y31.151
Z-0.211
G1 Z-0.521 F1000
X21.062 Y31.159 Z-0.59
X21.067 Y31.181 Z-0.655
X21.075 Y31.218 Z-0.714
X21.085 Y31.266 Z-0.763
X21.097 Y31.323 Z-0.8
X21.111 Y31.387 Z-0.823
X21.125 Y31.455 Z-0.831
G3 X21.295 Y33.151 I-7.743 J1.635
G1 X21.289 Y33.301
X21.271 Y33.321
X21.247 Y33.333
X21.22 Y33.337
X20.897 Y33.323
X20.753 Y33.316
X20.321 Y33.284
X20.177 Y33.267
X19.312 Y33.156
X18.88 Y33.076
X18.736 Y33.047
X17.871 Y32.86
X17.686 Y32.806
X17.295 Y32.688
X16.747 Y32.518
X16.43 Y32.41
X16.336 Y32.374
X15.422 Y32
X15.278 Y31.931
X14.99 Y31.791
X14.845 Y31.719
X14.413 Y31.494
X13.923 Y31.223
X12.972 Y30.613
X12.823 Y30.503
X12.088 Y29.928
X11.964 Y29.83
X11.676 Y29.573
X10.989 Y28.92
X10.727 Y28.632
X10.667 Y28.564
X10.354 Y28.2
X10.231 Y28.056
X10.091 Y27.888
X9.993 Y27.769
X9.514 Y27.078
X9.226 Y26.642
X8.74 Y25.754
X8.667 Y25.61
X8.539 Y25.322
X8.478 Y25.178
X8.299 Y24.746
X8.243 Y24.602
X8.136 Y24.314
X8.084 Y24.17
X7.832 Y23.307
X7.794 Y23.163
X7.708 Y22.731
X7.633 Y22.299
X7.61 Y22.155
X7.545 Y21.723
X7.497 Y20.86
X7.491 Y20.716
X7.492 Y20.284
X7.498 Y20.14
X7.549 Y19.277
X7.614 Y18.845
X7.641 Y18.682
X7.712 Y18.269
X7.797 Y17.837
X7.834 Y17.693
X8.083 Y16.83
X8.135 Y16.686
X8.241 Y16.398
X8.297 Y16.254
X8.506 Y15.75
X8.536 Y15.678
X8.664 Y15.39
X8.738 Y15.246
X9.226 Y14.357
X9.514 Y13.923
X9.995 Y13.231
X10.113 Y13.087
X10.235 Y12.942
X10.379 Y12.773
X10.667 Y12.437
X10.728 Y12.368
X10.989 Y12.08
X11.676 Y11.425
X11.964 Y11.167
X12.635 Y10.641
X12.828 Y10.489
X12.972 Y10.383
X13.919 Y9.777
X13.981 Y9.742
X14.413 Y9.505
X14.845 Y9.281
X15.004 Y9.201
X15.301 Y9.057
X15.422 Y9
X16.337 Y8.626
X16.43 Y8.591
X16.749 Y8.482
X17.295 Y8.312
X17.727 Y8.181
X17.871 Y8.14
X18.736 Y7.953
X18.88 Y7.923
X19.312 Y7.844
X20.177 Y7.733
X20.321 Y7.716
X20.753 Y7.684
X20.897 Y7.677
X21.762 Y7.641
X22.194 Y7.654
X22.482 Y7.665
X22.915 Y7.684
X23.203 Y7.698
X23.347 Y7.715
X24.211 Y7.825
X24.644 Y7.893
X24.719 Y7.906
X25.652 Y8.108
X25.796 Y8.146
X26.085 Y8.224
X26.229 Y8.265
X27.093 Y8.533
X27.237 Y8.587
X27.814 Y8.822
X28.102 Y8.94
X28.246 Y9.003
X28.534 Y9.135
X28.678 Y9.205
X29.543 Y9.654
X29.687 Y9.74
X30.119 Y10.014
X30.551 Y10.292
X30.695 Y10.386
X30.849 Y10.497
X31.56 Y11.053
X31.921 Y11.36
X31.992 Y11.422
X32.533 Y11.936
X32.946 Y12.368
X33.001 Y12.429
X33.443 Y12.944
X33.561 Y13.087
X33.78 Y13.375
X34.08 Y13.807
X34.177 Y13.951
X34.442 Y14.348
X34.462 Y14.383
X34.934 Y15.246
X35.009 Y15.39
X35.196 Y15.822
X35.45 Y16.433
X35.493 Y16.542
X35.591 Y16.83
X35.842 Y17.693
X35.88 Y17.837
X35.965 Y18.269
X36.04 Y18.701
X36.063 Y18.845
X36.129 Y19.277
X36.178 Y20.14
X36.185 Y20.284
Y20.716
X36.178 Y20.86
X36.129 Y21.723
X36.063 Y22.155
X36.027 Y22.377
X35.965 Y22.731
X35.88 Y23.163
X35.842 Y23.307
X35.591 Y24.17
X35.494 Y24.458
X35.436 Y24.602
X35.197 Y25.178
X35.01 Y25.61
X34.936 Y25.754
X34.463 Y26.617
X34.442 Y26.653
X34.154 Y27.085
X34.08 Y27.193
X33.78 Y27.625
X33.561 Y27.913
X33.433 Y28.068
X33.001 Y28.571
X32.946 Y28.632
X32.534 Y29.064
X31.992 Y29.581
X31.56 Y29.951
X30.839 Y30.515
X30.695 Y30.618
X30.551 Y30.713
X29.975 Y31.082
X29.687 Y31.264
X29.543 Y31.35
X28.677 Y31.799
X28.534 Y31.868
X28.246 Y31.999
X28.102 Y32.062
X27.525 Y32.297
X27.237 Y32.414
X27.093 Y32.467
X26.229 Y32.734
X26.085 Y32.776
X25.796 Y32.854
X25.652 Y32.892
X24.72 Y33.094
X24.644 Y33.107
X24.211 Y33.175
X23.347 Y33.286
X23.203 Y33.303
X22.626 Y33.33
X22.338 Y33.342
X22.194 Y33.347
X21.762 Y33.36
X21.22 Y33.337
G3 X20.934 Y33.016 I0.024 J-0.309
G1 X20.95 Y32.964 Z-0.826
X20.965 Y32.914 Z-0.812
X20.979 Y32.867 Z-0.789
X21.015 Y32.831 Z-0.75
X21.046 Y32.801 Z-0.702
X21.068 Y32.779 Z-0.647
X21.082 Y32.765 Z-0.585
X21.087 Y32.761 Z-0.521
G0 Z5
X5.696 Y35.362
Z-0.211
G1 Z-0.521 F1000
X5.7 Y35.356 Z-0.59
X5.711 Y35.335 Z-0.655
X5.728 Y35.303 Z-0.714
X5.752 Y35.26 Z-0.763
X5.78 Y35.208 Z-0.8
X5.811 Y35.15 Z-0.823
X5.844 Y35.09 Z-0.831
G3 X6.813 Y33.687 I6.958 J3.772
G1 X6.915 Y33.577
X6.921
X6.926 Y33.578
X6.931 Y33.581
X8.506 Y35.04
X8.584 Y35.109
X8.794 Y35.285
X8.945 Y35.397
X10.667 Y36.57
X10.846 Y36.692
X10.955 Y36.764
X11.351 Y36.98
X13.145 Y37.844
X13.261 Y37.899
X13.693 Y38.09
X13.837 Y38.137
X15.854 Y38.759
X15.998 Y38.803
X16.142 Y38.843
X16.43 Y38.908
X16.575 Y38.939
X18.592 Y39.242
X18.88 Y39.285
X19.024 Y39.297
X19.312 Y39.314
X19.456 Y39.318
X21.185
X21.33 Y39.319
X21.762 Y39.329
X21.906 Y39.325
X22.05 Y39.311
X22.194 Y39.287
X23.347 Y39.059
X23.657 Y38.995
X25.94 Y38.517
X26.085 Y38.484
X28.822 Y37.818
X29.831 Y37.571
X30.407 Y37.404
X32.424 Y36.811
X33.577 Y36.469
X33.721 Y36.423
X34.442 Y36.178
X36.315 Y35.538
X37.468 Y35.141
X39.197 Y34.532
X39.629 Y34.378
X40.638 Y34.015
X41.07 Y33.86
X41.214 Y33.807
X41.358 Y33.745
X41.761 Y33.526
X41.934 Y33.419
X41.983 Y33.382
X42.16 Y33.238
X42.223 Y33.177
X42.404 Y32.989
X42.62 Y32.662
X42.655 Y32.607
X42.705 Y32.518
X42.897 Y32.123
X42.982 Y31.799
X43.016 Y31.655
X43.154 Y30.791
X43.172 Y30.647
X43.205 Y30.359
X43.216 Y30.215
X43.262 Y29.208
X43.274 Y28.92
X43.278 Y28.776
X43.288 Y28.2
X43.304 Y27.049
X43.306 Y26.761
X43.315 Y24.314
X43.321 Y20.14
Y18.269
X43.303 Y13.663
X43.302 Y13.519
X43.292 Y13.087
X43.17 Y10.353
X43.162 Y10.209
X43.111 Y9.777
X43.057 Y9.489
X43.029 Y9.345
X42.988 Y9.201
X42.905 Y8.913
X42.849 Y8.77
X42.727 Y8.482
X42.655 Y8.348
X42.648 Y8.338
X42.549 Y8.194
X42.44 Y8.05
X42.367 Y7.968
X42.223 Y7.82
X42.162 Y7.762
X41.984 Y7.618
X41.934 Y7.58
X41.759 Y7.474
X41.358 Y7.257
X41.214 Y7.194
X41.07 Y7.141
X39.773 Y6.688
X39.341 Y6.541
X38.258 Y6.179
X36.597 Y5.603
X35.45 Y5.215
X35.018 Y5.072
X33.289 Y4.507
X33.113 Y4.452
X32.641 Y4.308
X31.704 Y4.029
X29.831 Y3.496
X29.399 Y3.375
X29.255 Y3.338
X28.246 Y3.085
X27.814 Y2.979
X26.085 Y2.558
X25.94 Y2.524
X25.508 Y2.425
X23.347 Y1.951
X22.194 Y1.713
X22.05 Y1.69
X21.906 Y1.675
X21.762 Y1.67
X21.33 Y1.681
X21.185 Y1.682
X19.456
X19.312 Y1.686
X19.024 Y1.703
X18.88 Y1.715
X18.015 Y1.844
X16.575 Y2.061
X16.43 Y2.092
X16.142 Y2.157
X15.998 Y2.197
X14.99 Y2.507
X13.819 Y2.868
X13.693 Y2.91
X13.261 Y3.101
X11.531 Y3.933
X11.351 Y4.02
X10.955 Y4.236
X10.846 Y4.308
X9.514 Y5.215
X8.938 Y5.608
X8.794 Y5.715
X8.584 Y5.891
X8.506 Y5.96
X6.776 Y7.563
X6.723 Y7.618
X6.632 Y7.713
X6.246 Y8.194
X5.212 Y9.489
X4.903 Y9.89
X4.883 Y9.921
X4.715 Y10.209
X3.751 Y11.876
X3.551 Y12.224
X3.486 Y12.368
X3.366 Y12.656
X3.308 Y12.8
X2.598 Y14.607
X2.575 Y14.671
X2.454 Y15.029
X2.431 Y15.103
X1.905 Y17.405
X1.877 Y17.564
X1.835 Y17.837
X1.819 Y17.981
X1.657 Y20.14
X1.647 Y20.284
Y20.716
X1.668 Y21.004
X1.819 Y23.019
X1.835 Y23.163
X1.88 Y23.451
X1.905 Y23.595
X2.432 Y25.897
X2.454 Y25.971
X2.575 Y26.329
X2.598 Y26.394
X3.318 Y28.225
X3.366 Y28.344
X3.486 Y28.632
X3.551 Y28.776
X3.798 Y29.208
X4.799 Y30.935
X4.883 Y31.079
X4.903 Y31.11
X5.212 Y31.511
X6.477 Y33.094
X6.632 Y33.287
X6.722 Y33.382
X6.776 Y33.437
X6.931 Y33.581
G3 X6.94 Y34.011 I-0.219 J0.22
G1 X6.895 Y34.04 Z-0.826
X6.851 Y34.068 Z-0.812
X6.81 Y34.095 Z-0.789
X6.756 Y34.104 Z-0.748
X6.712 Y34.111 Z-0.696
X6.683 Y34.108 Z-0.642
X6.665 Y34.107 Z-0.583
X6.659 Y34.106 Z-0.521
G0 Z5
X6.176 Y35.618
Z-0.18
G1 Z-0.49 F1000
X6.18 Y35.612 Z-0.559
X6.193 Y35.592 Z-0.624
X6.212 Y35.561 Z-0.683
X6.239 Y35.519 Z-0.732
X6.27 Y35.47 Z-0.769
X6.305 Y35.414 Z-0.792
X6.342 Y35.356 Z-0.8
G3 X7.404 Y34.022 I6.686 J4.235
G1 X7.513 Y33.92
X7.661 Y33.892
X7.811 Y33.889
X7.96 Y33.902
X8.143 Y33.933
X8.418 Y34.005
X8.827 Y34.147
X9.408 Y34.402
X9.967 Y34.702
X10.511 Y35.028
X11.053 Y35.357
X11.607 Y35.667
X12.169 Y35.962
X12.734 Y36.249
X13.305 Y36.527
X13.891 Y36.769
X14.486 Y36.989
X15.086 Y37.195
X15.69 Y37.389
X16.304 Y37.549
X16.925 Y37.682
X17.548 Y37.799
X18.174 Y37.905
X18.804 Y37.977
X19.437 Y38.019
X20.071 Y38.043
X20.705 Y38.061
X21.339 Y38.041
X21.971 Y37.979
X22.599 Y37.89
X23.225 Y37.784
X23.848 Y37.668
X24.471 Y37.546
X25.092 Y37.418
X25.712 Y37.28
X26.33 Y37.138
X26.947 Y36.992
X27.564 Y36.845
X28.181 Y36.696
X28.797 Y36.543
X29.41 Y36.381
X30.021 Y36.211
X30.632 Y36.037
X31.241 Y35.861
X31.85 Y35.684
X32.459 Y35.504
X33.064 Y35.314
X33.668 Y35.118
X34.27 Y34.919
X34.871 Y34.717
X35.472 Y34.513
X36.072 Y34.308
X36.672 Y34.101
X37.271 Y33.893
X37.87 Y33.683
X38.468 Y33.472
X39.664 Y33.045
X40.253 Y32.811
X40.787 Y32.469
X41.198 Y31.985
X41.492 Y31.423
X41.693 Y30.822
X41.826 Y30.201
X41.914 Y29.573
X41.971 Y28.941
X42.007 Y28.308
X42.032 Y27.674
X42.047 Y27.039
X42.057 Y26.405
X42.064 Y25.771
X42.069 Y25.136
X42.072 Y24.502
X42.076 Y23.233
X42.08 Y20.695
X42.081 Y19.426
X42.079 Y18.158
X42.077 Y17.523
X42.068 Y14.985
X42.065 Y14.351
X42.054 Y13.717
X42.036 Y13.082
X42.014 Y12.448
X41.989 Y11.814
X41.962 Y11.181
X41.905 Y10.549
X41.781 Y9.926
X41.489 Y9.363
X41.049 Y8.906
X40.532 Y8.539
X39.976 Y8.233
X39.399 Y7.969
X38.811 Y7.731
X38.218 Y7.505
X37.622 Y7.287
X37.025 Y7.073
X36.426 Y6.864
X35.826 Y6.657
X35.225 Y6.454
X34.624 Y6.253
X34.021 Y6.054
X33.418 Y5.858
X32.813 Y5.667
X32.206 Y5.481
X31.598 Y5.3
X30.989 Y5.122
X30.38 Y4.945
X29.769 Y4.773
X29.157 Y4.608
X28.543 Y4.448
X27.928 Y4.292
X27.312 Y4.138
X26.696 Y3.986
X26.08 Y3.838
X25.461 Y3.695
X24.843 Y3.554
X24.224 Y3.416
X23.604 Y3.281
X22.983 Y3.148
X22.356 Y3.054
X21.724 Y2.999
X21.09 Y2.967
X20.456 Y2.948
X19.822 Y2.954
X19.189 Y2.997
X18.557 Y3.06
X17.928 Y3.137
X17.301 Y3.233
X16.68 Y3.366
X16.065 Y3.521
X15.453 Y3.69
X14.846 Y3.875
X14.251 Y4.094
X13.665 Y4.337
X13.085 Y4.594
X12.51 Y4.863
X11.952 Y5.165
X11.408 Y5.49
X10.871 Y5.829
X10.34 Y6.176
X9.831 Y6.555
X9.339 Y6.955
X8.858 Y7.369
X8.384 Y7.79
X7.933 Y8.236
X7.504 Y8.704
X7.089 Y9.183
X6.682 Y9.67
X6.298 Y10.175
X5.94 Y10.699
X5.599 Y11.234
X5.267 Y11.775
X4.958 Y12.329
X4.679 Y12.899
X4.419 Y13.478
X4.171 Y14.061
X3.941 Y14.653
X3.747 Y15.257
X3.575 Y15.867
X3.415 Y16.481
X3.272 Y17.099
X3.166 Y17.725
X3.084 Y18.354
X3.016 Y18.985
X2.962 Y19.617
X2.946 Y20.251
X2.956 Y20.886
X2.981 Y21.519
X3.019 Y22.153
X3.092 Y22.783
X3.193 Y23.409
X3.311 Y24.033
X3.439 Y24.654
X3.601 Y25.268
X3.792 Y25.873
X4 Y26.472
X4.219 Y27.067
X4.464 Y27.652
X4.74 Y28.224
X5.033 Y28.787
X5.336 Y29.344
X5.662 Y29.888
X6.016 Y30.415
X6.388 Y30.929
X6.77 Y31.435
X7.196 Y31.905
X7.731 Y32.247
X8.299 Y32.529
X8.875 Y32.795
X9.448 Y33.067
X10.014 Y33.355
X10.57 Y33.659
X11.123 Y33.971
X11.677 Y34.279
X12.235 Y34.581
X12.798 Y34.874
X13.368 Y35.152
X13.948 Y35.409
X14.537 Y35.646
X15.132 Y35.866
X15.735 Y36.063
X16.346 Y36.233
X16.963 Y36.381
X17.585 Y36.509
X18.211 Y36.61
X18.841 Y36.684
X19.473 Y36.737
X20.107 Y36.767
X20.741
X21.375 Y36.732
X22.006 Y36.67
X22.635 Y36.586
X23.262 Y36.486
X23.886 Y36.375
X24.198 Y36.315
X24.508 Y36.251
X25.13 Y36.122
X25.749 Y35.986
X26.368 Y35.846
X26.986 Y35.702
X27.603 Y35.554
X28.218 Y35.4
X28.832 Y35.24
X29.445 Y35.074
X30.056 Y34.904
X30.666 Y34.731
X31.276 Y34.555
X31.883 Y34.373
X32.489 Y34.185
X33.094 Y33.992
X33.697 Y33.795
X34.299 Y33.595
X34.9 Y33.393
X35.501 Y33.189
X36.101 Y32.983
X36.247 Y32.92
X36.419 Y32.848
X36.616 Y32.766
X36.861 Y32.667
X37.159 Y32.549
X37.547 Y32.398
X38.733 Y31.947
X39.281 Y31.629
X39.721 Y31.171
X40.041 Y30.623
X40.265 Y30.03
X40.419 Y29.414
X40.522 Y28.788
X40.591 Y28.157
X40.636 Y27.525
X40.667 Y26.891
X40.687 Y26.257
X40.7 Y25.623
X40.709 Y24.988
X40.715 Y24.354
X40.719 Y23.719
X40.724 Y22.45
X40.728 Y20.547
Y19.278
X40.724 Y17.375
X40.718 Y15.472
X40.713 Y14.837
X40.704 Y14.203
X40.689 Y13.569
X40.671 Y12.935
X40.649 Y12.3
X40.615 Y11.667
X40.498 Y11.043
X40.194 Y10.486
X39.763 Y10.021
X39.259 Y9.636
X38.714 Y9.311
X38.147 Y9.027
X37.566 Y8.771
X36.978 Y8.534
X36.385 Y8.309
X35.789 Y8.092
X35.19 Y7.882
X34.59 Y7.676
X33.988 Y7.474
X33.386 Y7.276
X32.781 Y7.083
X32.176 Y6.894
X31.569 Y6.709
X30.961 Y6.528
X30.352 Y6.35
X29.741 Y6.177
X29.13 Y6.009
X28.44 Y5.826
X27.825 Y5.667
X27.211 Y5.511
X26.595 Y5.359
X25.978 Y5.21
X25.36 Y5.065
X24.742 Y4.923
X24.123 Y4.784
X23.503 Y4.65
X22.878 Y4.539
X22.249 Y4.454
X21.618 Y4.394
X20.985 Y4.357
X20.35 Y4.348
X19.716 Y4.367
X19.083 Y4.408
X18.452 Y4.472
X17.824 Y4.565
X17.201 Y4.685
X16.583 Y4.826
X15.97 Y4.99
X15.365 Y5.181
X14.768 Y5.397
X14.179 Y5.632
X13.599 Y5.89
X13.032 Y6.174
X12.476 Y6.479
X11.929 Y6.802
X11.398 Y7.148
X10.882 Y7.517
X10.38 Y7.906
X9.892 Y8.311
X9.422 Y8.737
X8.971 Y9.183
X8.536 Y9.644
X8.117 Y10.121
X7.72 Y10.616
X7.343 Y11.127
X6.984 Y11.65
X6.644 Y12.185
X6.33 Y12.736
X6.038 Y13.3
X5.766 Y13.873
X5.515 Y14.456
X5.291 Y15.049
X5.091 Y15.651
X4.91 Y16.259
X4.755 Y16.874
X4.626 Y17.496
X4.522 Y18.121
X4.437 Y18.75
X4.38 Y19.382
X4.351 Y20.016
X4.346 Y20.65
X4.362 Y21.285
X4.405 Y21.917
X4.476 Y22.548
X4.568 Y23.176
X4.683 Y23.8
X4.825 Y24.418
X4.993 Y25.03
X5.182 Y25.635
X5.393 Y26.234
X5.631 Y26.822
X5.893 Y27.4
X6.174 Y27.969
X6.477 Y28.526
X6.805 Y29.069
X7.153 Y29.599
X7.528 Y30.111
X7.985 Y30.551
X8.496 Y30.927
X8.766 Y31.094
X9.381 Y31.455
X9.936 Y31.764
X10.491 Y32.071
X11.599 Y32.688
X12.156 Y32.993
X12.715 Y33.292
X13.28 Y33.581
X13.853 Y33.853
X14.434 Y34.109
X15.023 Y34.345
X15.62 Y34.559
X16.225 Y34.75
X16.837 Y34.916
X17.456 Y35.059
X18.079 Y35.174
X18.708 Y35.263
X19.339 Y35.325
X19.973 Y35.358
X20.607 Y35.359
X21.241 Y35.329
X21.873 Y35.274
X22.503 Y35.197
X22.659 Y35.174
X22.705 Y35.172
X23.444 Y35.194
X25.661 Y35.261
X27.294 Y35.311
G3 X27.276 Y35.931 I-0.009 J0.31
X26.986 Y35.702 I0.009 J-0.31
G1 X26.95 Y35.547
X27.001 Y35.406
X27.074 Y35.275
X27.161 Y35.153
X27.258 Y35.038
X27.363 Y34.932
X27.475 Y34.831
X27.592 Y34.737
X27.712 Y34.648
X27.837 Y34.564
X27.964 Y34.485
X28.093 Y34.409
X28.224 Y34.336
X28.358 Y34.267
X28.492 Y34.201
X28.628 Y34.137
X28.764 Y34.075
X28.902 Y34.015
X29.04 Y33.958
X29.18 Y33.901
X29.319 Y33.846
X29.459 Y33.793
X29.617 Y33.734
X29.796 Y33.669
X30.002 Y33.596
X30.301 Y33.492
X30.73 Y33.346
X31.332 Y33.146
X32.538 Y32.751
X33.141 Y32.553
X33.743 Y32.353
X34.344 Y32.151
X34.943 Y31.941
X35.537 Y31.719
X36.723 Y31.267
X37.315 Y31.039
X37.865 Y30.724
X38.31 Y30.272
X38.64 Y29.73
X38.875 Y29.14
X39.037 Y28.527
X39.148 Y27.902
X39.223 Y27.272
X39.274 Y26.64
X39.307 Y26.006
X39.33 Y25.372
X39.345 Y24.738
X39.356 Y24.104
X39.363 Y23.469
X39.367 Y22.835
X39.371 Y22.2
X39.374 Y20.932
X39.376 Y19.663
X39.373 Y17.759
X39.369 Y16.491
X39.366 Y15.856
X39.361 Y15.222
X39.352 Y14.587
X39.34 Y13.953
X39.324 Y13.319
X39.297 Y12.685
X39.159 Y12.066
X38.846 Y11.514
X38.417 Y11.047
X37.918 Y10.655
X37.378 Y10.321
X36.815 Y10.03
X36.237 Y9.768
X35.65 Y9.526
X35.058 Y9.299
X34.462 Y9.083
X33.863 Y8.873
X33.111 Y8.621
X32.507 Y8.425
X31.902 Y8.234
X31.296 Y8.048
X30.688 Y7.865
X30.232 Y7.732
X30.155 Y7.71
X29.431 Y7.407
X26.283 Y6.092
X23.699 Y5.012
G3 X23.938 Y4.44 I0.12 J-0.286
X24.123 Y4.784 I-0.12 J0.286
G1 X24.071 Y5.016
X23.954 Y5.11
X23.827 Y5.189
X23.693 Y5.257
X23.554 Y5.314
X23.413 Y5.364
X23.269 Y5.406
X23.123 Y5.442
X22.976 Y5.473
X22.829 Y5.5
X22.681 Y5.523
X22.532 Y5.543
X22.383 Y5.559
X22.234 Y5.574
X22.084 Y5.587
X21.934 Y5.598
X21.695 Y5.614
X21.32 Y5.637
X20.686 Y5.67
X20.053 Y5.707
X19.421 Y5.757
X18.79 Y5.828
X18.163 Y5.922
X17.539 Y6.04
X16.921 Y6.183
X16.31 Y6.352
X15.706 Y6.546
X15.11 Y6.764
X14.524 Y7.008
X13.95 Y7.278
X13.387 Y7.571
X12.838 Y7.888
X12.303 Y8.23
X11.784 Y8.594
X11.28 Y8.979
X10.794 Y9.387
X10.325 Y9.815
X9.875 Y10.262
X9.444 Y10.728
X9.035 Y11.212
X8.646 Y11.713
X8.279 Y12.231
X7.935 Y12.764
X7.615 Y13.312
X7.318 Y13.872
X7.045 Y14.445
X6.798 Y15.029
X6.575 Y15.624
X6.378 Y16.226
X6.207 Y16.837
X6.063 Y17.455
X5.944 Y18.079
X5.853 Y18.706
X5.791 Y19.338
X5.755 Y19.971
X5.746 Y20.606
X5.765 Y21.24
X5.81 Y21.872
X5.882 Y22.503
X5.981 Y23.13
X6.107 Y23.751
X6.26 Y24.367
X6.439 Y24.976
X6.645 Y25.576
X6.877 Y26.166
X7.133 Y26.747
X7.414 Y27.315
X7.72 Y27.871
X8.052 Y28.412
X8.446 Y28.909
X8.56 Y29.019
G0 Z5
X33.052 Y33.717
Z-0.18
G1 Z-0.49 F1000
X33.048 Y33.71 Z-0.559
X33.036 Y33.691 Z-0.624
X33.016 Y33.66 Z-0.683
X32.99 Y33.619 Z-0.732
X32.958 Y33.569 Z-0.769
X32.923 Y33.514 Z-0.792
X32.886 Y33.455 Z-0.8
G3 X32.538 Y32.751 I3.075 J-1.958
G1 X32.489 Y32.601
X32.528 Y32.456
X32.59 Y32.319
X32.667 Y32.19
X32.755 Y32.069
X32.852 Y31.954
X32.955 Y31.846
X33.065 Y31.744
X33.179 Y31.646
X33.296 Y31.553
X33.417 Y31.464
X33.541 Y31.379
X33.666 Y31.297
X33.793 Y31.217
X33.922 Y31.141
X34.052 Y31.066
X34.184 Y30.994
X34.316 Y30.923
X34.449 Y30.854
X34.583 Y30.786
X34.718 Y30.72
X34.853 Y30.655
X34.993 Y30.59
X35.149 Y30.518
X35.728 Y30.256
X36.293 Y29.97
X36.776 Y29.558
X37.149 Y29.045
X37.42 Y28.471
X37.612 Y27.866
X37.744 Y27.246
X37.767 Y27.089
X37.787 Y26.931
X37.865 Y26.302
X37.918 Y25.67
X37.953 Y25.036
X37.977 Y24.402
X37.993 Y23.768
X38.003 Y23.134
X38.011 Y22.499
X38.016 Y21.865
X38.019 Y21.23
X38.022 Y19.961
Y18.693
X38.02 Y17.424
X38.018 Y16.789
X38.015 Y16.155
X38.009 Y15.521
X38.001 Y14.886
X37.989 Y14.252
X37.959 Y13.618
X37.791 Y13.006
X37.46 Y12.465
X37.023 Y12.005
X36.522 Y11.616
X36.252 Y11.45
X36.113 Y11.373
X35.556 Y11.069
X34.982 Y10.798
X34.69 Y10.675
X34.469 Y10.586
X34.396 Y10.557
G3 X34.458 Y9.969 I0.124 J-0.284
G1 X34.526 Y9.956 Z-0.792
X34.59 Y9.943 Z-0.769
X34.648 Y9.931 Z-0.732
X34.696 Y9.922 Z-0.683
X34.732 Y9.914 Z-0.624
X34.755 Y9.91 Z-0.559
X34.762 Y9.908 Z-0.49
G0 Z5
X35.622 Y31.485
Z-0.18
G1 Z-0.49 F1000
X35.617 Y31.479 Z-0.559
X35.602 Y31.461 Z-0.624
X35.579 Y31.433 Z-0.683
X35.548 Y31.395 Z-0.732
X35.51 Y31.35 Z-0.769
X35.468 Y31.299 Z-0.792
X35.425 Y31.246 Z-0.8
G3 X34.993 Y30.59 I2.812 J-2.32
G1 X34.959 Y30.518
X34.963 Y30.368
X34.997 Y30.222
X35.049 Y30.081
X35.112 Y29.945
X35.18 Y29.812
X35.251 Y29.679
X35.556 Y29.123
X35.835 Y28.553
X35.949 Y28.257
X35.999 Y28.107
X36.023 Y28.031
X36.024 Y28.028
X36.13 Y27.253
X37.004 Y20.856
X37.781 Y15.165
G3 X38.398 Y15.206 I0.307 J0.042
G1 Y15.207
G3 X38.102 Y15.516 I-0.31 J0
G1 X38.009 Y15.521
X37.771 Y15.523
X37.654 Y15.429
X37.55 Y15.321
X37.456 Y15.204
X37.372 Y15.08
X37.295 Y14.951
X37.223 Y14.819
X36.92 Y14.262
X36.567 Y13.735
X36.459 Y13.618
X36.404 Y13.562
X36.347 Y13.506
G3 X36.351 Y13.076 I0.225 J-0.213
G1 X36.397 Y13.048 Z-0.795
X36.442 Y13.021 Z-0.781
X36.484 Y12.996 Z-0.758
X36.532 Y12.989 Z-0.722
X36.573 Y12.983 Z-0.678
X36.607 Y12.986 Z-0.621
X36.629 Y12.989 Z-0.557
X36.636 Z-0.49
G0 Z5
X-0.308 Y-3.628
Z-1.304
G1 Z-1.614 F1000
X-0.307 Y-3.62 Z-1.683
X-0.301 Y-3.598 Z-1.748
X-0.292 Y-3.562 Z-1.807
X-0.28 Y-3.515 Z-1.856
X-0.265 Y-3.458 Z-1.893
X-0.249 Y-3.394 Z-1.916
X-0.232 Y-3.327 Z-1.924
G3 X0.011 Y-1.64 I-7.667 J1.964
G1 Y-1.49
X-0.116 Y-0.868
X-0.191 Y-0.238
X-0.236 Y0.395
X-0.262 Y1.029
X-0.277 Y1.663
X-0.286 Y2.297
X-0.291 Y2.932
X-0.294 Y3.566
X-0.297 Y4.835
X-0.298 Y8.642
X-0.293 Y39.57
X-0.259 Y39.725
X-0.13 Y40.015
X0.073 Y40.259
X0.563 Y40.662
X1.144 Y40.916
X1.759 Y41.071
X2.387 Y41.163
X3.019 Y41.218
X3.653 Y41.25
X4.287 Y41.269
X4.921 Y41.28
X5.556 Y41.286
X6.19 Y41.29
X7.459 Y41.293
X8.093 Y41.294
X13.803 Y41.295
X43.622 Y41.294
X43.92 Y41.187
X44.173 Y40.996
X44.593 Y40.52
X44.858 Y39.943
X45.019 Y39.33
X45.116 Y38.703
X45.173 Y38.071
X45.206 Y37.437
X45.225 Y36.803
X45.236 Y36.169
X45.243 Y35.535
X45.246 Y34.9
X45.249 Y33.631
X45.248 Y31.093
X45.245 Y27.287
X45.224 Y1.434
X45.194 Y1.278
X45.07 Y0.986
X44.87 Y0.74
X44.384 Y0.332
X43.803 Y0.076
X43.189 Y-0.08
X42.561 Y-0.174
X41.929 Y-0.229
X41.295 Y-0.261
X40.661 Y-0.28
X40.027 Y-0.291
X39.393 Y-0.298
X38.758 Y-0.301
X37.489 Y-0.304
X34.952 Y-0.305
X21.628 Y-0.301
X2.754 Y-0.295
X2.443 Y-0.233
X2.171 Y-0.071
X1.711 Y0.367
X1.413 Y0.927
X1.226 Y1.533
X1.112 Y2.157
X1.043 Y2.788
X1.002 Y3.421
X0.978 Y4.055
X0.963 Y4.689
X0.954 Y5.324
X0.949 Y5.958
X0.946 Y6.592
X0.944 Y7.861
X0.943 Y11.033
X0.945 Y30.701
X0.946 Y37.997
X1.015 Y38.307
X1.157 Y38.59
X1.55 Y39.088
X2.081 Y39.435
X2.673 Y39.665
X3.29 Y39.812
X3.917 Y39.905
X4.549 Y39.963
X5.182 Y39.999
X5.816 Y40.021
X6.451 Y40.034
X7.085 Y40.043
X7.719 Y40.048
X8.354 Y40.051
X9.623 Y40.053
X12.795 Y40.055
X41.979 Y40.054
X42.288 Y39.985
X42.571 Y39.84
X43.064 Y39.441
X43.407 Y38.907
X43.632 Y38.314
X43.776 Y37.696
X43.867 Y37.068
X43.923 Y36.436
X43.958 Y35.803
X43.978 Y35.169
X43.991 Y34.535
X43.998 Y33.9
X44.003 Y33.266
X44.005 Y32.631
X44.007 Y31.362
X44.006 Y28.19
X43.986 Y3.13
X43.955 Y2.814
X43.842 Y2.518
X43.668 Y2.253
X43.23 Y1.794
X42.678 Y1.481
X42.077 Y1.276
X41.456 Y1.146
X40.827 Y1.064
X40.195 Y1.014
X39.561 Y0.982
X38.927 Y0.963
X38.293 Y0.952
X37.658 Y0.945
X37.024 Y0.941
X36.389 Y0.938
X35.121 Y0.936
X31.314
X4.351 Y0.945
X4.036 Y0.987
X3.743 Y1.108
X3.223 Y1.471
X2.854 Y1.987
X2.607 Y2.572
X2.448 Y3.186
X2.347 Y3.812
X2.284 Y4.443
X2.245 Y5.077
X2.22 Y5.711
X2.206 Y6.345
X2.196 Y6.979
X2.191 Y7.614
X2.188 Y8.248
X2.184 Y9.517
X2.183 Y12.055
Y15.282
X2.181 Y15.336
X2.175 Y15.39
X2.165 Y15.443
X1.716 Y17.405
X1.692 Y17.549
X1.65 Y17.837
X1.635 Y17.981
X1.473 Y20.14
X1.463 Y20.284
Y20.716
X1.483 Y21.004
X1.635 Y23.019
X1.65 Y23.163
X1.692 Y23.451
X1.716 Y23.595
X1.877 Y24.299
X1.988 Y24.924
X2.071 Y25.553
X2.119 Y26.185
X2.147 Y26.819
X2.163 Y27.453
X2.172 Y28.088
X2.178 Y28.722
X2.181 Y29.357
X2.184 Y30.625
X2.186 Y33.798
Y36.335
X2.196 Y36.652
X2.266 Y36.962
X2.403 Y37.248
X2.781 Y37.757
X3.301 Y38.121
X3.885 Y38.368
X4.499 Y38.53
X5.124 Y38.635
X5.755 Y38.702
X6.388 Y38.744
X7.022 Y38.771
X7.656 Y38.788
X8.291 Y38.798
X8.925 Y38.805
X9.56 Y38.809
X10.828 Y38.813
X13.366 Y38.815
X15.309
X15.381 Y38.818
X15.451 Y38.829
X15.521 Y38.846
X16.008 Y38.995
X16.142 Y39.033
X16.43 Y39.106
X18.88 Y39.467
X19.024 Y39.48
X19.312 Y39.501
X19.456 Y39.505
X21.762 Y39.496
X21.906 Y39.493
X22.05 Y39.482
X22.194 Y39.463
X24.067 Y39.087
X24.695 Y38.994
X25.325 Y38.918
X25.958 Y38.875
X26.592 Y38.849
X27.226 Y38.835
X27.86 Y38.826
X28.495 Y38.821
X29.129 Y38.819
X30.398 Y38.816
X34.204 Y38.814
X40.549
X40.861 Y38.759
X41.153 Y38.635
X41.675 Y38.275
X42.052 Y37.764
X42.308 Y37.184
X42.476 Y36.572
X42.585 Y35.947
X42.654 Y35.316
X42.698 Y34.683
X42.725 Y34.05
X42.742 Y33.415
X42.748 Y33.05
X42.757 Y32.943
X42.783 Y32.839
X42.824 Y32.74
X42.862 Y32.662
X42.931 Y32.518
X43.061 Y32.23
X43.087 Y32.16
X43.11 Y32.087
X43.19 Y31.799
X43.226 Y31.655
X43.358 Y30.791
X43.375 Y30.613
X43.397 Y30.359
X43.406 Y30.215
X43.463 Y28.92
X43.478 Y28.488
X43.482 Y28.344
X43.498 Y26.329
X43.503 Y24.746
X43.513 Y20.572
X43.512 Y19.564
X43.506 Y16.974
X43.493 Y13.663
X43.484 Y12.656
X43.48 Y12.512
X43.463 Y12.08
X43.406 Y10.785
X43.397 Y10.641
X43.374 Y10.353
X43.362 Y10.209
X43.306 Y9.777
X43.227 Y9.345
X43.189 Y9.201
X43.149 Y9.057
X43.007 Y8.439
X42.897 Y7.814
X42.834 Y7.183
X42.798 Y6.549
X42.777 Y5.915
X42.764 Y5.281
X42.757 Y4.647
X42.742 Y4.33
X42.667 Y4.021
X42.528 Y3.736
X42.146 Y3.23
X41.626 Y2.866
X41.041 Y2.62
X40.428 Y2.457
X39.802 Y2.353
X39.171 Y2.286
X38.538 Y2.244
X37.905 Y2.218
X37.27 Y2.201
X36.636 Y2.191
X36.002 Y2.185
X35.367 Y2.181
X34.098 Y2.178
X31.561 Y2.176
X25.315 Y2.178
X25.265 Y2.176
X25.215 Y2.171
X25.166 Y2.162
X22.194 Y1.538
X22.05 Y1.518
X21.906 Y1.507
X21.762 Y1.504
X19.456 Y1.495
X19.312 Y1.499
X19.024 Y1.52
X18.88 Y1.533
X16.43 Y1.894
X16.286 Y1.93
X15.904 Y2.007
X15.274 Y2.08
X14.641 Y2.123
X14.007 Y2.148
X13.373 Y2.162
X12.739 Y2.17
X12.104 Y2.175
X11.47 Y2.178
X10.201 Y2.181
X6.394 Y2.184
X5.76
X5.445 Y2.218
X5.144 Y2.32
X4.601 Y2.647
X4.201 Y3.14
X3.927 Y3.712
X3.745 Y4.32
X3.627 Y4.943
X3.551 Y5.573
X3.503 Y6.206
X3.473 Y6.839
X3.454 Y7.473
X3.442 Y8.108
X3.435 Y8.742
X3.43 Y9.377
X3.427 Y10.011
X3.425 Y11.28
X3.424 Y11.917
X3.415 Y12.023
X3.388 Y12.127
X3.344 Y12.224
X3.318 Y12.279
X3.111 Y12.8
X2.431 Y14.527
X2.378 Y14.671
X2.286 Y14.959
X2.243 Y15.103
X2.165 Y15.443
X1.99 Y16.209
X1.716 Y17.405
X1.692 Y17.549
X1.65 Y17.837
X1.635 Y17.981
X1.473 Y20.14
X1.463 Y20.284
Y20.716
X1.473 Y20.86
X1.635 Y23.019
X1.65 Y23.163
X1.692 Y23.451
X1.706 Y23.533
X1.716 Y23.595
X1.877 Y24.299
X2.243 Y25.897
X2.286 Y26.041
X2.378 Y26.329
X2.431 Y26.473
X2.885 Y27.625
X3.063 Y28.155
X3.179 Y28.619
X3.283 Y29.245
X3.342 Y29.877
X3.377 Y30.51
X3.397 Y31.144
X3.409 Y31.778
X3.416 Y32.413
X3.42 Y33.047
X3.424 Y34.316
X3.425 Y34.951
X3.429 Y35.268
X3.482 Y35.58
X3.6 Y35.875
X3.947 Y36.406
X4.446 Y36.797
X5.021 Y37.067
X5.629 Y37.247
X6.252 Y37.365
X6.882 Y37.441
X7.515 Y37.49
X8.148 Y37.521
X8.783 Y37.541
X9.417 Y37.554
X10.051 Y37.562
X10.686 Y37.567
X11.32 Y37.57
X11.994 Y37.572
X12.101 Y37.58
X12.205 Y37.604
X12.305 Y37.643
X13.405 Y38.169
X13.693 Y38.286
X13.837 Y38.332
X15.521 Y38.846
X16.008 Y38.995
X16.142 Y39.033
X16.274 Y39.067
X16.43 Y39.106
X18.88 Y39.467
X19.024 Y39.48
X19.312 Y39.501
X19.456 Y39.505
X21.762 Y39.496
X21.906 Y39.493
X22.05 Y39.482
X22.194 Y39.463
X23.297 Y39.242
X24.067 Y39.087
X25.964 Y38.707
X26.085 Y38.681
X26.229 Y38.648
X26.373 Y38.614
X29.255 Y37.908
X29.878 Y37.789
X30.505 Y37.698
X31.138 Y37.646
X31.771 Y37.616
X32.406 Y37.599
X33.04 Y37.589
X33.674 Y37.583
X34.309 Y37.579
X35.578 Y37.576
X38.75 Y37.574
X39.384
X39.689 Y37.487
X39.97 Y37.339
X40.469 Y36.948
X40.828 Y36.425
X41.073 Y35.839
X41.236 Y35.226
X41.342 Y34.601
X41.372 Y34.329
X41.431 Y34.109
X41.556 Y33.919
X41.734 Y33.777
X41.79 Y33.745
X42.104 Y33.526
X42.223 Y33.441
X42.286 Y33.382
X42.436 Y33.238
X42.569 Y33.094
X42.655 Y32.997
X42.799 Y32.789
X42.824 Y32.74
G3 X43.404 Y32.853 I0.272 J0.148
G1 X43.412 Y32.922 Z-1.916
X43.419 Y32.987 Z-1.893
X43.426 Y33.045 Z-1.856
X43.431 Y33.094 Z-1.807
X43.435 Y33.131 Z-1.748
X43.438 Y33.154 Z-1.683
Y33.161 Z-1.614
G0 Z5
X28.354 Y38.52
Z-1.304
G1 Z-1.614 F1000
X28.36 Y38.514 Z-1.683
X28.376 Y38.498 Z-1.748
X28.402 Y38.473 Z-1.807
X28.437 Y38.438 Z-1.856
X28.479 Y38.397 Z-1.893
X28.526 Y38.351 Z-1.916
X28.575 Y38.303 Z-1.924
G3 X29.255 Y37.908 I1.109 J1.129
G1 X29.831 Y37.767
X30.119 Y37.691
X30.263 Y37.65
X33.289 Y36.751
X33.905 Y36.601
X34.53 Y36.489
X35.161 Y36.424
X35.794 Y36.387
X36.428 Y36.365
X37.063 Y36.352
X37.697 Y36.345
X38.014 Y36.331
X38.324 Y36.266
X38.615 Y36.138
X39.136 Y35.777
X39.52 Y35.272
X39.783 Y34.741
X39.885 Y34.587
X40.024 Y34.464
X40.189 Y34.381
G3 X40.528 Y34.865 I0.094 J0.296
G1 X40.486 Y34.92 Z-1.916
X40.446 Y34.972 Z-1.893
X40.41 Y35.018 Z-1.856
X40.38 Y35.057 Z-1.807
X40.357 Y35.087 Z-1.748
X40.343 Y35.105 Z-1.683
X40.339 Y35.111 Z-1.614
G0 Z5
X32.419 Y37.406
Z-1.304
G1 Z-1.614 F1000
X32.425 Y37.4 Z-1.683
X32.44 Y37.383 Z-1.748
X32.465 Y37.356 Z-1.807
X32.499 Y37.32 Z-1.856
X32.538 Y37.277 Z-1.893
X32.583 Y37.229 Z-1.916
X32.63 Y37.178 Z-1.924
G3 X33.289 Y36.751 I1.163 J1.074
G1 X33.577 Y36.666
X33.721 Y36.622
X34.154 Y36.484
X37.612 Y35.294
X38.541 Y34.965
X40.568 Y34.246
X41.07 Y34.065
X41.214 Y34.013
X41.358 Y33.957
X41.502 Y33.894
X41.67 Y33.814
X41.734 Y33.777
G3 X42.152 Y34.196 I0.143 J0.275
G1 X42.12 Y34.257 Z-1.916
X42.09 Y34.315 Z-1.893
X42.062 Y34.367 Z-1.856
X42.04 Y34.411 Z-1.807
X42.023 Y34.443 Z-1.748
X42.012 Y34.464 Z-1.683
X42.008 Y34.471 Z-1.614
G0 Z5
X43.792 Y9.936
Z-1.304
G1 Z-1.614 F1000
X43.786 Y9.93 Z-1.683
X43.769 Y9.914 Z-1.748
X43.742 Y9.889 Z-1.807
X43.707 Y9.855 Z-1.856
X43.664 Y9.815 Z-1.893
X43.617 Y9.77 Z-1.916
X43.567 Y9.722 Z-1.924
G3 X43.149 Y9.057 I1.089 J-1.148
G1 X43.108 Y8.913
X43.087 Y8.849
X43.055 Y8.77
X42.936 Y8.482
X42.867 Y8.338
X42.799 Y8.209
X42.655 Y8.002
X42.511 Y7.839
X42.44 Y7.762
X42.339 Y7.651
X42.24 Y7.499
X42.132 Y7.303
X42.021 Y7.053
X41.904 Y6.722
X41.784 Y6.27
X41.671 Y5.646
X41.581 Y5.342
X41.296 Y4.775
X40.836 Y4.338
X40.282 Y4.028
X39.685 Y3.815
X39.066 Y3.674
X38.439 Y3.581
X37.807 Y3.521
X37.174 Y3.482
X36.54 Y3.457
X35.906 Y3.442
X35.271 Y3.432
X34.637 Y3.426
X34.002 Y3.422
X32.734 Y3.418
X30.384 Y3.417
X30.317 Y3.414
X30.25 Y3.404
X30.185 Y3.389
X29.975 Y3.329
X29.307 Y3.156
X28.678 Y2.998
X26.229 Y2.39
X26.085 Y2.356
X25.508 Y2.234
X25.166 Y2.162
X24.398 Y2.001
X22.194 Y1.538
X22.05 Y1.518
X21.906 Y1.507
X21.762 Y1.504
X19.456 Y1.495
X19.312 Y1.499
X19.024 Y1.52
X18.88 Y1.533
X17.06 Y1.801
X16.43 Y1.894
X16.286 Y1.93
X16.142 Y1.967
X15.998 Y2.008
X13.837 Y2.668
X13.693 Y2.714
X13.405 Y2.831
X13.327 Y2.868
X13.106 Y2.961
X12.763 Y3.073
X12.278 Y3.189
X11.651 Y3.287
X11.019 Y3.344
X10.386 Y3.377
X9.751 Y3.396
X9.117 Y3.407
X8.483 Y3.414
X7.848 Y3.418
X7.214 Y3.421
X6.897 Y3.433
X6.587 Y3.5
X6.298 Y3.632
X5.781 Y3.999
X5.406 Y4.511
X5.148 Y5.09
X4.976 Y5.701
X4.863 Y6.325
X4.79 Y6.956
X4.744 Y7.588
X4.714 Y8.222
X4.695 Y8.856
X4.683 Y9.491
X4.68 Y9.716
X4.668 Y9.839
X4.636 Y9.958
X4.583 Y10.07
X3.586 Y11.792
X3.344 Y12.224
G3 X2.769 Y12.082 I-0.265 J-0.161
G1 X2.765 Y12.013 Z-1.916
X2.761 Y11.948 Z-1.893
X2.757 Y11.889 Z-1.856
X2.754 Y11.84 Z-1.807
X2.752 Y11.803 Z-1.748
X2.751 Y11.78 Z-1.683
X2.75 Y11.773 Z-1.614
G0 Z5
X14.083 Y2.086
Z-1.304
G1 Z-1.614 F1000
X14.079 Y2.092 Z-1.683
X14.066 Y2.111 Z-1.748
X14.046 Y2.142 Z-1.807
X14.018 Y2.183 Z-1.856
X13.986 Y2.232 Z-1.893
X13.95 Y2.286 Z-1.916
X13.911 Y2.343 Z-1.924
G3 X13.327 Y2.868 I-1.317 J-0.878
G1 X11.387 Y3.796
X11.234 Y3.876
X10.963 Y4.02
X10.729 Y4.13
X10.424 Y4.244
X10.011 Y4.361
X9.406 Y4.482
X8.776 Y4.556
X8.143 Y4.6
X7.836 Y4.682
X7.551 Y4.821
X7.04 Y5.196
X6.665 Y5.708
X6.405 Y6.286
X6.23 Y6.896
X6.114 Y7.52
X6.062 Y7.958
X6.034 Y8.088
X5.982 Y8.212
X5.908 Y8.323
G3 X5.365 Y8.09 I-0.235 J-0.202
G1 X5.372 Y8.021 Z-1.916
X5.378 Y7.956 Z-1.893
X5.384 Y7.898 Z-1.856
X5.389 Y7.849 Z-1.807
X5.393 Y7.812 Z-1.748
X5.395 Y7.789 Z-1.683
X5.396 Y7.782 Z-1.614
G0 Z5
X11.686 Y3.206
Z-1.304
G1 Z-1.614 F1000
X11.682 Y3.212 Z-1.683
X11.67 Y3.232 Z-1.748
X11.65 Y3.264 Z-1.807
X11.625 Y3.306 Z-1.856
X11.594 Y3.356 Z-1.893
X11.56 Y3.412 Z-1.916
X11.525 Y3.471 Z-1.924
G3 X10.963 Y4.02 I-1.353 J-0.822
G1 X10.955 Y4.024
X10.811 Y4.112
X9.038 Y5.315
X8.938 Y5.386
X8.64 Y5.603
X8.506 Y5.712
X6.632 Y7.444
X6.603 Y7.474
X6.488 Y7.602
X6.127 Y8.05
X5.047 Y9.4
X4.977 Y9.489
X4.756 Y9.777
X4.669 Y9.921
X4.583 Y10.07
G3 X4.011 Y9.92 I-0.263 J-0.165
G1 X4.007 Y9.851 Z-1.916
X4.004 Y9.786 Z-1.893
X4.001 Y9.727 Z-1.856
X3.999 Y9.678 Z-1.807
X3.997 Y9.641 Z-1.748
X3.996 Y9.618 Z-1.683
Y9.611 Z-1.614
G0 Z5
X2.158 Y26.814
Z-1.304
G1 Z-1.614 F1000
X2.164 Y26.819 Z-1.683
X2.182 Y26.833 Z-1.748
X2.211 Y26.856 Z-1.807
X2.25 Y26.886 Z-1.856
X2.296 Y26.922 Z-1.893
X2.348 Y26.962 Z-1.916
X2.403 Y27.004 Z-1.924
G3 X2.885 Y27.625 I-0.97 J1.251
G1 X3.174 Y28.36
X3.318 Y28.721
X3.344 Y28.776
X3.586 Y29.208
X3.919 Y29.784
X4.082 Y30.1
X4.194 Y30.369
X4.31 Y30.725
X4.429 Y31.228
X4.526 Y31.855
X4.583 Y32.487
X4.617 Y33.12
X4.637 Y33.754
X4.657 Y34.071
X4.727 Y34.38
X4.859 Y34.669
X5.222 Y35.189
X5.731 Y35.568
X6.308 Y35.831
X6.918 Y36.007
X7.542 Y36.123
X8.171 Y36.199
X8.804 Y36.248
X9.438 Y36.28
X9.729 Y36.289
X9.863 Y36.306
X9.993 Y36.348
X10.112 Y36.413
X10.811 Y36.888
X10.955 Y36.976
X11.243 Y37.129
X11.387 Y37.204
X12.305 Y37.643
G3 X12.201 Y38.225 I-0.143 J0.275
G1 X12.132 Y38.234 Z-1.916
X12.067 Y38.242 Z-1.893
X12.009 Y38.249 Z-1.856
X11.96 Y38.256 Z-1.807
X11.924 Y38.26 Z-1.748
X11.901 Y38.263 Z-1.683
X11.893 Y38.264 Z-1.614
G0 Z5
X3.08 Y29.091
Z-1.304
G1 Z-1.614 F1000
X3.086 Y29.095 Z-1.683
X3.106 Y29.106 Z-1.748
X3.139 Y29.124 Z-1.807
X3.181 Y29.148 Z-1.856
X3.233 Y29.177 Z-1.893
X3.29 Y29.209 Z-1.916
X3.35 Y29.242 Z-1.924
G3 X3.919 Y29.784 I-0.772 J1.382
G1 X4.669 Y31.079
X4.756 Y31.223
X4.977 Y31.511
X5.115 Y31.707
X5.224 Y31.89
X5.335 Y32.118
X5.458 Y32.432
X5.641 Y33.039
X5.924 Y33.607
X6.367 Y34.061
X6.907 Y34.394
X7.497 Y34.628
X7.73 Y34.688
X7.842 Y34.727
X7.946 Y34.784
X8.04 Y34.857
G3 X7.768 Y35.383 I-0.218 J0.22
G1 X7.7 Y35.371 Z-1.916
X7.636 Y35.36 Z-1.893
X7.578 Y35.349 Z-1.856
X7.529 Y35.341 Z-1.807
X7.493 Y35.335 Z-1.748
X7.47 Y35.331 Z-1.683
X7.463 Y35.329 Z-1.614
G0 Z5
X4.05 Y30.942
Z-1.304
G1 Z-1.614 F1000
X4.057 Y30.944 Z-1.683
X4.078 Y30.953 Z-1.748
X4.113 Y30.966 Z-1.807
X4.158 Y30.984 Z-1.856
X4.213 Y31.005 Z-1.893
X4.274 Y31.029 Z-1.916
X4.338 Y31.054 Z-1.924
G3 X4.977 Y31.511 I-0.573 J1.475
G1 X5.091 Y31.655
X6.243 Y33.094
X6.488 Y33.398
X6.603 Y33.526
X6.632 Y33.556
X8.506 Y35.288
X8.64 Y35.397
X8.938 Y35.614
X9.038 Y35.685
X10.112 Y36.413
G3 X9.922 Y36.973 I-0.183 J0.25
G1 X9.853 Y36.972 Z-1.916
X9.787 Y36.97 Z-1.893
X9.729 Y36.969 Z-1.856
X9.679 Y36.968 Z-1.807
X9.643 Y36.967 Z-1.748
X9.62 Z-1.683
X9.612 Y36.966 Z-1.614
G0 Z5
X43.442 Y8.189
Z-1.304
G1 Z-1.614 F1000
X43.434 Y8.187 Z-1.683
X43.412 Y8.182 Z-1.748
X43.376 Y8.174 Z-1.807
X43.328 Y8.163 Z-1.856
X43.27 Y8.15 Z-1.893
X43.207 Y8.136 Z-1.916
X43.139 Y8.12 Z-1.924
G3 X42.44 Y7.762 I0.35 J-1.543
G1 X42.289 Y7.618
X42.223 Y7.558
X42.079 Y7.456
X41.79 Y7.253
X41.726 Y7.216
X41.599 Y7.136
X41.484 Y7.04
X41.366 Y6.922
X40.956 Y6.437
X40.54 Y5.958
X40.036 Y5.573
X39.47 Y5.286
X38.87 Y5.081
X38.251 Y4.94
X37.624 Y4.843
X36.993 Y4.778
X36.36 Y4.735
X35.726 Y4.707
X35.092 Y4.689
X34.555 Y4.679
X34.482 Y4.674
X34.409 Y4.661
X34.338 Y4.641
G3 X34.371 Y4.05 I0.109 J-0.29
G1 X34.438 Y4.034 Z-1.916
X34.501 Y4.017 Z-1.893
X34.558 Y4.003 Z-1.856
X34.606 Y3.991 Z-1.807
X34.642 Y3.982 Z-1.748
X34.664 Y3.976 Z-1.683
X34.671 Y3.974 Z-1.614
G0 Z5
X42.8 Y7.389
Z-1.304
G1 Z-1.614 F1000
X42.792 Z-1.683
X42.769 Y7.39 Z-1.748
X42.733 Z-1.807
X42.683 Y7.391 Z-1.856
X42.625 Y7.393 Z-1.893
X42.559 Y7.394 Z-1.916
X42.49 Y7.395 Z-1.924
G3 X41.726 Y7.216 I-0.033 J-1.582
G1 X41.673 Y7.186
X41.646 Y7.173
X41.502 Y7.107
X41.352 Y7.042
X41.214 Y6.99
X40.926 Y6.885
X40.782 Y6.834
X40.349 Y6.686
X39.197 Y6.301
X38.909 Y6.203
X37.9 Y5.851
X37.324 Y5.652
X36.027 Y5.21
X34.154 Y4.579
X33.721 Y4.44
X33.433 Y4.351
X32.713 Y4.129
X30.263 Y3.411
X30.185 Y3.389
G3 X29.982 Y3.009 I0.096 J-0.295
G1 X30.009 Y2.963 Z-1.919
X30.035 Y2.918 Z-1.904
X30.06 Y2.876 Z-1.881
X30.104 Y2.849 Z-1.843
X30.141 Y2.827 Z-1.795
X30.168 Y2.811 Z-1.739
X30.185 Y2.801 Z-1.678
X30.19 Y2.797 Z-1.614
G0 Z5
X21.504 Y21.936
Z1.576
S5000
G3 X22.15 Y19.063 Z1.415 I0.323 J-1.437 F333.3
X21.504 Y21.936 Z1.253 I-0.323 J1.437
X22.15 Y19.063 Z1.092 I0.323 J-1.437
X21.504 Y21.936 Z0.93 I-0.323 J1.437
X22.15 Y19.063 Z0.769 I0.323 J-1.437
X21.504 Y21.936 Z0.607 I-0.323 J1.437
X22.15 Y19.063 Z0.446 I0.323 J-1.437
X21.504 Y21.936 Z0.284 I-0.323 J1.437
X22.15 Y19.063 Z0.122 I0.323 J-1.437
X21.504 Y21.936 Z-0.039 I-0.323 J1.437
X22.15 Y19.063 Z-0.201 I0.323 J-1.437
X21.504 Y21.936 Z-0.362 I-0.323 J1.437
X22.15 Y19.063 Z-0.524 I0.323 J-1.437
X21.504 Y21.936 Z-0.685 I-0.323 J1.437
X22.15 Y19.063 Z-0.847 I0.323 J-1.437
X21.504 Y21.936 Z-1.008 I-0.323 J1.437
X22.15 Y19.063 Z-1.17 I0.323 J-1.437
X21.504 Y21.936 Z-1.331 I-0.323 J1.437
X22.15 Y19.063 Z-1.493 I0.323 J-1.437
X21.504 Y21.936 Z-1.655 I-0.323 J1.437
X22.15 Y19.063 Z-1.816 I0.323 J-1.437
X23.299 Y20.5 Z-1.885 I-0.323 J1.437
X20.354 Y20.5 I-1.472 J0
X23.299 Y20.5 I1.472 J0
S10000
G1 X23.332 Y21.133 F1000
X23.357 Y21.208
X23.388 Y21.355
Y21.505
X23.363 Y21.653
X23.317 Y21.796
X23.254 Y21.932
X23.175 Y22.06
X23.083 Y22.178
X22.98 Y22.287
X22.866 Y22.385
X22.744 Y22.472
X22.615 Y22.549
X22.48 Y22.614
X22.339 Y22.669
X22.19 Y22.713
X22.035 Y22.746
X21.874 Y22.767
X21.709 Y22.775
X21.542 Y22.769
X21.373 Y22.75
X21.204 Y22.717
X21.037 Y22.67
X20.872 Y22.609
X20.711 Y22.534
X20.555 Y22.446
X20.406 Y22.346
X20.265 Y22.232
X20.132 Y22.107
X20.009 Y21.972
X19.898 Y21.826
X19.797 Y21.671
X19.71 Y21.508
X19.635 Y21.338
X19.574 Y21.162
X19.527 Y20.981
X19.495 Y20.797
X19.478 Y20.611
X19.476 Y20.423
X19.489 Y20.236
X19.517 Y20.05
X19.559 Y19.867
X19.617 Y19.688
X19.688 Y19.513
X19.774 Y19.345
X19.873 Y19.184
X19.984 Y19.032
X20.107 Y18.889
X20.242 Y18.756
X20.386 Y18.635
X20.54 Y18.525
X20.703 Y18.428
X20.872 Y18.345
X21.048 Y18.275
X21.229 Y18.22
X21.414 Y18.179
X21.601 Y18.153
X21.79 Y18.143
X21.979 Y18.147
X22.168 Y18.167
X22.354 Y18.202
X22.536 Y18.251
X22.715 Y18.316
X22.887 Y18.394
X23.053 Y18.486
X23.21 Y18.59
X23.359 Y18.708
X23.498 Y18.836
X23.626 Y18.976
X23.743 Y19.125
X23.847 Y19.284
X23.959 Y19.489
X24.129 Y19.866
X24.245 Y20.192
X24.316 Y20.459
X24.36 Y20.703
X24.384 Y20.935
X24.388 Y21.155
X24.376 Y21.365
X24.347 Y21.567
X24.302 Y21.766
X24.242 Y21.96
X24.166 Y22.149
X24.075 Y22.332
X23.969 Y22.507
X23.849 Y22.674
X23.715 Y22.833
X23.566 Y22.982
X23.404 Y23.121
X23.229 Y23.247
X23.041 Y23.362
X22.842 Y23.462
X22.632 Y23.547
X22.414 Y23.616
X22.187 Y23.668
X21.954 Y23.702
X21.716 Y23.717
X21.475 Y23.713
X21.233 Y23.69
X20.991 Y23.647
X20.751 Y23.584
X20.516 Y23.501
X20.286 Y23.399
X20.064 Y23.278
X19.851 Y23.139
X19.648 Y22.982
X19.458 Y22.809
X19.281 Y22.62
X19.12 Y22.416
X18.975 Y22.2
X18.847 Y21.971
X18.737 Y21.733
X18.647 Y21.485
X18.577 Y21.231
X18.527 Y20.971
X18.499 Y20.708
X18.491 Y20.443
X18.505 Y20.177
X18.54 Y19.913
X18.597 Y19.653
X18.674 Y19.397
X18.771 Y19.149
X18.888 Y18.908
X19.024 Y18.678
X19.179 Y18.459
X19.35 Y18.254
X19.538 Y18.062
X19.74 Y17.887
X19.956 Y17.728
X20.184 Y17.586
X20.423 Y17.464
X20.67 Y17.361
X20.926 Y17.278
X21.187 Y17.216
X21.452 Y17.175
X21.72 Y17.156
X21.989 Y17.158
X22.256 Y17.182
X22.521 Y17.227
X22.781 Y17.293
X23.036 Y17.38
X23.282 Y17.487
X23.519 Y17.613
X23.745 Y17.758
X23.959 Y17.921
X24.166 Y18.106
X24.386 Y18.338
X24.594 Y18.595
X24.788 Y18.88
X24.961 Y19.182
X25.106 Y19.494
X25.224 Y19.808
X25.313 Y20.121
X25.375 Y20.432
X25.411 Y20.739
X25.422 Y21.044
X25.409 Y21.345
X25.372 Y21.641
X25.312 Y21.93
X25.229 Y22.212
X25.125 Y22.486
X24.999 Y22.75
X24.851 Y23.004
X24.684 Y23.245
X24.497 Y23.474
X24.29 Y23.688
X24.066 Y23.886
X23.825 Y24.067
X23.568 Y24.229
X23.296 Y24.371
X23.012 Y24.492
X22.715 Y24.591
X22.41 Y24.666
X22.097 Y24.717
X21.778 Y24.743
X21.456
X21.132 Y24.717
X20.81 Y24.665
X20.491 Y24.586
X20.177 Y24.482
X19.87 Y24.352
X19.574 Y24.197
X19.289 Y24.018
X19.018 Y23.815
X18.764 Y23.591
X18.527 Y23.345
X18.31 Y23.081
X18.114 Y22.799
X17.941 Y22.501
X17.792 Y22.189
X17.668 Y21.866
X17.57 Y21.533
X17.499 Y21.192
X17.455 Y20.846
X17.44 Y20.497
X17.452 Y20.148
X17.493 Y19.8
X17.561 Y19.456
X17.657 Y19.118
X17.78 Y18.789
X17.929 Y18.471
X18.103 Y18.165
X18.301 Y17.874
X18.522 Y17.6
X18.764 Y17.345
X19.026 Y17.109
X19.307 Y16.895
X19.604 Y16.705
X19.915 Y16.538
X20.238 Y16.398
X20.572 Y16.283
X20.914 Y16.196
X21.262 Y16.137
X21.614 Y16.105
X21.967 Y16.102
X22.32 Y16.127
X22.669 Y16.181
X23.013 Y16.262
X23.349 Y16.371
X23.675 Y16.506
X23.992 Y16.669
X24.304 Y16.862
X24.609 Y17.086
X24.905 Y17.343
X25.187 Y17.63
X25.449 Y17.944
X25.687 Y18.28
X25.897 Y18.635
X26.077 Y19.004
X26.226 Y19.382
X26.343 Y19.769
X26.427 Y20.159
X26.48 Y20.552
X26.501 Y20.944
X26.49 Y21.333
X26.448 Y21.718
X26.376 Y22.097
X26.275 Y22.467
X26.144 Y22.827
X25.985 Y23.174
X25.798 Y23.508
X25.585 Y23.827
X25.346 Y24.128
X25.083 Y24.41
X24.797 Y24.671
X24.489 Y24.91
X24.162 Y25.124
X23.816 Y25.312
X23.454 Y25.473
X23.078 Y25.606
X22.69 Y25.708
X22.293 Y25.779
X21.889 Y25.819
X21.48 Y25.826
X21.071 Y25.799
X20.662 Y25.74
X20.257 Y25.648
X19.859 Y25.523
X19.471 Y25.366
X19.095 Y25.177
X18.733 Y24.957
X18.389 Y24.708
X18.065 Y24.432
X17.763 Y24.129
X17.485 Y23.802
X17.234 Y23.453
X17.011 Y23.083
X16.818 Y22.696
X16.656 Y22.294
X16.526 Y21.879
X16.431 Y21.455
X16.369 Y21.023
X16.343 Y20.587
X16.351 Y20.15
X16.394 Y19.714
X16.473 Y19.283
X16.586 Y18.859
X16.733 Y18.445
X16.912 Y18.044
X17.123 Y17.658
X17.365 Y17.29
X17.636 Y16.943
X17.934 Y16.619
X18.257 Y16.319
X18.603 Y16.046
X18.97 Y15.801
X19.355 Y15.587
X19.757 Y15.405
X20.172 Y15.255
X20.598 Y15.139
X21.032 Y15.057
X21.471 Y15.011
X21.912 Y15
X22.353 Y15.024
X22.791 Y15.084
X23.222 Y15.178
X23.647 Y15.308
X24.064 Y15.473
X24.472 Y15.674
X24.868 Y15.909
X25.251 Y16.182
X25.617 Y16.489
X25.963 Y16.83
X26.284 Y17.202
X26.576 Y17.601
X26.835 Y18.022
X27.059 Y18.462
X27.247 Y18.918
X27.397 Y19.385
X27.508 Y19.86
X27.58 Y20.34
X27.614 Y20.822
X27.609 Y21.302
X27.565 Y21.778
X27.484 Y22.247
X27.365 Y22.707
X27.211 Y23.155
X27.021 Y23.588
X26.797 Y24.005
X26.54 Y24.404
X26.251 Y24.781
X25.932 Y25.134
X25.585 Y25.462
X25.211 Y25.762
X24.812 Y26.032
X24.391 Y26.27
X23.951 Y26.475
X23.493 Y26.644
X23.021 Y26.777
X22.537 Y26.872
X22.045 Y26.928
X21.548 Y26.945
X21.049 Y26.921
X20.551 Y26.857
X20.057 Y26.753
X19.572 Y26.609
X19.097 Y26.426
X18.637 Y26.205
X18.195 Y25.946
X17.773 Y25.652
X17.376 Y25.324
X17.004 Y24.964
X16.662 Y24.574
X16.352 Y24.157
X16.075 Y23.715
X15.834 Y23.251
X15.631 Y22.769
X15.467 Y22.271
X15.343 Y21.761
X15.26 Y21.241
X15.219 Y20.716
X15.22 Y20.188
X15.264 Y19.662
X15.35 Y19.141
X15.478 Y18.627
X15.647 Y18.125
X15.855 Y17.638
X16.102 Y17.169
X16.386 Y16.721
X16.706 Y16.297
X17.058 Y15.9
X17.441 Y15.533
X17.853 Y15.197
X18.291 Y14.895
X18.751 Y14.629
X19.231 Y14.401
X19.728 Y14.212
X20.239 Y14.064
X20.761 Y13.957
X21.289 Y13.893
X21.82 Y13.87
X22.352 Y13.891
X22.882 Y13.954
X23.406 Y14.061
X23.923 Y14.209
X24.431 Y14.4
X24.927 Y14.634
X25.408 Y14.91
X25.871 Y15.228
X26.313 Y15.586
X26.728 Y15.982
X27.112 Y16.413
X27.463 Y16.876
X27.776 Y17.366
X28.048 Y17.88
X28.278 Y18.414
X28.464 Y18.963
X28.606 Y19.524
X28.701 Y20.092
X28.75 Y20.664
X28.753 Y21.236
X28.71 Y21.805
X28.622 Y22.367
X28.49 Y22.919
X28.314 Y23.457
X28.095 Y23.98
X27.836 Y24.483
X27.536 Y24.964
X27.198 Y25.42
X26.825 Y25.848
X26.417 Y26.246
X25.977 Y26.611
X25.508 Y26.94
X25.012 Y27.232
X24.492 Y27.484
X23.952 Y27.694
X23.394 Y27.861
X22.823 Y27.983
X22.241 Y28.059
X21.653 Y28.088
X21.062 Y28.07
X20.472 Y28.005
X19.887 Y27.891
X19.311 Y27.731
X18.748 Y27.524
X18.201 Y27.272
X17.675 Y26.976
X17.173 Y26.637
X16.698 Y26.258
X16.254 Y25.842
X15.844 Y25.39
X15.471 Y24.905
X15.137 Y24.391
X14.844 Y23.85
X14.596 Y23.287
X14.393 Y22.705
X14.238 Y22.108
X14.131 Y21.499
X14.073 Y20.883
X14.064 Y20.263
X14.105 Y19.644
X14.196 Y19.03
X14.336 Y18.425
X14.525 Y17.832
X14.76 Y17.256
X15.041 Y16.7
X15.366 Y16.169
X15.733 Y15.665
X16.139 Y15.192
X16.582 Y14.753
X17.059 Y14.351
X17.567 Y13.988
X18.102 Y13.667
X18.662 Y13.39
X19.242 Y13.159
X19.839 Y12.975
X20.448 Y12.839
X21.067 Y12.753
X21.691 Y12.717
X22.317 Y12.731
X22.942 Y12.795
X23.561 Y12.91
X24.173 Y13.075
X24.77 Y13.289
X25.348 Y13.549
X25.904 Y13.855
X26.435 Y14.203
X26.936 Y14.591
X27.406 Y15.018
X27.842 Y15.479
X28.241 Y15.972
X28.602 Y16.494
X28.922 Y17.041
X29.2 Y17.612
X29.434 Y18.201
X29.624 Y18.807
X29.766 Y19.425
X29.862 Y20.052
X29.909 Y20.685
X29.908 Y21.319
X29.859 Y21.952
X29.761 Y22.579
X29.615 Y23.196
X29.422 Y23.801
X29.183 Y24.388
X28.9 Y24.956
X28.574 Y25.5
X28.206 Y26.017
X27.8 Y26.504
X27.357 Y26.959
X26.88 Y27.377
X26.372 Y27.758
X25.837 Y28.099
X25.278 Y28.398
X24.697 Y28.654
X24.099 Y28.865
X23.487 Y29.03
X22.863 Y29.15
X22.233 Y29.222
X21.599 Y29.248
X20.965 Y29.226
X20.334 Y29.158
X19.71 Y29.043
X19.097 Y28.883
X18.497 Y28.677
X17.914 Y28.426
X17.351 Y28.134
X16.811 Y27.801
X16.296 Y27.43
X15.81 Y27.022
X15.354 Y26.581
X14.931 Y26.108
X14.543 Y25.606
X14.191 Y25.078
X13.88 Y24.526
X13.61 Y23.951
X13.382 Y23.359
X13.198 Y22.752
X13.057 Y22.133
X12.961 Y21.506
X12.909 Y20.874
X12.901 Y20.24
X12.938 Y19.606
X13.021 Y18.977
X13.15 Y18.356
X13.324 Y17.746
X13.541 Y17.15
X13.799 Y16.57
X14.097 Y16.01
X14.434 Y15.472
X14.807 Y14.96
X15.216 Y14.474
X15.659 Y14.02
X16.133 Y13.599
X16.637 Y13.214
X17.167 Y12.865
X17.72 Y12.554
X18.293 Y12.282
X18.884 Y12.051
X19.49 Y11.862
X20.107 Y11.717
X20.734 Y11.617
X21.366 Y11.563
X22 Y11.554
X22.634 Y11.589
X23.263 Y11.668
X23.886 Y11.791
X24.498 Y11.956
X25.098 Y12.164
X25.681 Y12.414
X26.245 Y12.704
X26.788 Y13.033
X27.307 Y13.398
X27.8 Y13.797
X28.266 Y14.227
X28.702 Y14.688
X29.106 Y15.177
X29.476 Y15.693
X29.81 Y16.232
X30.107 Y16.793
X30.367 Y17.371
X30.588 Y17.966
X30.77 Y18.574
X30.911 Y19.192
X31.012 Y19.819
X31.069 Y20.451
X31.083 Y21.085
X31.054 Y21.719
X30.983 Y22.349
X30.87 Y22.973
X30.716 Y23.589
X30.522 Y24.193
X30.288 Y24.782
X30.013 Y25.354
X29.699 Y25.906
X29.349 Y26.435
X28.963 Y26.939
X28.545 Y27.416
X28.096 Y27.864
X27.618 Y28.281
X27.114 Y28.666
X26.584 Y29.015
X26.032 Y29.327
X25.46 Y29.601
X24.87 Y29.837
X24.267 Y30.033
X23.653 Y30.19
X23.029 Y30.307
X22.399 Y30.383
X21.766 Y30.417
X21.131 Y30.409
X20.499 Y30.359
X19.871 Y30.267
X19.25 Y30.136
X18.639 Y29.964
X18.041 Y29.754
X17.457 Y29.505
X16.891 Y29.219
X16.345 Y28.896
X15.821 Y28.538
X15.321 Y28.148
X14.847 Y27.726
X14.4 Y27.276
X13.982 Y26.798
X13.595 Y26.296
X13.241 Y25.77
X12.921 Y25.221
X12.639 Y24.653
X12.394 Y24.068
X12.186 Y23.468
X12.017 Y22.857
X11.886 Y22.236
X11.793 Y21.609
X11.739 Y20.977
X11.725 Y20.342
X11.752 Y19.708
X11.82 Y19.078
X11.929 Y18.453
X12.076 Y17.836
X12.262 Y17.229
X12.486 Y16.635
X12.745 Y16.056
X13.04 Y15.494
X13.369 Y14.952
X13.732 Y14.432
X14.128 Y13.936
X14.555 Y13.467
X15.01 Y13.025
X15.492 Y12.612
X15.999 Y12.231
X16.528 Y11.881
X17.078 Y11.564
X17.647 Y11.284
X18.233 Y11.04
X18.832 Y10.833
X19.444 Y10.664
X20.065 Y10.534
X20.693 Y10.444
X21.325 Y10.392
X21.96 Y10.38
X22.593 Y10.407
X23.224 Y10.474
X23.85 Y10.581
X24.467 Y10.727
X25.074 Y10.91
X25.669 Y11.13
X26.25 Y11.387
X26.813 Y11.678
X27.358 Y12.003
X27.883 Y12.36
X28.384 Y12.749
X28.86 Y13.168
X29.311 Y13.614
X29.735 Y14.087
X30.129 Y14.584
X30.494 Y15.103
X30.827 Y15.643
X31.128 Y16.201
X31.395 Y16.777
X31.627 Y17.367
X31.823 Y17.97
X31.984 Y18.584
X32.109 Y19.206
X32.196 Y19.835
X32.246 Y20.467
X32.258 Y21.101
X32.233 Y21.735
X32.17 Y22.367
X32.068 Y22.993
X31.929 Y23.612
X31.753 Y24.222
X31.542 Y24.82
X31.295 Y25.404
X31.013 Y25.973
X30.698 Y26.523
X30.351 Y27.054
X29.972 Y27.563
X29.562 Y28.048
X29.125 Y28.507
X28.66 Y28.939
X28.171 Y29.343
X27.658 Y29.717
X27.125 Y30.06
X26.571 Y30.37
X26.001 Y30.648
X25.415 Y30.891
X24.815 Y31.098
X24.204 Y31.27
X23.585 Y31.405
X22.958 Y31.505
X22.327 Y31.568
X21.693 Y31.593
X21.058 Y31.582
X20.426 Y31.535
X19.797 Y31.451
X19.174 Y31.329
X18.56 Y31.171
X17.956 Y30.978
X17.364 Y30.75
X16.786 Y30.488
X16.224 Y30.193
X15.68 Y29.867
X15.155 Y29.51
X14.652 Y29.124
X14.171 Y28.71
X13.716 Y28.268
X13.286 Y27.801
X12.883 Y27.311
X12.509 Y26.799
X12.165 Y26.266
X11.851 Y25.714
X11.57 Y25.146
X11.321 Y24.562
X11.106 Y23.965
X10.926 Y23.357
X10.781 Y22.739
X10.67 Y22.115
X10.595 Y21.485
X10.554 Y20.852
X10.55 Y20.217
X10.581 Y19.584
X10.648 Y18.953
X10.751 Y18.327
X10.889 Y17.707
X11.063 Y17.097
X11.271 Y16.498
X11.512 Y15.911
X11.786 Y15.339
X12.09 Y14.782
X12.425 Y14.243
X12.79 Y13.724
X13.184 Y13.227
X13.605 Y12.752
X14.053 Y12.303
X14.526 Y11.88
X15.021 Y11.484
X15.538 Y11.116
X16.075 Y10.778
X16.629 Y10.469
X17.2 Y10.193
X17.786 Y9.948
X18.384 Y9.737
X18.993 Y9.56
X19.612 Y9.418
X20.237 Y9.312
X20.868 Y9.241
X21.501 Y9.205
X22.135
X22.769 Y9.239
X23.4 Y9.309
X24.025 Y9.413
X24.644 Y9.552
X25.255 Y9.726
X25.854 Y9.934
X26.441 Y10.175
X27.014 Y10.448
X27.571 Y10.751
X28.11 Y11.085
X28.631 Y11.447
X29.132 Y11.837
X29.611 Y12.253
X30.067 Y12.694
X30.498 Y13.159
X30.902 Y13.648
X31.28 Y14.158
X31.631 Y14.687
X31.952 Y15.233
X32.245 Y15.796
X32.507 Y16.374
X32.738 Y16.965
X32.937 Y17.567
X33.105 Y18.179
X33.239 Y18.799
X33.338 Y19.426
X33.404 Y20.057
X33.436 Y20.691
X33.435 Y21.325
X33.4 Y21.958
X33.33 Y22.589
X33.228 Y23.215
X33.092 Y23.835
X32.923 Y24.446
X32.72 Y25.048
X32.485 Y25.637
X32.218 Y26.212
X31.921 Y26.773
X31.594 Y27.317
X31.239 Y27.842
X30.855 Y28.348
X30.445 Y28.832
X30.01 Y29.293
X29.551 Y29.731
X29.068 Y30.142
X28.563 Y30.527
X28.038 Y30.883
X27.495 Y31.212
X26.936 Y31.511
X26.817 Y31.566
X26.775 Y31.583
X26.229 Y31.776
X26.161 Y31.799
X25.687 Y31.943
X25.652 Y31.951
X24.211 Y32.248
X23.779 Y32.308
X23.635 Y32.324
X23.203 Y32.363
X22.626 Y32.401
X22.338 Y32.42
X22.194 Y32.427
X21.762 Y32.442
X21.33 Y32.42
X21.041 Y32.402
X20.321 Y32.353
X20.177 Y32.338
X19.889 Y32.305
X19.745 Y32.286
X19.312 Y32.217
X18.448 Y32.039
X18.304 Y32.008
X17.871 Y31.907
X17.727 Y31.863
X17.439 Y31.772
X17.295 Y31.724
X16.43 Y31.416
X16.286 Y31.36
X16.142 Y31.302
X15.567 Y31.035
X15.283 Y30.893
X14.745 Y30.595
X14.216 Y30.243
X13.714 Y29.856
X13.236 Y29.439
X12.783 Y28.995
X12.354 Y28.527
X11.951 Y28.037
X11.574 Y27.527
X11.224 Y26.998
X10.902 Y26.451
X10.61 Y25.888
X10.347 Y25.31
X10.115 Y24.72
X9.914 Y24.118
X9.743 Y23.507
X9.603 Y22.888
X9.495 Y22.263
X9.418 Y21.633
X9.373 Y21.001
X9.361 Y20.366
X9.382 Y19.732
X9.436 Y19.1
X9.522 Y18.471
X9.641 Y17.848
X9.791 Y17.232
X9.973 Y16.624
X10.184 Y16.026
X10.426 Y15.439
X10.696 Y14.865
X10.995 Y14.306
X11.323 Y13.762
X11.678 Y13.237
X12.06 Y12.73
X12.467 Y12.244
X12.899 Y11.779
X13.354 Y11.337
X13.762 Y10.978
X13.799 Y10.95
X13.837 Y10.923
X13.981 Y10.83
X14.413 Y10.558
X15.566 Y9.949
X15.621 Y9.921
X15.854 Y9.816
X15.998 Y9.756
X16.303 Y9.633
X16.43 Y9.584
X17.295 Y9.276
X17.439 Y9.228
X17.727 Y9.136
X17.871 Y9.093
X18.304 Y8.992
X18.592 Y8.931
X19.312 Y8.783
X19.745 Y8.714
X19.889 Y8.695
X20.177 Y8.662
X20.321 Y8.646
X21.185 Y8.588
X21.33 Y8.579
X21.762 Y8.557
X22.194 Y8.572
X22.338 Y8.58
X22.77 Y8.607
X23.203 Y8.636
X23.635 Y8.675
X23.779 Y8.691
X24.211 Y8.752
X25.652 Y9.049
X25.687 Y9.057
X26.161 Y9.201
X26.373 Y9.275
X26.805 Y9.428
X27.093 Y9.53
X27.237 Y9.584
X27.525 Y9.692
X27.67 Y9.749
X28.054 Y9.921
X28.102 Y9.945
X28.822 Y10.324
X29.368 Y10.648
X29.893 Y11.004
X30.388 Y11.401
X30.855 Y11.83
X31.296 Y12.286
X31.711 Y12.766
X32.1 Y13.268
X32.463 Y13.788
X32.799 Y14.326
X33.109 Y14.879
X33.392 Y15.447
X33.648 Y16.028
X33.875 Y16.62
X34.073 Y17.223
X34.243 Y17.834
X34.382 Y18.453
X34.49 Y19.078
X34.567 Y19.708
X34.612 Y20.341
X34.627 Y20.975
X34.611 Y21.61
X34.565 Y22.242
X34.488 Y22.872
X34.381 Y23.497
X34.244 Y24.117
X34.077 Y24.729
X33.88 Y25.332
X33.653 Y25.924
X33.397 Y26.505
X33.345 Y26.608
X33.327 Y26.641
X33.308 Y26.673
X33.287 Y26.704
X33.001 Y27.105
X32.936 Y27.193
X32.608 Y27.625
X32.569 Y27.672
X32.48 Y27.769
X32.136 Y28.137
X31.56 Y28.715
X31.196 Y29.064
X31.128 Y29.127
X30.984 Y29.236
X30.551 Y29.556
X29.831 Y30.084
X29.627 Y30.215
X29.543 Y30.266
X29.11 Y30.52
X28.102 Y31.053
X28.051 Y31.079
X27.67 Y31.25
X27.525 Y31.307
X27.237 Y31.416
X27.093 Y31.469
X26.775 Y31.583
X26.727 Y31.593
X26.679
X26.631 Y31.584
X26.586 Y31.566
G2 X22.686 Y30.347 I-5.408 J10.447
G1 X22.655 Y30.344
X20.319 Y30.282
X20.288 Y30.283
G2 X16.329 Y31.295 I0.89 J11.73
G1 X16.284 Y31.31
X16.236 Y31.317
X16.189 Y31.314
X16.142 Y31.302
X15.947 Y31.223
X15.854 Y31.184
X15.62 Y31.079
X15.566 Y31.052
X14.413 Y30.444
X13.981 Y30.172
X13.837 Y30.08
X13.405 Y29.768
X12.972 Y29.451
X12.828 Y29.34
X12.54 Y29.118
X12.478 Y29.064
X12.396 Y28.989
X12.029 Y28.632
X11.458 Y28.056
X11.099 Y27.659
X11.069 Y27.625
X10.955 Y27.49
X10.737 Y27.193
X10.531 Y26.905
X10.379 Y26.692
X10.027 Y26.185
X9.943 Y26.041
X9.702 Y25.61
X9.514 Y25.269
X9.466 Y25.178
X9.286 Y24.746
X9.082 Y24.245
X9.052 Y24.17
X8.999 Y24.026
X8.911 Y23.738
X8.785 Y23.307
X8.746 Y23.163
X8.645 Y22.731
X8.594 Y22.443
X8.494 Y21.867
X8.471 Y21.723
X8.439 Y21.292
X8.413 Y20.86
X8.406 Y20.716
X8.405 Y20.284
X8.411 Y20.14
X8.427 Y19.852
X8.436 Y19.708
X8.467 Y19.277
X8.506 Y19.049
X8.617 Y18.413
X8.643 Y18.269
X8.744 Y17.837
X8.783 Y17.693
X8.911 Y17.262
X9 Y16.974
X9.053 Y16.83
X9.082 Y16.758
X9.235 Y16.398
X9.298 Y16.254
X9.715 Y15.39
X9.802 Y15.222
X9.946 Y14.955
X10.027 Y14.815
X10.379 Y14.308
X10.667 Y13.903
X10.842 Y13.663
X10.955 Y13.508
X11.067 Y13.375
X11.099 Y13.339
X11.457 Y12.944
X11.964 Y12.434
X12.03 Y12.368
X12.396 Y12.014
X12.48 Y11.936
X12.54 Y11.884
X12.847 Y11.648
X12.972 Y11.552
X13.43 Y11.216
X13.799 Y10.95
X13.842 Y10.927
X13.888 Y10.913
X13.937 Y10.908
X13.985 Y10.913
G2 X16.688 Y11.326 I6.077 J-30.743
G1 X16.734 Y11.327
X25.941 Y10.948
X25.987 Y10.943
G2 X28.646 Y10.309 I-5.925 J-30.773
G1 X28.706 Y10.3
X28.765 Y10.305
X28.822 Y10.324
X29.11 Y10.476
X29.543 Y10.73
X29.633 Y10.785
X29.831 Y10.911
X30.639 Y11.504
X31.026 Y11.792
X31.128 Y11.87
X31.201 Y11.936
X31.56 Y12.283
X32.136 Y12.862
X32.481 Y13.231
X32.569 Y13.328
X32.608 Y13.375
X32.936 Y13.807
X33.001 Y13.895
X33.452 Y14.527
X33.577 Y14.704
X33.653 Y14.815
X33.733 Y14.959
X33.887 Y15.246
X33.96 Y15.39
X34.377 Y16.254
X34.443 Y16.398
X34.507 Y16.542
X34.586 Y16.73
X34.625 Y16.83
X34.761 Y17.262
X34.846 Y17.549
X34.929 Y17.837
X35.008 Y18.125
X35.018 Y18.166
X35.038 Y18.269
X35.113 Y18.701
X35.137 Y18.845
X35.182 Y19.133
X35.204 Y19.277
X35.238 Y19.708
X35.247 Y19.852
X35.263 Y20.14
X35.27 Y20.284
Y20.716
X35.263 Y20.86
X35.247 Y21.148
X35.238 Y21.292
X35.204 Y21.723
X35.159 Y22.011
X35.137 Y22.155
X35.113 Y22.299
X35.038 Y22.731
X35.018 Y22.834
X35.008 Y22.875
X34.929 Y23.163
X34.846 Y23.451
X34.761 Y23.738
X34.624 Y24.17
X34.586 Y24.269
X34.506 Y24.458
X34.442 Y24.603
X34.377 Y24.746
X33.96 Y25.61
X33.886 Y25.754
X33.721 Y26.063
X33.653 Y26.185
X33.553 Y26.329
X33.287 Y26.704
G3 X32.862 Y26.768 I-0.246 J-0.189
G1 X32.827 Y26.727 Z-1.881
X32.793 Y26.687 Z-1.866
X32.762 Y26.65 Z-1.843
X32.752 Y26.605 Z-1.81
X32.743 Y26.567 Z-1.77
X32.736 Y26.537 Z-1.723
X32.731 Y26.516 Z-1.672
Y26.515 Z-1.669
Y26.504 Z-1.623
Y26.5 Z-1.575
G0 Z5
X24.339 Y31.649
Z-1.165
G1 Z-1.475 F1000
X24.332 Y31.654 Z-1.544
X24.313 Y31.667 Z-1.61
X24.283 Y31.688 Z-1.669
X24.243 Y31.715 Z-1.718
X24.194 Y31.749 Z-1.755
X24.14 Y31.786 Z-1.778
X24.083 Y31.825 Z-1.785
G3 X22.482 Y32.411 I-1.945 J-2.832
G1 X22.338 Y32.421
X22.194 Y32.428
X21.762 Y32.444
X21.618 Y32.437
X21.562 Y32.425
X21.511 Y32.4
X21.466 Y32.365
X21.432 Y32.319
G2 X19.857 Y30.496 I-5.959 J3.554
G1 X19.812 Y30.466
X19.764 Y30.444
X15.528 Y28.953
X15.476 Y28.94
X15.423 Y28.935
G2 X13.053 Y29.371 I0.05 J6.938
G1 X12.996 Y29.385
X12.937 Y29.384
X12.88 Y29.369
X12.828 Y29.342
X12.54 Y29.121
X12.473 Y29.064
X12.396 Y28.992
X12.252 Y28.851
G3 X12.252 Y28.408 I0.217 J-0.221
G1 X12.461 Y28.204
X12.526 Y28.14
G3 X12.959 Y28.583 I0.217 J0.222
X12.652 Y28.658 I-0.217 J-0.222
X11.197 Y27.769 I1.009 J-3.284
G1 X11.099 Y27.66
X11.068 Y27.625
X10.955 Y27.492
X10.947 Y27.481
G3 X11.171 Y26.989 I0.25 J-0.183
G1 X11.3 Y26.978
X11.657 Y26.947
G3 X11.711 Y27.565 I0.027 J0.309
X11.556 Y27.538 I-0.027 J-0.309
X10.225 Y26.473 I1.413 J-3.131
G1 X10.024 Y26.185
X9.941 Y26.041
X9.861 Y25.897
G3 X10.073 Y25.443 I0.271 J-0.15
G1 X10.271 Y25.405
X10.423 Y25.375
G3 X10.54 Y25.984 I0.059 J0.304
X10.296 Y25.928 I-0.059 J-0.304
X9.226 Y24.601 I2.056 J-2.752
G1 X9.082 Y24.253
X9.049 Y24.17
X8.996 Y24.026
X8.953 Y23.882
G3 X9.461 Y23.566 I0.297 J-0.088
G1 X9.99 Y24.056
G3 X10.002 Y24.5 I-0.21 J0.228
X9.557 Y24.499 I-0.222 J-0.217
X8.712 Y23.019 I2.467 J-2.391
G1 X8.643 Y22.731
X8.593 Y22.443
X8.493 Y21.867
X8.469 Y21.723
X8.459 Y21.579
G3 X9.078 Y21.536 I0.309 J-0.022
X8.459 Y21.579 I-0.309 J0.022
X8.496 Y21.41 I0.309 J-0.022
G1 X8.827 Y20.798
G3 X9.373 Y21.093 I0.273 J0.148
X8.823 Y21.085 I-0.273 J-0.148
X8.456 Y19.421 I3.066 J-1.55
G1 X8.466 Y19.277
X8.506 Y19.041
X8.615 Y18.413
X8.641 Y18.269
X8.744 Y17.837
X8.783 Y17.693
X8.91 Y17.262
X8.997 Y16.974
X9.05 Y16.83
X9.082 Y16.751
X9.172 Y16.542
G3 X9.632 Y16.408 I0.285 J0.122
G1 X9.829 Y16.543
X9.941 Y16.619
G3 X9.591 Y17.131 I-0.175 J0.256
X9.456 Y16.89 I0.175 J-0.256
X9.802 Y15.22 I3.432 J-0.159
G1 X9.946 Y14.95
X10.024 Y14.815
X10.225 Y14.527
G3 X10.785 Y14.654 I0.254 J0.178
G1 X10.793 Y14.705
X10.882 Y15.247
G3 X10.587 Y15.607 I-0.306 J0.05
X10.267 Y15.269 I-0.011 J-0.31
X10.841 Y13.663 I3.421 J0.317
G1 X10.955 Y13.506
X11.066 Y13.375
X11.099 Y13.338
G3 X11.525 Y13.3 I0.232 J0.205
G1 X11.77 Y13.496
X11.836 Y13.548
G3 X11.45 Y14.033 I-0.193 J0.242
X11.344 Y13.711 I0.193 J-0.242
X12.177 Y12.224 I3.32 J0.884
G1 X12.396 Y12.01
X12.476 Y11.936
X12.54 Y11.881
X12.684 Y11.771
X12.734 Y11.744
X12.789 Y11.729
X12.846 Y11.727
X12.902 Y11.739
G2 X15.35 Y12.115 I2.29 J-6.754
G1 X15.401 Y12.11
X15.449 Y12.097
X19.567 Y10.598
X19.613 Y10.577
X19.655 Y10.548
G2 X21.288 Y8.686 I-4.463 J-5.563
G1 X21.323 Y8.642
X21.367 Y8.606
X21.418 Y8.582
X21.474 Y8.571
X21.762 Y8.555
X22.194 Y8.571
X22.338 Y8.579
X22.482 Y8.588
X22.532 Y8.598
X22.578 Y8.619
X22.619 Y8.648
G2 X27.913 Y12.974 I52.184 J-58.459
G1 X27.915 Y12.976
X29.061 Y13.815
X29.063 Y13.817
G2 X34.783 Y17.561 I45.74 J-63.628
G1 X34.828 Y17.596
X34.864 Y17.641
X34.889 Y17.693
X34.93 Y17.837
X35.011 Y18.125
X35.018 Y18.156
X35.038 Y18.269
X35.137 Y18.845
X35.185 Y19.133
X35.207 Y19.277
X35.228 Y19.564
G3 X35.068 Y19.858 I-0.309 J0.022
G1 X34.734 Y20.042
G3 X34.435 Y19.499 I-0.15 J-0.271
X34.86 Y19.629 I0.15 J0.271
X35.238 Y21.292 I-3.057 J1.568
G1 X35.207 Y21.723
X35.162 Y22.003
G3 X34.8 Y22.257 I-0.306 J-0.05
X34.553 Y21.89 I0.057 J-0.305
G1 X34.569 Y21.846
X34.596 Y21.809
X34.633 Y21.781
X34.677 Y21.764
X34.723 Y21.761
X34.768 Y21.771
G3 X34.949 Y21.951 I-0.109 J0.29
X35.038 Y22.731 I-1.479 J0.564
G1 X35.018 Y22.844
X35.011 Y22.875
X34.971 Y23.019
G3 X34.592 Y23.224 I-0.295 J-0.094
G1 X34.546 Y23.197 Z-1.781
X34.501 Y23.171 Z-1.766
X34.458 Y23.147 Z-1.743
X34.431 Y23.103 Z-1.705
X34.409 Y23.066 Z-1.657
X34.393 Y23.039 Z-1.601
X34.382 Y23.022 Z-1.54
X34.379 Y23.017 Z-1.476
G0 Z5
X16.221 Y30.82
Z-1.065
G1 Z-1.375 F1000
X16.213 Z-1.444
X16.19 Z-1.51
X16.154 Y30.819 Z-1.569
X16.104 Y30.818 Z-1.618
X16.046 Y30.816 Z-1.655
X15.98 Y30.815 Z-1.678
X15.911 Y30.814 Z-1.685
G3 X14.269 Y30.355 I0.075 J-3.435
G1 X13.981 Y30.175
X13.837 Y30.083
X13.693 Y29.978
G3 X13.827 Y29.421 I0.182 J-0.251
G1 X13.881 Y29.412
X14.41 Y29.33
G3 X14.767 Y29.629 I0.048 J0.306
X14.424 Y29.944 I-0.31 J0.007
X12.828 Y29.343 I0.377 J-3.415
G1 X12.54 Y29.125
X12.468 Y29.064
X12.396 Y28.996
X12.174 Y28.776
G3 X12.241 Y28.285 I0.218 J-0.22
G1 X12.426 Y28.182
X12.591 Y28.089
G3 X12.894 Y28.63 I0.151 J0.27
X12.652 Y28.656 I-0.151 J-0.27
X11.196 Y27.769 I1.005 J-3.285
G1 X11.099 Y27.661
X11.067 Y27.625
X10.955 Y27.493
X10.946 Y27.481
G3 X11.167 Y26.99 I0.251 J-0.182
G1 X11.3 Y26.977
X11.656 Y26.942
G3 X11.716 Y27.56 I0.03 J0.309
X11.559 Y27.534 I-0.03 J-0.309
X10.224 Y26.473 I1.403 J-3.136
G1 X10.021 Y26.185
X9.94 Y26.041
X9.802 Y25.793
G3 X9.871 Y25.409 I0.271 J-0.15
G1 X10.145 Y25.171
X10.161 Y25.157
G3 X10.567 Y25.626 I0.203 J0.234
X10.179 Y25.64 I-0.203 J-0.234
X9.107 Y24.314 I2.052 J-2.756
G1 X9.048 Y24.17
X8.994 Y24.026
X8.938 Y23.833
G3 X9.423 Y23.5 I0.298 J-0.086
G1 X9.431 Y23.506
X9.936 Y23.89
G3 X9.98 Y24.342 I-0.188 J0.247
X9.526 Y24.353 I-0.232 J-0.205
X8.677 Y22.875 I2.461 J-2.397
G1 X8.642 Y22.731
X8.591 Y22.443
X8.492 Y21.867
X8.468 Y21.723
X8.458 Y21.579
G3 X9.077 Y21.537 I0.309 J-0.021
X8.458 Y21.579 I-0.309 J0.021
X8.496 Y21.41 I0.309 J-0.021
G1 X8.832 Y20.795
G3 X9.376 Y21.092 I0.272 J0.149
X8.827 Y21.084 I-0.272 J-0.149
X8.455 Y19.421 I3.062 J-1.559
G1 X8.464 Y19.277
X8.506 Y19.033
X8.613 Y18.413
X8.639 Y18.269
X8.65 Y18.225
