(1001)
(WC deskel)
(T1  D=3.1 CR=0 - ZMIN=-3 - flat end mill)
G90 G94
G17
G21

(Adaptive5)
S10000 M3
G54
G0 Z10
G0 X-0.309 Y-3.631
G1 Z-0.624 F1000
X-0.307 Y-3.624 Z-0.693
X-0.301 Y-3.601 Z-0.759
X-0.292 Y-3.566 Z-0.817
X-0.28 Y-3.518 Z-0.866
X-0.265 Y-3.461 Z-0.903
X-0.249 Y-3.398 Z-0.926
X-0.232 Y-3.331 Z-0.934
G3 X0.011 Y-1.643 I-7.667 J1.964
G1 Y-1.493
X-0.116 Y-0.872
X-0.192 Y-0.242
X-0.236 Y0.391
X-0.262 Y1.025
X-0.277 Y1.659
X-0.286 Y2.294
X-0.291 Y2.928
X-0.294 Y3.563
X-0.297 Y4.831
X-0.298 Y8.638
X-0.292 Y39.408
X-0.271 Y39.565
X-0.16 Y39.862
X0.035 Y40.113
X0.515 Y40.527
X1.093 Y40.789
X1.707 Y40.948
X2.334 Y41.044
X2.966 Y41.1
X3.6 Y41.134
X4.234 Y41.153
X4.868 Y41.164
X5.503 Y41.171
X6.137 Y41.175
X7.406 Y41.178
X8.04 Y41.179
X13.116 Y41.18
X43.569 Y41.179
X43.723 Y41.143
X44.011 Y41.011
X44.254 Y40.807
X44.656 Y40.316
X44.907 Y39.733
X45.061 Y39.118
X45.152 Y38.49
X45.206 Y37.858
X45.238 Y37.224
X45.256 Y36.59
X45.267 Y35.956
X45.272 Y35.321
X45.276 Y34.687
X45.278 Y33.418
Y30.88
X45.275 Y27.074
X45.254 Y1.379
X45.168 Y1.074
X44.987 Y0.813
X44.524 Y0.38
X43.952 Y0.105
X43.34 Y-0.063
X42.714 Y-0.163
X42.082 Y-0.223
X41.449 Y-0.258
X40.815 Y-0.278
X40.18 Y-0.29
X39.546 Y-0.297
X38.912 Y-0.301
X37.643 Y-0.304
X35.105 Y-0.305
X21.147 Y-0.301
X2.749 Y-0.295
X2.438 Y-0.231
X2.166 Y-0.068
X1.708 Y0.371
X1.411 Y0.931
X1.225 Y1.538
X1.111 Y2.162
X1.043 Y2.793
X1.002 Y3.426
X0.977 Y4.06
X0.963 Y4.694
X0.954 Y5.329
X0.949 Y5.963
X0.946 Y6.597
X0.944 Y7.866
X0.943 Y11.039
X0.946 Y30.706
X0.947 Y37.685
X0.963 Y38.001
X1.061 Y38.303
X1.225 Y38.575
X1.649 Y39.046
X2.195 Y39.371
X2.792 Y39.583
X3.412 Y39.719
X4.041 Y39.804
X4.673 Y39.857
X5.307 Y39.889
X5.941 Y39.909
X6.575 Y39.921
X7.21 Y39.929
X7.844 Y39.933
X8.478 Y39.936
X9.747 Y39.939
X13.554 Y39.94
X42.103 Y39.939
X42.405 Y39.841
X42.676 Y39.676
X43.147 Y39.251
X43.471 Y38.705
X43.684 Y38.108
X43.82 Y37.488
X43.905 Y36.859
X43.958 Y36.227
X43.99 Y35.594
X44.01 Y34.959
X44.022 Y34.325
X44.029 Y33.691
X44.033 Y33.056
X44.035 Y32.422
X44.037 Y31.153
X44.035 Y27.346
X44.016 Y3.238
X44.013 Y2.921
X43.929 Y2.615
X43.775 Y2.338
X43.364 Y1.854
X42.824 Y1.521
X42.229 Y1.302
X41.61 Y1.162
X40.981 Y1.074
X40.349 Y1.02
X39.716 Y0.986
X39.082 Y0.966
X38.447 Y0.953
X37.813 Y0.946
X37.179 Y0.941
X36.544 Y0.939
X35.275 Y0.936
X32.103
X30.834
X4.188 Y0.944
X3.883 Y1.03
X3.606 Y1.185
X3.121 Y1.594
X2.785 Y2.132
X2.563 Y2.727
X2.42 Y3.345
X2.329 Y3.973
X2.273 Y4.605
X2.238 Y5.238
X2.216 Y5.872
X2.203 Y6.506
X2.195 Y7.141
X2.19 Y7.775
X2.187 Y8.41
X2.184 Y9.679
X2.183 Y12.851
X2.185 Y23.636
X2.187 Y36.325
X2.214 Y36.641
X2.308 Y36.944
X2.464 Y37.22
X2.87 Y37.708
X3.403 Y38.052
X3.994 Y38.283
X4.61 Y38.435
X5.236 Y38.533
X5.868 Y38.595
X6.501 Y38.635
X7.135 Y38.659
X7.769 Y38.675
X8.404 Y38.685
X9.038 Y38.69
X9.672 Y38.694
X10.941 Y38.698
X13.479 Y38.7
X38.856 Y38.699
X40.76
X41.061 Y38.599
X41.335 Y38.439
X41.818 Y38.029
X42.159 Y37.494
X42.388 Y36.902
X42.539 Y36.286
X42.635 Y35.659
X42.697 Y35.027
X42.735 Y34.394
X42.759 Y33.76
X42.774 Y33.126
X42.783 Y32.491
X42.789 Y31.857
X42.792 Y31.223
X42.795 Y29.954
Y29.552
X42.797 Y29.521
X42.806 Y29.37
X42.814 Y29.226
X42.827 Y28.794
X42.851 Y26.922
X42.852 Y26.346
X42.844 Y23.61
X42.828 Y20.442
X42.819 Y17.419
X42.814 Y14.683
X42.81 Y13.099
X42.805 Y12.667
X42.803 Y12.523
X42.822 Y11.889
X42.805 Y11.254
X42.795 Y10.62
X42.789 Y9.986
X42.785 Y9.351
X42.781 Y8.082
X42.777 Y4.91
Y4.276
X42.692 Y3.97
X42.543 Y3.69
X42.149 Y3.193
X41.621 Y2.841
X41.033 Y2.603
X40.418 Y2.447
X39.792 Y2.346
X39.161 Y2.282
X38.527 Y2.241
X37.893 Y2.216
X37.259 Y2.2
X36.625 Y2.19
X35.99 Y2.184
X35.356 Y2.181
X34.087 Y2.177
X31.549 Y2.176
X5.538 Y2.184
X5.232 Y2.269
X4.951 Y2.417
X4.453 Y2.81
X4.099 Y3.336
X3.859 Y3.923
X3.701 Y4.537
X3.599 Y5.164
X3.533 Y5.795
X3.492 Y6.428
X3.466 Y7.062
X3.449 Y7.696
X3.439 Y8.33
X3.433 Y8.965
X3.429 Y9.599
X3.425 Y10.868
X3.423 Y13.406
Y13.846
X3.418 Y13.936
X3.401 Y14.025
X3.373 Y14.11
X3.181 Y14.601
X3.037 Y14.976
X2.994 Y15.115
X2.893 Y15.532
X2.46 Y17.427
X2.43 Y17.563
X2.402 Y17.707
X2.383 Y17.851
X2.211 Y20.154
X2.206 Y20.298
Y20.586
X2.211 Y20.73
X2.383 Y23.034
X2.402 Y23.178
X2.43 Y23.322
X2.626 Y24.186
X2.893 Y25.353
X2.994 Y25.77
X3.037 Y25.909
X3.104 Y26.126
X3.219 Y26.647
X3.307 Y27.276
X3.357 Y27.908
X3.386 Y28.542
X3.403 Y29.176
X3.412 Y29.81
X3.418 Y30.445
X3.422 Y31.079
X3.425 Y32.348
X3.427 Y34.886
X3.438 Y35.203
X3.503 Y35.513
X3.631 Y35.803
X3.993 Y36.325
X4.5 Y36.706
X5.078 Y36.968
X5.688 Y37.143
X6.312 Y37.257
X6.942 Y37.331
X7.575 Y37.378
X8.208 Y37.408
X8.842 Y37.428
X9.477 Y37.44
X10.111 Y37.447
X10.746 Y37.452
X11.38 Y37.455
X12.649 Y37.458
X13.76 Y37.459
X13.836 Y37.463
X13.912 Y37.475
X13.985 Y37.495
X14.136 Y37.545
X14.28 Y37.59
X16.107 Y38.154
X16.443 Y38.236
X16.587 Y38.269
X18.893 Y38.617
X19.037 Y38.628
X19.326 Y38.642
X19.47 Y38.645
X21.632 Y38.646
X21.776
X22.209 Y38.637
X22.353 Y38.628
X22.785 Y38.598
X23.073 Y38.581
X23.218 Y38.57
X23.506 Y38.534
X27.11 Y38.053
X27.404 Y38.01
X27.542 Y37.985
X28.551 Y37.767
X29.177 Y37.663
X29.806 Y37.577
X30.438 Y37.528
X31.072 Y37.499
X31.706 Y37.482
X32.34 Y37.473
X32.975 Y37.467
X33.609 Y37.464
X34.878 Y37.461
X38.05 Y37.459
X39.319
X39.629 Y37.393
X39.919 Y37.263
X40.437 Y36.897
X40.815 Y36.387
X41.074 Y35.808
X41.247 Y35.198
X41.36 Y34.573
X41.432 Y33.943
X41.474 Y33.38
X41.518 Y33.178
X41.617 Y32.997
X41.764 Y32.852
X41.798 Y32.826
X41.959 Y32.682
X42.101 Y32.524
X42.156 Y32.459
X42.167 Y32.443
X42.41 Y32.023
X42.533 Y31.668
X42.578 Y31.53
X42.61 Y31.386
X42.638 Y31.242
X42.664 Y31.098
X42.703 Y30.81
X42.721 Y30.666
X42.797 Y29.521
G3 X43.376 Y29.401 I0.308 J0.031
G1 X43.409 Y29.461 Z-0.926
X43.441 Y29.519 Z-0.903
X43.47 Y29.57 Z-0.866
X43.494 Y29.613 Z-0.817
X43.512 Y29.645 Z-0.759
X43.523 Y29.665 Z-0.693
X43.527 Y29.672 Z-0.624
G0 Z5
X27.635 Y38.354
Z-0.314
G1 Z-0.624 F1000
X27.64 Y38.348 Z-0.693
X27.657 Y38.333 Z-0.759
X27.684 Y38.308 Z-0.817
X27.72 Y38.274 Z-0.866
X27.763 Y38.234 Z-0.903
X27.811 Y38.19 Z-0.926
X27.861 Y38.142 Z-0.934
G3 X28.551 Y37.767 I1.079 J1.158
G1 X31.29 Y37.173
X31.434 Y37.132
X31.883 Y37.002
X33.164 Y36.626
X33.632 Y36.498
X34.253 Y36.381
X34.883 Y36.313
X35.517 Y36.274
X36.151 Y36.251
X36.785 Y36.238
X37.419 Y36.23
X38.054 Y36.226
X38.363 Y36.158
X38.653 Y36.027
X39.173 Y35.664
X39.553 Y35.156
X39.816 Y34.579
X39.97 Y34.074
X40.054 Y33.893
X40.184 Y33.742
X40.35 Y33.632
G3 X40.738 Y34.079 I0.124 J0.284
G1 X40.701 Y34.138 Z-0.926
X40.667 Y34.194 Z-0.903
X40.636 Y34.244 Z-0.866
X40.61 Y34.286 Z-0.817
X40.591 Y34.317 Z-0.759
X40.579 Y34.337 Z-0.693
X40.575 Y34.343 Z-0.624
G0 Z5
X32.313 Y37.306
Z-0.314
G1 Z-0.624 F1000
X32.319 Y37.3 Z-0.693
X32.334 Y37.283 Z-0.759
X32.358 Y37.255 Z-0.817
X32.39 Y37.218 Z-0.866
X32.429 Y37.174 Z-0.903
X32.472 Y37.124 Z-0.926
X32.517 Y37.072 Z-0.934
G3 X33.164 Y36.626 I1.193 J1.04
G1 X33.335 Y36.57
X33.756 Y36.426
X35.038 Y35.977
X35.182 Y35.922
X35.614 Y35.742
X36.032 Y35.562
X36.492 Y35.39
X37.103 Y35.217
X37.658 Y34.909
X37.723 Y34.855
X37.793 Y34.808
X37.869 Y34.77
G3 X38.105 Y35.343 I0.113 J0.289
G1 X36.288 Y36.127
G3 X36.032 Y35.562 I-0.123 J-0.285
G1 X38.497 Y34.498
X38.93 Y34.308
X40.371 Y33.622
X40.948 Y33.344
X41.116 Y33.258
X41.236 Y33.195
X41.38 Y33.109
X41.669 Y32.922
X41.764 Y32.852
G3 X42.23 Y33.216 I0.176 J0.255
G1 X42.206 Y33.28 Z-0.926
X42.183 Y33.342 Z-0.903
X42.162 Y33.397 Z-0.866
X42.145 Y33.443 Z-0.817
X42.132 Y33.477 Z-0.759
X42.124 Y33.499 Z-0.693
X42.121 Y33.506 Z-0.624
G0 Z5
X43.202 Y13.535
Z-0.314
G1 Z-0.624 F1000
X43.198 Y13.529 Z-0.693
X43.185 Y13.509 Z-0.759
X43.166 Y13.478 Z-0.817
X43.14 Y13.436 Z-0.866
X43.109 Y13.386 Z-0.903
X43.075 Y13.331 Z-0.926
X43.038 Y13.272 Z-0.934
G3 X42.803 Y12.523 I1.345 J-0.834
G1 X42.778 Y11.227
X42.774 Y11.083
X42.754 Y10.651
X42.721 Y10.219
X42.678 Y9.764
X42.659 Y9.643
X42.609 Y9.355
X42.577 Y9.211
X42.469 Y8.869
X42.46 Y8.851
X42.245 Y8.493
X42.12 Y8.259
X42.015 Y8.017
X41.905 Y7.696
X41.79 Y7.247
X41.683 Y6.622
X41.621 Y5.99
X41.599 Y5.674
X41.528 Y5.364
X41.398 Y5.075
X41.034 Y4.556
X40.527 Y4.174
X39.95 Y3.911
X39.34 Y3.735
X38.716 Y3.62
X38.086 Y3.545
X37.454 Y3.497
X36.82 Y3.467
X36.186 Y3.448
X35.552 Y3.435
X34.917 Y3.428
X34.283 Y3.423
X33.648 Y3.42
X32.38 Y3.418
X29.393 Y3.417
X29.342 Y3.415
X29.292 Y3.41
X29.242 Y3.401
X27.11 Y2.945
X26.965 Y2.914
X26.533 Y2.833
X23.938 Y2.435
X23.65 Y2.392
X23.218 Y2.341
X23.073 Y2.33
X22.785 Y2.312
X22.614 Y2.299
X22.353 Y2.277
X22.209 Y2.266
X21.776 Y2.242
X21.199 Y2.24
X19.47
X19.326 Y2.243
X19.037 Y2.257
X18.893 Y2.268
X16.587 Y2.616
X16.443 Y2.648
X16.107 Y2.731
X15.173 Y3.019
X14.577 Y3.171
X13.951 Y3.277
X13.32 Y3.338
X12.686 Y3.374
X12.052 Y3.394
X11.418 Y3.406
X10.784 Y3.413
X10.149 Y3.417
X8.88 Y3.421
X6.977 Y3.423
X6.664 Y3.476
X6.37 Y3.594
X5.837 Y3.939
X5.445 Y4.438
X5.174 Y5.012
X4.993 Y5.62
X4.874 Y6.243
X4.798 Y6.873
X4.748 Y7.505
X4.717 Y8.139
X4.697 Y8.773
X4.684 Y9.407
X4.676 Y10.042
X4.671 Y10.676
X4.669 Y11.168
X4.657 Y11.292
X4.625 Y11.413
X4.572 Y11.526
X4.163 Y12.235
X3.942 Y12.667
X3.902 Y12.765
X3.373 Y14.11
X3.205 Y14.539
X3.181 Y14.601
X3.088 Y14.842
X3.037 Y14.976
X2.994 Y15.115
X2.924 Y15.403
X2.893 Y15.532
X2.462 Y17.419
X2.43 Y17.563
X2.402 Y17.707
X2.383 Y17.851
X2.211 Y20.154
X2.206 Y20.298
Y20.586
X2.211 Y20.73
X2.383 Y23.034
X2.402 Y23.178
X2.43 Y23.322
X2.462 Y23.466
X2.846 Y25.148
X2.893 Y25.353
X2.924 Y25.482
X2.994 Y25.77
X3.037 Y25.909
X3.205 Y26.346
X3.902 Y28.121
X3.942 Y28.218
X4.016 Y28.362
X4.161 Y28.685
X4.274 Y28.999
X4.39 Y29.431
X4.505 Y30.055
X4.572 Y30.686
X4.611 Y31.319
X4.634 Y31.953
X4.647 Y32.587
X4.655 Y33.222
X4.66 Y33.856
X4.712 Y34.169
X4.825 Y34.466
X5.161 Y35.004
X5.653 Y35.404
X6.223 Y35.683
X6.829 Y35.87
X7.452 Y35.994
X8.081 Y36.075
X8.713 Y36.127
X9.347 Y36.161
X9.981 Y36.183
X10.615 Y36.196
X11.048 Y36.202
X11.163 Y36.212
X11.276 Y36.239
X11.384 Y36.282
X11.979 Y36.57
X13.271 Y37.192
X13.704 Y37.398
X13.798 Y37.434
X13.985 Y37.495
G3 X13.957 Y38.086 I-0.107 J0.291
G1 X13.89 Y38.104 Z-0.926
X13.827 Y38.12 Z-0.903
X13.77 Y38.135 Z-0.866
X13.722 Y38.148 Z-0.817
X13.687 Y38.157 Z-0.759
X13.664 Y38.163 Z-0.693
X13.657 Y38.165 Z-0.624
G0 Z5
X3.213 Y27.628
Z-0.314
G1 Z-0.624 F1000
X3.219 Y27.632 Z-0.693
X3.239 Y27.644 Z-0.759
X3.27 Y27.664 Z-0.817
X3.311 Y27.69 Z-0.866
X3.361 Y27.721 Z-0.903
X3.417 Y27.756 Z-0.926
X3.475 Y27.792 Z-0.934
G3 X4.016 Y28.362 I-0.842 J1.34
G1 X4.163 Y28.65
X5.16 Y30.378
X5.316 Y30.682
X5.429 Y30.954
X5.547 Y31.32
X5.669 Y31.834
X5.765 Y32.461
X5.815 Y32.774
X5.911 Y33.077
X6.21 Y33.636
X6.678 Y34.064
X7.235 Y34.369
X7.834 Y34.578
X8.452 Y34.718
X9.073 Y34.809
X9.179 Y34.833
X9.281 Y34.873
X9.375 Y34.927
G0 Z5
X4.321 Y29.685
Z-0.314
G1 Z-0.624 F1000
X4.328 Y29.688 Z-0.693
X4.348 Y29.7 Z-0.759
X4.38 Y29.718 Z-0.817
X4.423 Y29.742 Z-0.866
X4.475 Y29.77 Z-0.903
X4.532 Y29.802 Z-0.926
X4.592 Y29.836 Z-0.934
G3 X5.16 Y30.378 I-0.774 J1.381
G1 X5.243 Y30.522
X5.343 Y30.667
X5.548 Y30.954
X5.631 Y31.065
X6.692 Y32.394
X6.809 Y32.538
X7.073 Y32.857
X7.183 Y32.97
X8.735 Y34.41
X8.947 Y34.606
X9.052 Y34.698
X9.091 Y34.729
X9.25 Y34.842
X11.151 Y36.138
X11.253 Y36.206
X11.384 Y36.282
G3 X11.233 Y36.854 I-0.165 J0.262
G1 X11.164 Y36.857 Z-0.926
X11.098 Y36.86 Z-0.903
X11.04 Y36.863 Z-0.866
X10.991 Y36.865 Z-0.817
X10.954 Y36.867 Z-0.759
X10.931 Y36.868 Z-0.693
X10.923 Z-0.624
G0 Z5
X16.035 Y2.356
Z-0.314
G1 Z-0.624 F1000
X16.03 Y2.361 Z-0.693
X16.015 Y2.378 Z-0.759
X15.99 Y2.406 Z-0.817
X15.957 Y2.442 Z-0.866
X15.918 Y2.486 Z-0.903
X15.874 Y2.534 Z-0.926
X15.827 Y2.586 Z-0.934
G3 X15.173 Y3.019 I-1.174 J-1.061
G1 X14.239 Y3.307
X14.136 Y3.34
X13.798 Y3.451
X13.704 Y3.487
X13.175 Y3.739
X12.577 Y4.027
X12.184 Y4.193
X11.841 Y4.306
X11.356 Y4.423
X10.73 Y4.523
X10.098 Y4.581
X9.465 Y4.615
X8.83 Y4.635
X8.196 Y4.647
X7.885 Y4.711
X7.595 Y4.837
X7.07 Y5.194
X6.685 Y5.698
X6.417 Y6.274
X6.238 Y6.882
X6.119 Y7.505
X6.042 Y8.135
X5.992 Y8.767
X5.971 Y9.177
X5.948 Y9.325
X5.895 Y9.465
X5.814 Y9.592
X5.631 Y9.82
X5.548 Y9.931
X5.342 Y10.219
X5.243 Y10.363
X4.572 Y11.526
G3 X3.999 Y11.377 I-0.263 J-0.164
G1 X3.996 Y11.308 Z-0.926
X3.993 Y11.243 Z-0.903
X3.99 Y11.184 Z-0.866
X3.987 Y11.135 Z-0.817
X3.986 Y11.098 Z-0.759
X3.984 Y11.075 Z-0.693
Y11.068 Z-0.624
G0 Z5
X13.331 Y3.242
Z-0.314
G1 Z-0.624 F1000
X13.327 Y3.249 Z-0.693
X13.314 Y3.268 Z-0.759
X13.294 Y3.299 Z-0.817
X13.266 Y3.34 Z-0.866
X13.234 Y3.389 Z-0.903
X13.198 Y3.443 Z-0.926
X13.16 Y3.501 Z-0.934
G3 X12.577 Y4.027 I-1.319 J-0.875
G1 X11.681 Y4.459
X11.384 Y4.603
X11.253 Y4.679
X11.109 Y4.775
X10.677 Y5.07
X10.446 Y5.211
X10.229 Y5.321
X9.951 Y5.434
X9.346 Y5.626
X8.755 Y5.858
X8.271 Y6.268
X7.91 Y6.79
X7.655 Y7.37
X7.608 Y7.473
X7.545 Y7.567
X7.469 Y7.649
G3 X7.028 Y7.613 I-0.203 J-0.234
X7.072 Y7.173 I0.238 J-0.199
G1 X10.299 Y4.579
G3 X10.739 Y4.631 I0.194 J0.242
X10.677 Y5.07 I-0.246 J0.189
G1 X9.235 Y6.053
X9.091 Y6.156
X9.052 Y6.187
X8.947 Y6.279
X8.37 Y6.813
X7.183 Y7.915
X7.073 Y8.028
X6.785 Y8.377
X6.692 Y8.491
X5.814 Y9.592
G3 X5.27 Y9.359 I-0.235 J-0.202
G1 X5.277 Y9.29 Z-0.926
X5.283 Y9.225 Z-0.903
X5.289 Y9.167 Z-0.866
X5.294 Y9.118 Z-0.817
X5.298 Y9.081 Z-0.759
X5.3 Y9.058 Z-0.693
X5.301 Y9.05 Z-0.624
G0 Z5
X43.096 Y9.172
Z-0.314
G1 Z-0.624 F1000
X43.089 Y9.168 Z-0.693
X43.069 Y9.158 Z-0.759
X43.036 Y9.14 Z-0.817
X42.993 Y9.117 Z-0.866
X42.941 Y9.089 Z-0.903
X42.884 Y9.058 Z-0.926
X42.823 Y9.025 Z-0.934
G3 X42.245 Y8.493 I0.75 J-1.394
G1 X42.141 Y8.347
X42.017 Y8.203
X41.957 Y8.147
X41.813 Y8.015
X41.669 Y7.926
X41.541 Y7.846
X41.428 Y7.748
X41.324 Y7.64
X41.219 Y7.51
X41.105 Y7.342
X40.983 Y7.129
X40.714 Y6.555
X40.363 Y6.027
X39.886 Y5.607
X39.331 Y5.3
X38.734 Y5.085
X38.117 Y4.939
X37.49 Y4.841
X36.859 Y4.776
X36.226 Y4.733
X35.592 Y4.705
X34.958 Y4.687
X34.324 Y4.676
X33.666 Y4.668
X33.589 Y4.664
X33.513 Y4.651
X33.438 Y4.63
G3 X33.473 Y4.039 I0.11 J-0.29
G1 X33.54 Y4.023 Z-0.926
X33.604 Y4.007 Z-0.903
X33.661 Y3.992 Z-0.866
X33.708 Y3.98 Z-0.817
X33.744 Y3.971 Z-0.759
X33.766 Y3.966 Z-0.693
X33.774 Y3.964 Z-0.624
G0 Z5
X42.744 Y8.092
Z-0.314
G1 Z-0.624 F1000
X42.737 Z-0.693
X42.714 Y8.093 Z-0.759
X42.677 Y8.094 Z-0.817
X42.628 Y8.095 Z-0.866
X42.569 Y8.097 Z-0.903
X42.503 Y8.098 Z-0.926
X42.434 Y8.1 Z-0.934
G3 X41.669 Y7.926 I-0.043 J-1.582
G1 X41.38 Y7.765
X41.236 Y7.692
X40.948 Y7.562
X40.764 Y7.483
X40.192 Y7.209
X39.639 Y6.897
X39.064 Y6.629
X38.466 Y6.417
X37.852 Y6.26
X37.706 Y6.233
X37.659 Y6.223
X37.613 Y6.21
X37.568 Y6.194
G3 X37.809 Y5.622 I0.125 J-0.284
G1 X40.99 Y6.906
G3 X40.764 Y7.483 I-0.116 J0.287
G1 X40.371 Y7.318
X39.362 Y6.907
X35.182 Y5.245
X35.014 Y5.179
X34.631 Y5.035
X32.299 Y4.243
X32.155 Y4.198
X31.722 Y4.074
X29.848 Y3.555
X29.416 Y3.44
X29.242 Y3.401
G3 X29.007 Y3.101 I0.075 J-0.301
G1 Y3.1
X29.014 Y3.036
X29.038 Y2.988 Z-0.929
X29.061 Y2.941 Z-0.915
X29.083 Y2.897 Z-0.892
X29.125 Y2.868 Z-0.854
X29.16 Y2.843 Z-0.805
X29.186 Y2.825 Z-0.75
X29.202 Y2.814 Z-0.688
X29.207 Y2.81 Z-0.625
G0 Z5
X42.222 Y34.969
Z-0.266
G1 Z-0.576 F1000
X42.217 Y34.963 Z-0.645
X42.202 Y34.946 Z-0.71
X42.177 Y34.919 Z-0.769
X42.144 Y34.882 Z-0.818
X42.105 Y34.838 Z-0.855
X42.061 Y34.79 Z-0.878
X42.015 Y34.738 Z-0.886
G3 X41.021 Y33.353 I5.895 J-5.281
G1 X40.952 Y33.22
X40.953 Y33.214
X40.956 Y33.209
X40.961 Y33.206
X41.236 Y33.063
X41.395 Y32.97
X41.524 Y32.889
X41.617 Y32.826
X41.669 Y32.786
X41.785 Y32.682
X41.957 Y32.508
X42.06 Y32.394
X42.101 Y32.337
X42.16 Y32.25
X42.245 Y32.095
X42.307 Y31.962
X42.411 Y31.674
X42.456 Y31.53
X42.533 Y31.183
X42.55 Y31.098
X42.572 Y30.954
X42.591 Y30.81
X42.607 Y30.666
X42.692 Y29.37
X42.7 Y29.226
X42.713 Y28.794
X42.737 Y26.922
X42.738 Y26.346
X42.73 Y23.61
X42.714 Y20.442
X42.704 Y17.419
X42.7 Y14.683
X42.696 Y13.099
X42.691 Y12.667
X42.664 Y11.227
X42.66 Y11.083
X42.64 Y10.651
X42.584 Y9.931
X42.566 Y9.787
X42.544 Y9.643
X42.494 Y9.355
X42.46 Y9.211
X42.354 Y8.869
X42.345 Y8.851
X42.216 Y8.635
X42.124 Y8.491
X42.101 Y8.46
X41.737 Y8.093
X41.721 Y8.08
X41.669 Y8.043
X41.38 Y7.889
X41.236 Y7.818
X40.804 Y7.624
X40.66 Y7.562
X40.371 Y7.442
X39.362 Y7.031
X38.33 Y6.619
X34.894 Y5.253
X34.749 Y5.197
X34.173 Y5
X32.299 Y4.363
X32.147 Y4.315
X32.011 Y4.274
X31.866 Y4.232
X29.848 Y3.673
X29.416 Y3.557
X29.272 Y3.524
X27.11 Y3.061
X26.965 Y3.031
X26.533 Y2.949
X24.082 Y2.572
X23.65 Y2.502
X23.218 Y2.439
X23.073 Y2.424
X22.785 Y2.398
X22.497 Y2.369
X22.209 Y2.34
X21.776 Y2.31
X21.344 Y2.307
X19.47
X19.326 Y2.31
X19.037 Y2.324
X18.893 Y2.335
X16.587 Y2.683
X16.443 Y2.717
X16.154 Y2.789
X16.01 Y2.831
X14.28 Y3.364
X14.136 Y3.41
X13.848 Y3.507
X13.704 Y3.56
X12.983 Y3.905
X11.83 Y4.461
X11.397 Y4.672
X11.275 Y4.747
X10.965 Y4.955
X9.368 Y6.043
X9.235 Y6.136
X9.091 Y6.246
X8.987 Y6.331
X7.217 Y7.974
X7.13 Y8.059
X6.777 Y8.491
X5.743 Y9.787
X5.631 Y9.932
X5.343 Y10.326
X5.32 Y10.363
X4.24 Y12.235
X4.014 Y12.667
X3.955 Y12.811
X3.221 Y14.683
X3.109 Y14.971
X3.064 Y15.115
X2.992 Y15.403
X2.958 Y15.547
X2.563 Y17.275
X2.531 Y17.419
X2.45 Y17.851
X2.277 Y20.154
X2.273 Y20.298
Y20.586
X2.277 Y20.73
X2.45 Y23.034
X2.531 Y23.466
X2.604 Y23.79
X2.958 Y25.338
X3.028 Y25.626
X3.064 Y25.77
X3.109 Y25.914
X3.333 Y26.49
X3.955 Y28.074
X4.014 Y28.218
X4.24 Y28.65
X5.32 Y30.522
X5.343 Y30.559
X5.632 Y30.954
X5.743 Y31.098
X6.785 Y32.404
X7.13 Y32.826
X7.217 Y32.911
X8.987 Y34.554
X9.091 Y34.639
X9.235 Y34.749
X9.379 Y34.85
X10.965 Y35.93
X11.275 Y36.138
X11.397 Y36.212
X11.833 Y36.426
X13.415 Y37.187
X13.704 Y37.325
X13.848 Y37.378
X14.136 Y37.475
X14.28 Y37.521
X16.01 Y38.054
X16.154 Y38.096
X16.443 Y38.168
X16.587 Y38.202
X18.893 Y38.55
X19.037 Y38.561
X19.326 Y38.575
X19.47 Y38.578
X21.776 Y38.579
X22.209 Y38.555
X22.497 Y38.533
X22.641 Y38.524
X22.785 Y38.51
X23.218 Y38.457
X26.965 Y37.957
X27.398 Y37.894
X27.555 Y37.866
X31.002 Y37.119
X31.29 Y37.055
X32.011 Y36.845
X33.164 Y36.507
X33.308 Y36.46
X33.885 Y36.26
X35.057 Y35.85
X35.182 Y35.801
X35.47 Y35.68
X38.749 Y34.266
X38.93 Y34.182
X40.371 Y33.496
X40.804 Y33.287
X40.861 Y33.258
X40.961 Y33.206
G3 X41.369 Y33.342 I0.133 J0.28
G1 X41.381 Y33.392 Z-0.881
X41.393 Y33.44 Z-0.868
X41.404 Y33.486 Z-0.847
X41.39 Y33.54 Z-0.807
X41.379 Y33.585 Z-0.755
X41.371 Y33.617 Z-0.694
X41.366 Y33.635 Z-0.627
X41.364 Y33.639 Z-0.576
G0 Z5
X42.191 Y34.871
Z-0.222
G1 Z-0.532 F1000
X42.186 Y34.865 Z-0.601
X42.17 Y34.848 Z-0.667
X42.146 Y34.821 Z-0.725
X42.113 Y34.784 Z-0.774
X42.074 Y34.74 Z-0.811
X42.03 Y34.691 Z-0.834
X41.984 Y34.64 Z-0.842
G3 X40.99 Y33.255 I5.897 J-5.278
G1 X40.921 Y33.121
X40.922 Y33.116
X40.926 Y33.111
X40.93 Y33.107
X41.236 Y32.945
X41.38 Y32.863
X41.434 Y32.826
X41.669 Y32.651
X41.794 Y32.538
X41.813 Y32.519
X41.924 Y32.394
X42.122 Y32.106
X42.165 Y32.034
X42.194 Y31.962
X42.303 Y31.674
X42.35 Y31.53
X42.416 Y31.242
X42.445 Y31.098
X42.486 Y30.81
X42.504 Y30.666
X42.59 Y29.37
X42.598 Y29.226
X42.611 Y28.794
X42.635 Y26.922
Y26.346
X42.628 Y23.61
X42.612 Y20.442
X42.602 Y17.419
X42.598 Y14.683
X42.594 Y13.099
X42.588 Y12.667
X42.561 Y11.227
X42.557 Y11.083
X42.537 Y10.651
X42.504 Y10.219
X42.461 Y9.787
X42.438 Y9.643
X42.384 Y9.355
X42.342 Y9.211
X42.218 Y8.869
X42.209 Y8.851
X42.167 Y8.779
X42.101 Y8.681
X41.957 Y8.479
X41.834 Y8.347
X41.743 Y8.254
X41.725 Y8.239
X41.461 Y8.059
X41.38 Y8.01
X41.236 Y7.935
X40.882 Y7.771
X40.804 Y7.736
X40.515 Y7.613
X40.371 Y7.552
X39.362 Y7.141
X39.074 Y7.025
X35.155 Y5.467
X34.749 Y5.31
X34.605 Y5.255
X32.264 Y4.459
X32.155 Y4.426
X31.781 Y4.315
X29.848 Y3.779
X29.416 Y3.661
X29.272 Y3.629
X27.097 Y3.163
X26.965 Y3.136
X26.533 Y3.052
X24.082 Y2.675
X23.65 Y2.605
X23.218 Y2.552
X23.073 Y2.543
X22.785 Y2.528
X22.641 Y2.515
X22.209 Y2.455
X21.776 Y2.411
X21.632 Y2.405
X21.344 Y2.396
X21.199 Y2.394
X19.47
X19.326 Y2.398
X19.037 Y2.417
X18.893 Y2.429
X18.461 Y2.489
X17.019 Y2.706
X16.587 Y2.776
X16.443 Y2.808
X16.154 Y2.881
X16.01 Y2.922
X14.28 Y3.456
X14.136 Y3.504
X13.848 Y3.61
X13.704 Y3.666
X13.534 Y3.739
X13.415 Y3.794
X11.83 Y4.558
X11.542 Y4.7
X11.397 Y4.785
X10.965 Y5.063
X10.791 Y5.179
X9.523 Y6.043
X9.379 Y6.146
X9.091 Y6.373
X8.968 Y6.475
X8.803 Y6.623
X7.361 Y7.961
X7.265 Y8.059
X7.134 Y8.203
X6.929 Y8.443
X5.742 Y9.931
X5.631 Y10.081
X5.487 Y10.284
X5.433 Y10.363
X5.258 Y10.651
X4.334 Y12.25
X4.264 Y12.379
X4.119 Y12.667
X4.046 Y12.841
X3.939 Y13.099
X3.882 Y13.243
X3.373 Y14.539
X3.181 Y15.04
X3.086 Y15.403
X3.05 Y15.547
X2.656 Y17.275
X2.624 Y17.419
X2.548 Y17.851
X2.509 Y18.283
X2.369 Y20.154
X2.365 Y20.298
X2.367 Y20.586
X2.372 Y20.73
X2.402 Y21.162
X2.532 Y22.89
X2.543 Y23.034
X2.627 Y23.466
X2.757 Y24.042
X3.053 Y25.338
X3.088 Y25.482
X3.181 Y25.84
X3.377 Y26.346
X4.056 Y28.074
X4.115 Y28.218
X4.267 Y28.506
X4.348 Y28.65
X5.346 Y30.378
X5.43 Y30.522
X5.487 Y30.606
X5.638 Y30.81
X5.747 Y30.954
X6.929 Y32.435
X7.129 Y32.682
X7.267 Y32.826
X7.361 Y32.92
X8.812 Y34.266
X8.971 Y34.41
X9.091 Y34.51
X9.379 Y34.735
X9.53 Y34.842
X10.821 Y35.722
X11.011 Y35.85
X11.253 Y36.01
X11.397 Y36.104
X11.542 Y36.185
X13.415 Y37.087
X13.56 Y37.154
X13.704 Y37.219
X13.848 Y37.275
X14.136 Y37.379
X14.303 Y37.434
X15.722 Y37.871
X16.01 Y37.959
X16.183 Y38.01
X16.298 Y38.041
X16.443 Y38.079
X16.587 Y38.111
X17.452 Y38.242
X18.461 Y38.394
X18.893 Y38.453
X19.037 Y38.465
X19.326 Y38.485
X19.47 Y38.49
X21.199
X21.344 Y38.488
X21.632 Y38.481
X21.776 Y38.475
X22.209 Y38.43
X22.353 Y38.422
X22.641 Y38.409
X22.785 Y38.399
X23.073 Y38.37
X23.218 Y38.354
X26.965 Y37.854
X27.254 Y37.811
X27.398 Y37.79
X27.542 Y37.764
X30.857 Y37.045
X31.29 Y36.949
X32.731 Y36.528
X33.164 Y36.401
X33.308 Y36.352
X34.605 Y35.899
X35.038 Y35.748
X35.15 Y35.706
X35.182 Y35.693
X38.497 Y34.263
X38.93 Y34.069
X40.371 Y33.382
X40.804 Y33.173
X40.93 Y33.107
X40.996 Y33.084
X41.065 Y33.076
X41.066
G3 X41.339 Y33.24 I0 J0.31
G1 X41.352 Y33.291 Z-0.837
X41.364 Y33.34 Z-0.824
X41.376 Y33.386 Z-0.802
X41.364 Y33.432 Z-0.769
X41.354 Y33.471 Z-0.727
X41.346 Y33.502 Z-0.678
X41.34 Y33.524 Z-0.624
X41.337 Y33.535 Z-0.566
X41.336 Y33.537 Z-0.532
G0 Z5
X42.047 Y34.838
Z-0.199
G1 Z-0.509 F1000
X42.042 Y34.832 Z-0.578
X42.027 Y34.814 Z-0.643
X42.003 Y34.787 Z-0.702
X41.97 Y34.749 Z-0.751
X41.932 Y34.705 Z-0.788
X41.889 Y34.655 Z-0.811
X41.844 Y34.603 Z-0.819
G3 X40.874 Y33.201 I5.987 J-5.176
G1 X40.807 Y33.066
X40.809 Y33.061
X40.812 Y33.056
X40.817 Y33.052
X41.092 Y32.905
X41.236 Y32.826
X41.38 Y32.727
X41.669 Y32.514
X41.731 Y32.467
X41.793 Y32.394
X41.997 Y32.106
X42.092 Y31.962
X42.101 Y31.944
X42.152 Y31.818
X42.203 Y31.674
X42.246 Y31.53
X42.308 Y31.242
X42.337 Y31.098
X42.389 Y30.766
X42.404 Y30.666
X42.44 Y30.234
X42.468 Y29.802
X42.493 Y29.37
X42.5 Y29.226
X42.533 Y26.666
X42.537 Y26.346
Y25.77
X42.532 Y23.898
X42.513 Y20.154
X42.506 Y17.707
X42.5 Y14.251
X42.496 Y13.099
X42.491 Y12.523
X42.466 Y11.227
X42.461 Y11.083
X42.44 Y10.651
X42.407 Y10.219
X42.374 Y9.931
X42.357 Y9.787
X42.333 Y9.643
X42.278 Y9.355
X42.245 Y9.223
X42.194 Y9.067
X42.136 Y8.923
X42.122 Y8.892
X42.043 Y8.779
X41.828 Y8.471
X41.813 Y8.452
X41.699 Y8.347
X41.669 Y8.323
X41.524 Y8.216
X41.38 Y8.13
X41.258 Y8.059
X41.236 Y8.048
X40.947 Y7.915
X40.804 Y7.85
X40.083 Y7.546
X39.506 Y7.305
X39.218 Y7.187
X38.641 Y6.953
X38.353 Y6.837
X35.47 Y5.69
X35.182 Y5.58
X35.038 Y5.526
X34.173 Y5.209
X33.596 Y5.012
X32.299 Y4.571
X32.155 Y4.525
X31.722 Y4.398
X31.29 Y4.275
X29.848 Y3.876
X29.56 Y3.8
X29.416 Y3.764
X28.983 Y3.662
X28.839 Y3.63
X27.11 Y3.26
X26.965 Y3.23
X26.533 Y3.151
X26.101 Y3.079
X24.659 Y2.858
X24.515 Y2.835
X24.227 Y2.794
X23.938 Y2.756
X23.65 Y2.718
X23.218 Y2.666
X23.073 Y2.661
X22.785 Y2.655
X22.641 Y2.648
X22.064 Y2.602
X21.344 Y2.547
X21.199 Y2.538
X20.911 Y2.523
X20.767 Y2.518
X20.19 Y2.519
X19.902 Y2.52
X19.758 Y2.529
X18.461 Y2.631
X18.028 Y2.682
X17.884 Y2.702
X17.452 Y2.767
X17.163 Y2.815
X17.019 Y2.845
X15.685 Y3.163
X15.578 Y3.191
X15.186 Y3.307
X14.713 Y3.453
X14.569 Y3.505
X14.28 Y3.613
X14.136 Y3.669
X13.265 Y4.027
X12.839 Y4.214
X12.695 Y4.281
X12.325 Y4.459
X11.974 Y4.642
X11.83 Y4.719
X10.965 Y5.243
X10.821 Y5.333
X10.532 Y5.514
X10.382 Y5.611
X9.956 Y5.902
X9.668 Y6.104
X9.523 Y6.223
X8.541 Y7.051
X8.37 Y7.201
X8.219 Y7.339
X7.938 Y7.601
X7.604 Y7.915
X7.478 Y8.059
X6.727 Y8.923
X6.64 Y9.024
X6.352 Y9.374
X6.022 Y9.787
X5.914 Y9.931
X5.717 Y10.219
X5.055 Y11.274
X4.743 Y11.803
X4.577 Y12.091
X4.495 Y12.235
X4.334 Y12.579
X4.294 Y12.667
X3.862 Y13.675
X3.802 Y13.819
X3.685 Y14.107
X3.516 Y14.539
X3.463 Y14.683
X3.361 Y14.971
X2.993 Y16.411
X2.959 Y16.555
X2.794 Y17.275
X2.764 Y17.419
X2.706 Y17.851
X2.604 Y18.923
X2.571 Y19.291
X2.518 Y20.01
X2.507 Y20.154
Y20.298
X2.519 Y20.586
X2.527 Y20.73
X2.579 Y21.594
X2.607 Y22.026
X2.639 Y22.458
X2.65 Y22.602
X2.676 Y22.89
X2.69 Y23.034
X2.782 Y23.466
X3.003 Y24.474
X3.133 Y25.05
X3.199 Y25.338
X3.238 Y25.482
X3.325 Y25.787
X3.369 Y25.914
X3.93 Y27.354
X4.1 Y27.786
X4.214 Y28.074
X4.273 Y28.218
X4.334 Y28.331
X4.6 Y28.794
X5.055 Y29.58
X5.487 Y30.323
X5.604 Y30.522
X5.631 Y30.566
X5.702 Y30.666
X5.815 Y30.81
X6.352 Y31.483
X7.091 Y32.394
X7.217 Y32.539
X7.505 Y32.857
X7.621 Y32.97
X8.087 Y33.402
X8.404 Y33.69
X9.091 Y34.31
X9.379 Y34.555
X9.523 Y34.671
X10.1 Y35.064
X10.412 Y35.274
X11.294 Y35.85
X11.397 Y35.917
X11.83 Y36.173
X12.054 Y36.282
X12.406 Y36.451
X12.695 Y36.587
X12.839 Y36.654
X13.848 Y37.109
X13.992 Y37.172
X14.136 Y37.234
X14.29 Y37.29
X15.001 Y37.51
X15.145 Y37.555
X15.289 Y37.596
X16.443 Y37.913
X16.587 Y37.952
X17.019 Y38.044
X17.307 Y38.088
X17.596 Y38.131
X17.884 Y38.172
X18.028 Y38.191
X19.326 Y38.338
X19.47 Y38.349
X19.758 Y38.357
X19.902 Y38.36
X20.335
X20.767 Y38.353
X21.055 Y38.342
X21.776 Y38.313
X22.209 Y38.309
X22.353 Y38.305
X22.641 Y38.294
X22.785 Y38.285
X23.218 Y38.245
X23.65 Y38.2
X24.082 Y38.148
X24.371 Y38.111
X26.533 Y37.822
X26.965 Y37.76
X27.398 Y37.694
X27.542 Y37.668
X28.119 Y37.547
X28.695 Y37.423
X30.713 Y36.986
X30.857 Y36.953
X31.29 Y36.844
X31.755 Y36.714
X32.739 Y36.426
X33.164 Y36.297
X33.211 Y36.282
X35.038 Y35.642
X35.182 Y35.587
X35.614 Y35.407
X36.26 Y35.13
X38.353 Y34.227
X38.497 Y34.163
X39.074 Y33.892
X40.227 Y33.344
X40.404 Y33.258
X40.817 Y33.052
X40.882 Y33.029
X40.952 Y33.021
X40.953
G3 X41.226 Y33.184 I0 J0.31
G1 X41.239 Y33.235 Z-0.814
X41.251 Y33.284 Z-0.801
X41.263 Y33.331 Z-0.779
X41.251 Y33.377 Z-0.745
X41.24 Y33.417 Z-0.702
X41.232 Y33.448 Z-0.652
X41.227 Y33.469 Z-0.598
X41.224 Y33.48 Z-0.54
X41.223 Y33.482 Z-0.509
G0 Z5
X1.503 Y26.641
Z-0.18
G1 Z-0.49 F1000
X1.509 Y26.637 Z-0.559
X1.529 Y26.626 Z-0.624
X1.561 Y26.607 Z-0.683
X1.603 Y26.582 Z-0.732
X1.654 Y26.553 Z-0.769
X1.711 Y26.52 Z-0.792
X1.77 Y26.485 Z-0.8
G3 X3.326 Y25.787 I3.998 J6.83
G1 X3.47 Y25.746
X3.614 Y25.787
X3.75 Y25.851
X3.879 Y25.928
X4.018 Y26.03
X4.179 Y26.168
X4.368 Y26.359
X4.662 Y26.708
X5.03 Y27.225
X5.377 Y27.756
X5.712 Y28.295
X6.04 Y28.838
X6.38 Y29.374
X6.743 Y29.894
X7.122 Y30.403
X7.509 Y30.905
X7.915 Y31.393
X8.346 Y31.858
X8.794 Y32.308
X9.252 Y32.747
X9.726 Y33.169
X10.222 Y33.564
X10.732 Y33.941
X11.251 Y34.305
X11.784 Y34.65
X12.334 Y34.966
X12.896 Y35.261
X13.465 Y35.542
X14.044 Y35.801
X14.635 Y36.032
X15.235 Y36.238
X15.84 Y36.428
X16.452 Y36.596
X17.071 Y36.734
X17.696 Y36.846
X18.323 Y36.942
X18.953 Y37.015
X19.586 Y37.058
X20.22 Y37.075
X20.855 Y37.074
X21.489 Y37.07
X22.123 Y37.048
X22.756 Y37.008
X23.388 Y36.952
X24.019 Y36.884
X24.649 Y36.809
X25.279 Y36.731
X25.908 Y36.649
X26.535 Y36.557
X27.161 Y36.448
X27.784 Y36.329
X28.406 Y36.204
X29.027 Y36.075
X29.647 Y35.943
X30.266 Y35.801
X30.881 Y35.644
X31.493 Y35.479
X32.103 Y35.303
X32.708 Y35.113
X33.311 Y34.915
X33.911 Y34.71
X34.505 Y34.488
X35.095 Y34.254
X35.682 Y34.012
X36.267 Y33.767
X36.851 Y33.519
X37.432 Y33.266
X38.011 Y33.005
X38.587 Y32.739
X39.161 Y32.469
X39.731 Y32.19
X40.24 Y31.813
X40.609 Y31.296
X40.857 Y30.712
X41.021 Y30.099
X41.123 Y29.473
X41.186 Y28.842
X41.227 Y28.209
X41.254 Y27.575
X41.272 Y26.941
X41.282 Y26.306
X41.288 Y25.672
X41.29 Y25.038
Y24.403
X41.289 Y23.769
X41.281 Y21.865
X41.271 Y19.328
X41.266 Y17.424
X41.259 Y14.252
X41.257 Y13.618
X41.251 Y12.983
X41.242 Y12.349
X41.228 Y11.715
X41.198 Y11.081
X41.164 Y10.766
X41.077 Y10.461
X40.792 Y9.894
X40.359 Y9.43
X39.854 Y9.046
X39.311 Y8.717
X38.748 Y8.425
X38.173 Y8.156
X37.592 Y7.902
X37.008 Y7.655
X36.421 Y7.414
X35.833 Y7.176
X35.242 Y6.944
X34.65 Y6.717
X34.054 Y6.499
X33.456 Y6.287
X32.857 Y6.078
X32.255 Y5.878
X31.649 Y5.69
X31.041 Y5.509
X30.431 Y5.334
X29.819 Y5.166
X29.204 Y5.01
X28.587 Y4.864
X27.968 Y4.723
X27.348 Y4.589
X26.726 Y4.467
X26.101 Y4.356
X25.476 Y4.25
X24.849 Y4.151
X24.221 Y4.059
X23.591 Y3.99
X22.959 Y3.93
X22.327 Y3.875
X21.694 Y3.827
X21.061 Y3.799
X20.426 Y3.796
X19.792 Y3.814
X19.159 Y3.851
X18.527 Y3.91
X17.899 Y3.998
X17.274 Y4.11
X16.653 Y4.241
X16.038 Y4.394
X15.43 Y4.575
X14.83 Y4.782
X14.236 Y5.006
X13.651 Y5.251
X13.077 Y5.522
X12.516 Y5.817
X11.963 Y6.129
X11.422 Y6.459
X10.896 Y6.814
X10.386 Y7.191
X9.887 Y7.584
X9.402 Y7.993
X8.936 Y8.423
X8.489 Y8.874
X8.057 Y9.338
X7.639 Y9.815
X7.243 Y10.311
X6.871 Y10.825
X6.515 Y11.35
X6.173 Y11.885
X5.857 Y12.435
X5.568 Y12.999
X5.296 Y13.572
X5.039 Y14.153
X4.81 Y14.744
X4.61 Y15.346
X4.429 Y15.954
X4.263 Y16.567
X4.126 Y17.186
X4.02 Y17.812
X3.934 Y18.44
X3.864 Y19.071
X3.822 Y19.704
X3.813 Y20.338
X3.824 Y20.972
X3.85 Y21.606
X3.904 Y22.238
X3.991 Y22.867
X4.099 Y23.492
X4.333 Y24.082
X4.671 Y24.619
X5.043 Y25.133
X5.416 Y25.646
X5.781 Y26.164
X6.136 Y26.69
X6.481 Y27.223
X6.822 Y27.758
X7.169 Y28.289
X7.527 Y28.813
X7.897 Y29.328
X8.281 Y29.833
X8.685 Y30.322
X9.108 Y30.795
X9.547 Y31.254
X10.003 Y31.695
X10.478 Y32.115
X10.97 Y32.515
X11.477 Y32.897
X11.999 Y33.258
X12.536 Y33.595
X13.087 Y33.91
X13.649 Y34.205
X14.223 Y34.475
X14.808 Y34.719
X15.403 Y34.94
X16.006 Y35.137
X16.617 Y35.307
X17.235 Y35.451
X17.858 Y35.572
X18.485 Y35.667
X19.116 Y35.734
X19.749 Y35.775
X20.383 Y35.799
X21.018 Y35.805
X21.652 Y35.795
X22.286 Y35.766
X22.919 Y35.722
X23.551 Y35.665
X24.182 Y35.6
X24.812 Y35.527
X25.441 Y35.447
X26.069 Y35.355
X26.695 Y35.252
X27.319 Y35.139
X27.942 Y35.02
X28.564 Y34.895
X29.185 Y34.762
X29.803 Y34.618
X30.418 Y34.465
X31.031 Y34.3
X31.641 Y34.125
X32.247 Y33.939
X32.85 Y33.742
X33.449 Y33.533
X34.044 Y33.312
X34.635 Y33.082
X35.224 Y32.845
X35.81 Y32.602
X36.394 Y32.353
X36.975 Y32.099
X37.553 Y31.838
X38.129 Y31.572
X38.669 Y31.239
X39.098 Y30.771
X39.412 Y30.22
X39.63 Y29.624
X39.777 Y29.007
X39.876 Y28.381
X39.941 Y27.749
X39.984 Y27.116
X40.01 Y26.483
X40.027 Y25.848
X40.036 Y25.214
X40.042 Y24.58
X40.044 Y23.945
Y23.311
X40.041 Y22.042
X40.03 Y18.87
X40.021 Y15.063
X40.019 Y14.429
X40.015 Y13.794
X40.009 Y13.16
X39.998 Y12.526
X39.971 Y11.892
X39.789 Y11.284
X39.449 Y10.748
X39.008 Y10.292
X38.507 Y9.904
X37.969 Y9.566
X37.411 Y9.265
X36.841 Y8.988
X36.263 Y8.726
X35.679 Y8.476
X35.092 Y8.236
X34.501 Y8.005
X33.908 Y7.781
X33.312 Y7.563
X32.713 Y7.353
X32.111 Y7.152
X31.507 Y6.96
X30.9 Y6.774
X30.291 Y6.597
X29.679 Y6.429
X29.065 Y6.271
X28.449 Y6.12
X27.83 Y5.977
X27.21 Y5.844
X26.588 Y5.721
X25.964 Y5.606
X25.339 Y5.498
X24.712 Y5.401
X24.083 Y5.316
X23.453 Y5.243
X22.821 Y5.179
X22.189 Y5.126
X21.556 Y5.089
X20.922 Y5.072
X20.287 Y5.075
X19.653 Y5.099
X19.021 Y5.148
X18.391 Y5.224
X17.764 Y5.323
X17.142 Y5.446
X16.526 Y5.597
X15.916 Y5.773
X15.314 Y5.973
X14.72 Y6.197
X14.137 Y6.446
X13.565 Y6.72
X13.003 Y7.014
X12.454 Y7.332
X11.919 Y7.674
X11.399 Y8.038
X10.894 Y8.421
X10.405 Y8.826
X9.935 Y9.252
X9.482 Y9.696
X9.047 Y10.158
X8.632 Y10.638
X8.238 Y11.135
X7.864 Y11.647
X7.51 Y12.174
X7.18 Y12.716
X6.873 Y13.271
X6.586 Y13.837
X6.325 Y14.415
X6.09 Y15.004
X5.878 Y15.602
X5.69 Y16.208
X5.528 Y16.821
X5.393 Y17.441
X5.282 Y18.066
X5.195 Y18.695
X5.137 Y19.326
X5.106 Y19.96
X5.097 Y20.594
X5.115 Y21.229
X5.163 Y21.861
X5.258 Y22.488
X5.453 Y23.092
X5.723 Y23.666
X6.035 Y24.218
X6.37 Y24.758
X6.712 Y25.292
X7.056 Y25.825
X7.398 Y26.359
X7.743 Y26.892
X8.094 Y27.42
X8.454 Y27.943
X8.826 Y28.456
X9.214 Y28.958
X9.62 Y29.446
X10.043 Y29.919
X10.485 Y30.374
X10.946 Y30.81
X11.424 Y31.226
X11.92 Y31.622
X12.434 Y31.995
X12.963 Y32.344
X13.508 Y32.67
X14.066 Y32.97
X14.638 Y33.245
X15.222 Y33.494
X15.816 Y33.716
X16.42 Y33.911
X17.032 Y34.079
X17.65 Y34.22
X18.275 Y34.332
X18.903 Y34.417
X19.535 Y34.476
X20.168 Y34.512
X20.803 Y34.529
X21.437 Y34.525
X22.071 Y34.503
X22.705 Y34.466
X23.337 Y34.416
X23.969 Y34.356
X24.599 Y34.286
X25.228 Y34.205
X25.856 Y34.113
X26.482 Y34.011
X27.107 Y33.901
X27.731 Y33.783
X28.352 Y33.657
X28.972 Y33.521
X29.589 Y33.375
X30.204 Y33.219
X30.816 Y33.052
X31.425 Y32.874
X32.031 Y32.684
X32.632 Y32.483
X33.23 Y32.27
X33.824 Y32.048
X34.415 Y31.817
X35.004 Y31.58
X35.589 Y31.335
X36.172 Y31.084
X36.751 Y30.825
X37.292 Y30.495
X37.737 Y30.042
X38.072 Y29.503
X38.312 Y28.916
X38.479 Y28.304
X38.593 Y27.68
X38.67 Y27.05
X38.72 Y26.418
X38.753 Y25.784
X38.774 Y25.15
X38.786 Y24.516
X38.793 Y23.881
X38.797 Y23.247
X38.798 Y22.612
X38.796 Y21.344
X38.785 Y16.903
X38.78 Y14.999
X38.777 Y14.365
X38.771 Y13.73
X38.76 Y13.096
X38.643 Y12.472
X38.366 Y11.902
X37.973 Y11.404
X37.503 Y10.978
X36.986 Y10.609
X36.442 Y10.284
X35.88 Y9.989
X35.306 Y9.718
X34.725 Y9.464
X34.138 Y9.223
X33.547 Y8.992
X32.952 Y8.771
X32.354 Y8.56
X31.753 Y8.358
X31.149 Y8.164
X30.542 Y7.978
X29.933 Y7.802
X29.321 Y7.634
X28.706 Y7.476
X28.09 Y7.326
X27.471 Y7.185
X26.851 Y7.054
X26.228 Y6.931
X25.604 Y6.818
X24.978 Y6.714
X24.35 Y6.622
X23.721 Y6.541
X23.091 Y6.471
X22.459 Y6.413
X21.826 Y6.371
X21.192 Y6.348
X20.557 Y6.346
X19.923 Y6.367
X19.29 Y6.413
X18.66 Y6.485
X18.033 Y6.583
X17.411 Y6.708
X16.796 Y6.861
X16.187 Y7.04
X15.587 Y7.246
X14.997 Y7.479
X14.417 Y7.737
X13.85 Y8.022
X13.297 Y8.332
X12.758 Y8.667
X12.235 Y9.026
X11.729 Y9.408
X11.24 Y9.814
X10.77 Y10.24
X10.32 Y10.686
X9.89 Y11.153
X9.482 Y11.639
X9.095 Y12.142
X8.732 Y12.662
X8.394 Y13.199
X8.079 Y13.75
X7.79 Y14.314
X7.528 Y14.892
X7.291 Y15.481
X7.08 Y16.079
X6.898 Y16.687
X6.742 Y17.302
X6.614 Y17.923
X6.514 Y18.55
X6.444 Y19.18
X6.401 Y19.813
X6.387 Y20.447
X6.407 Y21.081
X6.489 Y21.711
X6.653 Y22.323
X6.883 Y22.915
X7.158 Y23.487
X7.461 Y24.044
X7.781 Y24.591
X8.111 Y25.133
X8.448 Y25.671
X8.793 Y26.204
X9.146 Y26.73
X9.511 Y27.249
X9.89 Y27.758
X10.286 Y28.254
X10.699 Y28.736
X11.131 Y29.2
X11.583 Y29.646
X12.054 Y30.07
X12.545 Y30.472
X13.055 Y30.85
X13.582 Y31.203
X14.126 Y31.53
X14.685 Y31.83
X15.258 Y32.102
X15.844 Y32.346
X16.441 Y32.56
X17.048 Y32.744
X17.663 Y32.898
X18.286 Y33.021
X18.913 Y33.115
X19.544 Y33.183
X20.177 Y33.226
X20.811 Y33.246
X21.445
X22.08 Y33.227
X22.713 Y33.193
X23.346 Y33.146
X23.977 Y33.086
X24.608 Y33.014
X25.237 Y32.931
X25.864 Y32.837
X26.49 Y32.734
X27.115 Y32.622
X27.737 Y32.501
X28.358 Y32.37
X28.977 Y32.229
X29.593 Y32.077
X30.206 Y31.915
X30.816 Y31.741
X31.423 Y31.555
X32.026 Y31.357
X32.625 Y31.149
X33.221 Y30.931
X33.813 Y30.704
X34.402 Y30.469
X34.989 Y30.227
X35.567 Y29.965
X36.092 Y29.609
X36.517 Y29.138
X36.838 Y28.591
X37.071 Y28.001
X37.234 Y27.388
X37.347 Y26.764
X37.423 Y26.134
X37.473 Y25.501
X37.506 Y24.868
X37.527 Y24.234
X37.54 Y23.599
X37.547 Y22.965
X37.551 Y22.331
X37.553 Y21.696
X37.552 Y20.427
X37.543 Y15.986
X37.54 Y15.352
X37.537 Y14.717
X37.527 Y14.083
X37.422 Y13.457
X37.169 Y12.876
X36.793 Y12.365
X36.337 Y11.924
X35.83 Y11.542
X35.291 Y11.207
X34.732 Y10.907
X34.16 Y10.633
X33.578 Y10.38
X32.99 Y10.142
X32.397 Y9.917
X31.799 Y9.704
X31.198 Y9.502
X30.593 Y9.309
X29.986 Y9.126
X29.376 Y8.952
X28.763 Y8.787
X28.148 Y8.632
X27.531 Y8.487
X26.911 Y8.35
X26.289 Y8.223
X25.666 Y8.105
X25.041 Y7.998
X24.413 Y7.902
X23.785 Y7.818
X23.154 Y7.745
X22.523 Y7.687
X21.89 Y7.646
X21.256 Y7.624
X20.621
X19.987 Y7.649
X19.355 Y7.699
X18.725 Y7.777
X18.1 Y7.884
X17.48 Y8.019
X16.867 Y8.184
X16.263 Y8.378
X15.67 Y8.602
X15.088 Y8.854
X14.519 Y9.136
X13.965 Y9.444
X13.426 Y9.78
X12.905 Y10.142
X12.403 Y10.53
X11.92 Y10.941
X11.459 Y11.376
X11.019 Y11.834
X10.603 Y12.313
X10.212 Y12.813
X9.846 Y13.331
X9.506 Y13.866
X9.193 Y14.418
X8.908 Y14.985
X8.651 Y15.565
X8.422 Y16.157
X8.225 Y16.76
X8.057 Y17.372
X7.92 Y17.991
X7.815 Y18.617
X7.74 Y19.247
X7.698 Y19.88
X7.699 Y20.514
X7.774 Y21.144
X7.921 Y21.762
X8.128 Y22.361
X8.38 Y22.943
X8.663 Y23.511
X8.968 Y24.067
X9.289 Y24.615
X9.622 Y25.155
X9.968 Y25.687
X10.327 Y26.21
X10.7 Y26.723
X11.091 Y27.223
X11.5 Y27.708
X11.929 Y28.175
X12.379 Y28.622
X12.85 Y29.047
X13.342 Y29.448
X13.853 Y29.823
X14.384 Y30.171
X14.932 Y30.491
X15.496 Y30.78
X16.076 Y31.038
X16.67 Y31.263
X17.274 Y31.454
X17.888 Y31.613
X18.51 Y31.74
X19.137 Y31.836
X19.768 Y31.905
X20.401 Y31.947
X21.035 Y31.965
X21.67 Y31.963
X22.304 Y31.942
X22.937 Y31.906
X23.569 Y31.855
X24.201 Y31.79
X24.83 Y31.713
X25.459 Y31.625
X26.085 Y31.527
X26.71 Y31.418
X27.334 Y31.299
X27.955 Y31.17
X28.574 Y31.03
X29.19 Y30.88
X29.803 Y30.718
X30.413 Y30.544
X31.02 Y30.358
X31.623 Y30.162
X32.223 Y29.954
X32.819 Y29.737
X33.412 Y29.511
X34 Y29.273
X34.561 Y28.976
X35.04 Y28.561
X35.417 Y28.05
X35.697 Y27.481
X35.898 Y26.879
X36.037 Y26.26
X36.133 Y25.633
X36.198 Y25.002
X36.241 Y24.369
X36.269 Y23.735
X36.286 Y23.101
X36.297 Y22.467
X36.304 Y21.832
X36.307 Y21.198
X36.309 Y20.563
Y19.295
X36.304 Y16.757
X36.302 Y16.122
X36.299 Y15.488
X36.278 Y14.854
X36.144 Y14.234
X35.865 Y13.664
X35.475 Y13.164
X35.011 Y12.731
X34.499 Y12.357
X33.956 Y12.028
X33.393 Y11.735
X32.817 Y11.469
X32.232 Y11.225
X31.639 Y10.998
X31.042 Y10.785
X30.44 Y10.585
X29.834 Y10.396
X29.225 Y10.218
X28.613 Y10.049
X27.999 Y9.891
X27.382 Y9.743
X26.763 Y9.604
X26.142 Y9.476
X25.519 Y9.358
X24.893 Y9.251
X24.266 Y9.155
X23.637 Y9.071
X23.007 Y9.001
X22.374 Y8.948
X21.741 Y8.913
X21.107 Y8.9
X20.472 Y8.91
X19.839 Y8.947
X19.208 Y9.013
X18.581 Y9.11
X17.959 Y9.237
X17.345 Y9.397
X16.741 Y9.589
X16.147 Y9.813
X15.566 Y10.068
X15 Y10.354
X14.45 Y10.671
X13.919 Y11.018
X13.408 Y11.394
X12.919 Y11.797
X12.452 Y12.227
X12.01 Y12.683
X11.594 Y13.162
X11.205 Y13.663
X10.844 Y14.184
X10.512 Y14.725
X10.211 Y15.283
X9.941 Y15.858
X9.704 Y16.446
X9.5 Y17.047
X9.33 Y17.658
X9.193 Y18.277
X9.091 Y18.904
X9.029 Y19.535
X9.032 Y20.169
X9.107 Y20.799
X9.25 Y21.418
X9.449 Y22.02
X9.692 Y22.606
X9.968 Y23.177
X10.268 Y23.736
X10.588 Y24.284
X10.926 Y24.821
X11.28 Y25.348
X11.652 Y25.862
X12.043 Y26.361
X12.454 Y26.844
X12.888 Y27.308
X13.343 Y27.749
X13.821 Y28.167
X14.32 Y28.558
X14.842 Y28.918
X15.385 Y29.248
X15.946 Y29.544
X16.524 Y29.805
X17.117 Y30.03
X17.722 Y30.22
X18.338 Y30.374
X18.961 Y30.495
X19.589 Y30.583
X20.221 Y30.642
X20.854 Y30.674
X21.489 Y30.683
X22.123 Y30.672
X22.757 Y30.642
X23.389 Y30.596
X24.021 Y30.535
X24.651 Y30.462
X25.28 Y30.375
X25.906 Y30.278
X26.532 Y30.169
X27.155 Y30.05
X27.775 Y29.919
X28.394 Y29.777
X29.009 Y29.624
X29.622 Y29.459
X30.231 Y29.281
X30.837 Y29.092
X31.439 Y28.893
X32.038 Y28.682
X32.632 Y28.461
X33.204 Y28.187
X33.702 Y27.794
X34.1 Y27.3
X34.397 Y26.739
X34.612 Y26.142
X34.763 Y25.526
X34.867 Y24.9
X34.938 Y24.27
X34.985 Y23.637
X35.017 Y23.003
X35.037 Y22.369
X35.05 Y21.735
X35.058 Y21.101
X35.063 Y20.466
X35.065 Y19.832
X35.066 Y18.563
X35.065 Y17.294
X35.063 Y16.66
X35.056 Y16.025
X34.984 Y15.395
X34.768 Y14.798
X34.427 Y14.264
X33.994 Y13.799
X33.501 Y13.4
X32.969 Y13.054
X32.412 Y12.751
X31.839 Y12.48
X31.254 Y12.234
X30.66 Y12.009
X30.061 Y11.801
X29.457 Y11.607
X28.849 Y11.425
X28.238 Y11.256
X27.624 Y11.097
X27.007 Y10.949
X26.387 Y10.812
X25.765 Y10.686
X25.142 Y10.571
X24.516 Y10.467
X23.888 Y10.376
X23.258 Y10.3
X22.626 Y10.239
X21.993 Y10.198
X21.359 Y10.179
X20.725 Y10.186
X20.091 Y10.221
X19.46 Y10.286
X18.833 Y10.384
X18.213 Y10.515
X17.6 Y10.682
X16.999 Y10.883
X16.41 Y11.119
X15.837 Y11.392
X15.282 Y11.699
X14.747 Y12.04
X14.234 Y12.413
X13.745 Y12.817
X13.282 Y13.251
X12.846 Y13.712
X12.441 Y14.2
X12.067 Y14.713
X11.725 Y15.247
X11.419 Y15.803
X11.147 Y16.376
X10.911 Y16.965
X10.713 Y17.568
X10.552 Y18.181
X10.436 Y18.805
X10.381 Y19.437
X10.398 Y20.071
X10.49 Y20.699
X10.647 Y21.314
X10.857 Y21.913
X11.107 Y22.495
X11.39 Y23.063
X11.7 Y23.617
X12.032 Y24.158
X12.386 Y24.684
X12.762 Y25.195
X13.161 Y25.689
X13.583 Y26.162
X14.03 Y26.613
X14.502 Y27.037
X14.999 Y27.431
X15.52 Y27.793
X16.063 Y28.12
X16.628 Y28.41
X17.21 Y28.662
X17.808 Y28.873
X18.419 Y29.044
X19.039 Y29.178
X19.666 Y29.277
X20.297 Y29.344
X20.93 Y29.382
X21.564 Y29.396
X22.199 Y29.387
X22.833 Y29.358
X23.465 Y29.312
X24.097 Y29.251
X24.727 Y29.175
X25.355 Y29.087
X25.981 Y28.986
X26.605 Y28.873
X27.228 Y28.748
X27.847 Y28.611
X28.464 Y28.462
X29.077 Y28.3
X29.687 Y28.127
X30.294 Y27.941
X30.897 Y27.745
X31.494 Y27.53
X32.059 Y27.241
X32.541 Y26.828
X32.917 Y26.317
X33.197 Y25.748
X33.398 Y25.146
X33.54 Y24.528
X33.637 Y23.901
X33.703 Y23.27
X33.747 Y22.637
X33.777 Y22.003
X33.796 Y21.369
X33.808 Y20.735
X33.816 Y20.1
X33.82 Y19.466
X33.822 Y18.831
X33.823 Y18.197
Y17.563
X33.817 Y16.928
X33.749 Y16.297
X33.542 Y15.698
X33.204 Y15.161
X32.772 Y14.696
X32.278 Y14.298
X31.744 Y13.955
X31.184 Y13.657
X30.607 Y13.393
X30.018 Y13.156
X29.421 Y12.942
X28.818 Y12.745
X28.21 Y12.564
X27.598 Y12.396
X26.983 Y12.241
X26.365 Y12.098
X25.744 Y11.967
X25.121 Y11.848
X24.496 Y11.742
X23.868 Y11.649
X23.238 Y11.572
X22.607 Y11.513
X21.973 Y11.476
X21.339 Y11.462
X20.705 Y11.477
X20.072 Y11.522
X19.442 Y11.6
X18.818 Y11.715
X18.203 Y11.869
X17.599 Y12.062
X17.008 Y12.295
X16.435 Y12.567
X15.882 Y12.878
X15.352 Y13.226
X14.848 Y13.611
X14.373 Y14.032
X13.929 Y14.485
X13.519 Y14.969
X13.144 Y15.481
X12.807 Y16.018
X12.508 Y16.578
X12.252 Y17.158
X12.038 Y17.756
X11.876 Y18.369
X11.777 Y18.996
X11.759 Y19.63
X11.822 Y20.261
X11.955 Y20.882
X12.147 Y21.486
X12.386 Y22.074
X12.663 Y22.645
X12.972 Y23.199
X13.311 Y23.735
X13.678 Y24.253
X14.071 Y24.751
X14.492 Y25.225
X14.942 Y25.673
X15.419 Y26.091
X15.924 Y26.475
X16.456 Y26.82
X17.013 Y27.124
X17.592 Y27.384
X18.188 Y27.601
X18.798 Y27.774
X19.419 Y27.908
X20.046 Y28.004
X20.677 Y28.067
X21.311 Y28.099
X21.945 Y28.105
X22.579 Y28.089
X23.213 Y28.052
X23.845 Y27.998
X24.475 Y27.928
X25.104 Y27.843
X25.731 Y27.745
X26.355 Y27.633
X26.977 Y27.509
X27.597 Y27.372
X28.213 Y27.221
X28.826 Y27.059
X29.436 Y26.884
X30.042 Y26.694
X30.628 Y26.452
X31.144 Y26.082
X31.559 Y25.603
X31.87 Y25.05
X32.095 Y24.456
X32.253 Y23.842
X32.364 Y23.217
X32.439 Y22.587
X32.49 Y21.955
X32.524 Y21.321
X32.546 Y20.687
X32.561 Y20.053
X32.57 Y19.419
X32.576 Y18.784
X32.578 Y18.15
X32.561 Y17.516
X32.433 Y16.894
X32.158 Y16.322
X31.771 Y15.82
X31.303 Y15.391
X30.784 Y15.027
X30.232 Y14.714
X29.658 Y14.443
X29.07 Y14.204
X28.473 Y13.991
X27.868 Y13.799
X27.258 Y13.624
X26.644 Y13.465
X26.026 Y13.321
X25.406 Y13.19
X24.782 Y13.073
X24.156 Y12.97
X23.527 Y12.884
X22.897 Y12.816
X22.264 Y12.769
X21.63 Y12.748
X20.996 Y12.756
X20.362 Y12.798
X19.733 Y12.877
X19.11 Y12.995
X18.496 Y13.156
X17.895 Y13.361
X17.313 Y13.611
X16.752 Y13.907
X16.216 Y14.248
X15.71 Y14.63
X15.237 Y15.053
X14.8 Y15.513
X14.405 Y16.01
X14.053 Y16.537
X13.746 Y17.093
X13.49 Y17.673
X13.296 Y18.277
X13.185 Y18.902
X13.164 Y19.536
X13.229 Y20.167
X13.37 Y20.786
X13.572 Y21.387
X13.826 Y21.969
X14.122 Y22.53
X14.455 Y23.07
X14.824 Y23.586
X15.226 Y24.076
X15.663 Y24.536
X16.134 Y24.961
X16.638 Y25.347
X17.172 Y25.69
X17.733 Y25.985
X18.318 Y26.231
X18.921 Y26.428
X19.538 Y26.579
X20.162 Y26.688
X20.793 Y26.76
X21.426 Y26.8
X22.06 Y26.81
X22.695 Y26.796
X23.328 Y26.76
X23.96 Y26.704
X24.59 Y26.632
X25.219 Y26.543
X25.844 Y26.44
X26.468 Y26.322
X27.088 Y26.191
X27.706 Y26.045
X28.32 Y25.887
X28.929 Y25.708
X29.51 Y25.452
X30.007 Y25.059
X30.398 Y24.559
X30.688 Y23.994
X30.896 Y23.395
X31.042 Y22.778
X31.142 Y22.151
X31.211 Y21.52
X31.257 Y20.888
X31.287 Y20.254
X31.308 Y19.62
X31.319 Y18.986
X31.303 Y18.351
X31.166 Y17.732
X30.881 Y17.165
X30.48 Y16.673
X30.002 Y16.256
X29.474 Y15.905
X28.914 Y15.606
X28.334 Y15.35
X27.739 Y15.127
X27.136 Y14.931
X26.526 Y14.757
X25.911 Y14.602
X25.292 Y14.464
X24.669 Y14.343
X24.043 Y14.238
X23.414 Y14.153
X22.783 Y14.088
X22.15 Y14.049
X21.516 Y14.038
X20.882 Y14.062
X20.25 Y14.125
X19.625 Y14.233
X19.01 Y14.388
X18.41 Y14.593
X17.83 Y14.851
X17.276 Y15.161
X16.756 Y15.523
X16.273 Y15.935
X15.833 Y16.392
X15.441 Y16.891
X15.106 Y17.43
X14.841 Y18.006
X14.668 Y18.616
X14.601 Y19.247
X14.635 Y19.881
X14.757 Y20.503
X14.954 Y21.106
X15.213 Y21.686
X15.525 Y22.238
X15.884 Y22.761
X16.288 Y23.251
X16.735 Y23.701
X17.224 Y24.105
X17.751 Y24.458
X18.311 Y24.757
X18.897 Y25.001
X19.502 Y25.191
X20.121 Y25.331
X20.748 Y25.427
X21.38 Y25.484
X22.014 Y25.508
X22.648 Y25.503
X23.282 Y25.473
X23.914 Y25.422
X24.545 Y25.351
X25.173 Y25.263
X25.799 Y25.158
X26.421 Y25.037
X27.041 Y24.902
X27.657 Y24.747
X28.245 Y24.511
X28.752 Y24.129
X29.147 Y23.632
X29.44 Y23.07
X29.65 Y22.471
X29.797 Y21.854
X29.898 Y21.228
X29.967 Y20.597
X30.013 Y19.964
X30.026 Y19.33
X29.92 Y18.704
X29.655 Y18.128
X29.263 Y17.63
X28.786 Y17.211
X28.256 Y16.862
X27.692 Y16.571
X27.107 Y16.325
X26.509 Y16.115
X25.9 Y15.934
X25.286 Y15.778
X24.665 Y15.645
X24.041 Y15.532
X23.413 Y15.442
X22.782 Y15.377
X22.149 Y15.34
X21.514 Y15.338
X20.881 Y15.376
X20.252 Y15.461
X19.633 Y15.601
X19.031 Y15.8
X18.452 Y16.059
X17.906 Y16.383
X17.403 Y16.769
X16.952 Y17.215
X16.568 Y17.721
X16.283 Y18.287
X16.125 Y18.902
X16.096 Y19.536
X16.181 Y20.164
X16.365 Y20.772
X16.631 Y21.348
X16.967 Y21.886
X17.367 Y22.378
X17.827 Y22.815
X18.339 Y23.19
X18.892 Y23.501
X19.476 Y23.748
X20.083 Y23.933
X20.704 Y24.064
X21.333 Y24.147
X21.966 Y24.19
X22.6 Y24.199
X23.234 Y24.179
X23.867 Y24.133
X24.498 Y24.065
X25.126 Y23.977
X25.752 Y23.871
X26.374 Y23.746
X26.973 Y23.538
X27.49 Y23.17
X27.893 Y22.68
X28.191 Y22.12
X28.404 Y21.523
X28.553 Y20.906
X28.642 Y20.278
X28.588 Y19.646
X28.344 Y19.06
X27.921 Y18.587
X27.423 Y18.194
X26.877 Y17.87
X26.301 Y17.604
X25.706 Y17.384
X25.099 Y17.202
X24.482 Y17.051
X23.86 Y16.929
X23.232 Y16.837
X22.6 Y16.777
X21.966 Y16.753
X21.332 Y16.777
X20.703 Y16.857
X20.085 Y17.001
X19.49 Y17.22
X18.932 Y17.523
X18.434 Y17.915
X18.049 Y18.42
X17.841 Y19.019
X17.815 Y19.653
X17.95 Y20.273
X18.218 Y20.848
X18.601 Y21.354
X19.073 Y21.778
X19.609 Y22.117
X20.19 Y22.372
X20.798 Y22.553
X21.421 Y22.671
X22.052 Y22.738
X22.686 Y22.762
X23.32 Y22.751
X23.954 Y22.709
X24.584 Y22.642
X25.211 Y22.544
X25.807 Y22.326
X26.299 Y21.925
X26.67 Y21.41
X26.779 Y21.113
X26.796 Y20.796
X26.733 Y20.485
X26.484 Y19.901
X26.06 Y19.429
X25.544 Y19.061
X24.976 Y18.777
X24.38 Y18.56
X23.767 Y18.397
X23.143 Y18.282
X22.512 Y18.216
X21.878 Y18.204
X21.246 Y18.265
X20.629 Y18.413
X20.352 Y18.566
X20.244 Y18.683
X20.159 Y18.817
X20.129 Y18.89
X20.038 Y19.194
X20.042 Y19.273
X20.078 Y19.589
X20.195 Y19.883
X20.546 Y20.412
X20.61 Y20.459
X21.131 Y20.821
X21.72 Y21.057
X22.339 Y21.196
X22.97 Y21.262
X23.604 Y21.27
X23.683 Y21.261
X23.762 Y21.249
G3 X24.104 Y21.51 I0.036 J0.308
G1 X24.107 Y21.557 Z-0.796
X24.093 Y21.611 Z-0.782
X24.08 Y21.662 Z-0.757
X24.069 Y21.707 Z-0.724
X24.041 Y21.742 Z-0.675
X24.02 Y21.768 Z-0.618
X24.007 Y21.784 Z-0.556
X24.002 Y21.79 Z-0.49
G0 Z5
X-0.309 Y-3.631
Z-1.234
G1 Z-1.544 F1000
X-0.307 Y-3.624 Z-1.613
X-0.301 Y-3.601 Z-1.679
X-0.292 Y-3.566 Z-1.737
X-0.28 Y-3.518 Z-1.786
X-0.265 Y-3.461 Z-1.823
X-0.249 Y-3.398 Z-1.846
X-0.232 Y-3.331 Z-1.854
G3 X0.011 Y-1.643 I-7.667 J1.964
G1 Y-1.493
X-0.116 Y-0.872
X-0.192 Y-0.242
X-0.236 Y0.391
X-0.262 Y1.025
X-0.277 Y1.659
X-0.286 Y2.294
X-0.291 Y2.928
X-0.294 Y3.563
X-0.297 Y4.831
X-0.298 Y8.638
X-0.292 Y39.408
X-0.271 Y39.565
X-0.16 Y39.862
X0.035 Y40.113
X0.515 Y40.527
X1.093 Y40.789
X1.707 Y40.948
X2.334 Y41.044
X2.966 Y41.1
X3.6 Y41.134
X4.234 Y41.153
X4.868 Y41.164
X5.503 Y41.171
X6.137 Y41.175
X7.406 Y41.178
X8.04 Y41.179
X13.116 Y41.18
X43.569 Y41.179
X43.723 Y41.143
X44.011 Y41.011
X44.254 Y40.807
X44.656 Y40.316
X44.907 Y39.733
X45.061 Y39.118
X45.152 Y38.49
X45.206 Y37.858
X45.238 Y37.224
X45.256 Y36.59
X45.267 Y35.956
X45.272 Y35.321
X45.276 Y34.687
X45.278 Y33.418
Y30.88
X45.275 Y27.074
X45.254 Y1.379
X45.168 Y1.074
X44.987 Y0.813
X44.524 Y0.38
X43.952 Y0.105
X43.34 Y-0.063
X42.714 Y-0.163
X42.082 Y-0.223
X41.449 Y-0.258
X40.815 Y-0.278
X40.18 Y-0.29
X39.546 Y-0.297
X38.912 Y-0.301
X37.643 Y-0.304
X35.105 Y-0.305
X21.147 Y-0.301
X2.749 Y-0.295
X2.438 Y-0.231
X2.166 Y-0.068
X1.708 Y0.371
X1.411 Y0.931
X1.225 Y1.538
X1.111 Y2.162
X1.043 Y2.793
X1.002 Y3.426
X0.977 Y4.06
X0.963 Y4.694
X0.954 Y5.329
X0.949 Y5.963
X0.946 Y6.597
X0.944 Y7.866
X0.943 Y11.039
X0.946 Y30.706
X0.947 Y37.685
X0.963 Y38.001
X1.061 Y38.303
X1.225 Y38.575
X1.649 Y39.046
X2.195 Y39.371
X2.792 Y39.583
X3.412 Y39.719
X4.041 Y39.804
X4.673 Y39.857
X5.307 Y39.889
X5.941 Y39.909
X6.575 Y39.921
X7.21 Y39.929
X7.844 Y39.933
X8.478 Y39.936
X9.747 Y39.939
X13.554 Y39.94
X42.103 Y39.939
X42.405 Y39.841
X42.676 Y39.676
X43.147 Y39.251
X43.471 Y38.705
X43.684 Y38.108
X43.82 Y37.488
X43.905 Y36.859
X43.958 Y36.227
X43.99 Y35.594
X44.01 Y34.959
X44.022 Y34.325
X44.029 Y33.691
X44.033 Y33.056
X44.035 Y32.422
X44.037 Y31.153
X44.035 Y27.346
X44.016 Y3.238
X44.013 Y2.921
X43.929 Y2.615
X43.775 Y2.338
X43.364 Y1.854
X42.824 Y1.521
X42.229 Y1.302
X41.61 Y1.162
X40.981 Y1.074
X40.349 Y1.02
X39.716 Y0.986
X39.082 Y0.966
X38.447 Y0.953
X37.813 Y0.946
X37.179 Y0.941
X36.544 Y0.939
X35.275 Y0.936
X32.103
X30.834
X4.188 Y0.944
X3.883 Y1.03
X3.606 Y1.185
X3.121 Y1.594
X2.785 Y2.132
X2.563 Y2.727
X2.42 Y3.345
X2.329 Y3.973
X2.273 Y4.605
X2.238 Y5.238
X2.216 Y5.872
X2.203 Y6.506
X2.195 Y7.141
X2.19 Y7.775
X2.187 Y8.41
X2.184 Y9.679
X2.183 Y12.851
X2.184 Y15.701
X2.18 Y15.774
X2.169 Y15.845
X2.151 Y15.915
X2.132 Y15.979
X2.055 Y16.411
X1.739 Y18.302
X1.7 Y18.571
X1.68 Y18.715
X1.667 Y18.859
X1.654 Y19.579
X1.627 Y21.162
X1.634 Y21.594
X1.65 Y21.738
X1.935 Y23.898
X1.958 Y24.042
X1.984 Y24.186
X2.065 Y24.816
X2.116 Y25.448
X2.145 Y26.082
X2.162 Y26.716
X2.172 Y27.35
X2.178 Y27.985
X2.181 Y28.619
X2.184 Y29.888
X2.186 Y33.06
X2.187 Y36.232
X2.2 Y36.549
X2.272 Y36.858
X2.411 Y37.143
X2.794 Y37.649
X3.314 Y38.012
X3.899 Y38.257
X4.513 Y38.418
X5.139 Y38.522
X5.77 Y38.588
X6.403 Y38.63
X7.037 Y38.657
X7.671 Y38.673
X8.305 Y38.683
X8.94 Y38.69
X9.574 Y38.694
X10.843 Y38.698
X13.381 Y38.7
X15.86
X15.921 Y38.703
X15.981 Y38.71
X16.041 Y38.723
X16.875 Y38.937
X17.019 Y38.974
X17.163 Y38.998
X17.307 Y39.018
X19.47 Y39.243
X19.758 Y39.27
X19.902 Y39.28
X20.335 Y39.266
X22.209 Y39.183
X22.641 Y39.159
X22.785 Y39.147
X24.094 Y39.018
X24.515 Y38.972
X24.659 Y38.956
X25.236 Y38.882
X25.868 Y38.833
X26.5 Y38.777
X27.134 Y38.744
X27.768 Y38.726
X28.402 Y38.715
X29.037 Y38.708
X29.671 Y38.705
X30.94 Y38.701
X34.112 Y38.7
X40.456 Y38.699
X40.772 Y38.67
X41.073 Y38.569
X41.346 Y38.408
X41.828 Y37.995
X42.166 Y37.458
X42.394 Y36.866
X42.542 Y36.249
X42.638 Y35.622
X42.698 Y34.99
X42.736 Y34.357
X42.76 Y33.723
X42.775 Y33.089
X42.781 Y32.649
X42.789 Y32.551
X42.81 Y32.456
X42.844 Y32.364
X42.966 Y32.09
X43.015 Y31.962
X43.063 Y31.818
X43.1 Y31.674
X43.11 Y31.63
X43.161 Y31.386
X43.19 Y31.242
X43.216 Y31.098
X43.255 Y30.81
X43.273 Y30.666
X43.309 Y30.234
X43.337 Y29.802
X43.343 Y29.658
X43.359 Y29.226
X43.37 Y28.794
X43.391 Y27.354
X43.395 Y26.922
X43.398 Y25.892
X43.393 Y24.186
X43.371 Y19.723
X43.365 Y17.563
X43.359 Y14.107
X43.35 Y12.523
X43.346 Y12.091
X43.339 Y11.659
X43.327 Y11.227
X43.322 Y11.083
X43.305 Y10.651
X43.275 Y10.219
X43.244 Y9.931
X43.229 Y9.787
X43.207 Y9.643
X43.157 Y9.355
X43.128 Y9.211
X43.11 Y9.137
X42.991 Y8.514
X42.901 Y7.886
X42.849 Y7.253
X42.819 Y6.62
X42.802 Y5.985
X42.791 Y5.351
X42.785 Y4.717
X42.783 Y4.399
X42.726 Y4.087
X42.602 Y3.796
X42.241 Y3.274
X41.731 Y2.896
X41.151 Y2.639
X40.539 Y2.47
X39.914 Y2.361
X39.284 Y2.291
X38.651 Y2.247
X38.017 Y2.22
X37.383 Y2.202
X36.749 Y2.192
X36.114 Y2.185
X35.48 Y2.181
X34.211 Y2.178
X31.673 Y2.176
X25.997 Y2.178
X25.962 Y2.177
X25.926 Y2.174
X25.891 Y2.17
X25.091 Y2.051
X23.65 Y1.859
X23.218 Y1.803
X23.073 Y1.79
X20.911 Y1.621
X20.767 Y1.612
X20.479 Y1.605
X20.335 Y1.603
X18.028 Y1.766
X17.884 Y1.782
X17.596 Y1.823
X17.452 Y1.848
X17.365 Y1.867
X16.74 Y1.974
X16.112 Y2.062
X15.479 Y2.112
X14.845 Y2.141
X14.211 Y2.158
X13.577 Y2.168
X12.942 Y2.174
X12.308 Y2.177
X11.039 Y2.181
X7.867 Y2.183
X5.964 Y2.184
X5.647 Y2.186
X5.335 Y2.245
X5.044 Y2.371
X4.524 Y2.734
X4.147 Y3.245
X3.891 Y3.825
X3.721 Y4.437
X3.612 Y5.062
X3.541 Y5.692
X3.497 Y6.325
X3.469 Y6.959
X3.451 Y7.593
X3.44 Y8.227
X3.434 Y8.862
X3.429 Y9.496
X3.427 Y10.131
X3.424 Y11.399
Y12.273
X3.415 Y12.384
X3.39 Y12.492
X3.348 Y12.595
X3.097 Y13.099
X3.035 Y13.243
X2.893 Y13.614
X2.266 Y15.547
X2.151 Y15.915
X2.132 Y15.979
X2.055 Y16.411
X2.031 Y16.555
X2.009 Y16.687
X1.739 Y18.302
X1.721 Y18.427
X1.68 Y18.715
X1.667 Y18.859
X1.659 Y19.291
X1.627 Y21.162
X1.634 Y21.594
X1.65 Y21.738
X1.871 Y23.409
X1.935 Y23.898
X1.958 Y24.042
X1.984 Y24.186
X2.028 Y24.431
X2.702 Y26.778
X2.755 Y26.922
X2.866 Y27.21
X2.893 Y27.27
X2.99 Y27.515
X3.103 Y27.883
X3.22 Y28.411
X3.306 Y29.04
X3.356 Y29.672
X3.385 Y30.306
X3.402 Y30.94
X3.412 Y31.574
X3.418 Y32.209
X3.422 Y32.843
X3.425 Y34.112
X3.427 Y35.381
X3.532 Y35.68
X3.855 Y36.227
X4.341 Y36.634
X4.908 Y36.918
X5.513 Y37.109
X6.135 Y37.235
X6.764 Y37.317
X7.396 Y37.369
X8.03 Y37.403
X8.664 Y37.424
X9.298 Y37.437
X9.933 Y37.446
X10.567 Y37.451
X11.202 Y37.455
X12.265 Y37.457
X12.36 Y37.464
X12.455 Y37.483
X12.545 Y37.515
X14.136 Y38.189
X14.28 Y38.243
X14.569 Y38.337
X14.713 Y38.38
X16.041 Y38.723
X16.587 Y38.864
X16.802 Y38.918
X17.019 Y38.974
X17.163 Y38.998
X17.307 Y39.018
X19.326 Y39.228
X19.47 Y39.243
X19.758 Y39.27
X19.902 Y39.28
X20.335 Y39.266
X22.209 Y39.183
X22.353 Y39.175
X22.641 Y39.159
X22.785 Y39.147
X24.094 Y39.018
X24.227 Y39.004
X24.456 Y38.979
X24.515 Y38.972
X24.659 Y38.956
X25.236 Y38.882
X25.668 Y38.826
X25.956 Y38.788
X26.101 Y38.768
X26.677 Y38.678
X27.542 Y38.54
X27.974 Y38.464
X28.839 Y38.297
X28.983 Y38.268
X29.416 Y38.179
X30.281 Y37.983
X30.569 Y37.915
X30.775 Y37.866
X30.857 Y37.845
X31.002 Y37.807
X31.623 Y37.677
X32.25 Y37.585
X32.882 Y37.532
X33.516 Y37.502
X34.15 Y37.484
X34.785 Y37.474
X35.419 Y37.468
X36.054 Y37.464
X37.322 Y37.461
X39.226 Y37.46
X39.539 Y37.41
X39.835 Y37.296
X40.372 Y36.957
X40.767 Y36.461
X41.042 Y35.889
X41.225 Y35.282
X41.345 Y34.659
X41.421 Y34.049
X41.478 Y33.842
X41.595 Y33.661
X41.759 Y33.522
X41.813 Y33.489
X41.957 Y33.39
X42.101 Y33.284
X42.134 Y33.258
X42.245 Y33.161
X42.433 Y32.97
X42.533 Y32.859
X42.559 Y32.826
X42.665 Y32.682
X42.756 Y32.538
X42.822 Y32.413
X42.844 Y32.364
G3 X43.429 Y32.453 I0.278 J0.136
G1 X43.439 Y32.521 Z-1.846
X43.449 Y32.586 Z-1.823
X43.458 Y32.644 Z-1.786
X43.466 Y32.692 Z-1.737
X43.471 Y32.729 Z-1.679
X43.475 Y32.751 Z-1.613
X43.476 Y32.759 Z-1.544
G0 Z5
X30.111 Y38.433
Z-1.234
G1 Z-1.544 F1000
X30.117 Y38.428 Z-1.613
X30.133 Y38.411 Z-1.679
X30.159 Y38.385 Z-1.737
X30.193 Y38.35 Z-1.786
X30.234 Y38.308 Z-1.823
X30.28 Y38.262 Z-1.846
X30.329 Y38.212 Z-1.854
G3 X31.002 Y37.807 I1.127 J1.111
G1 X31.722 Y37.618
X31.87 Y37.578
X32.155 Y37.498
X32.299 Y37.457
X33.323 Y37.146
X33.452 Y37.106
X34.173 Y36.868
X34.611 Y36.714
X34.749 Y36.663
X35.103 Y36.552
X35.617 Y36.435
X36.244 Y36.345
X36.877 Y36.292
X37.51 Y36.262
X38.145 Y36.244
X38.448 Y36.152
X39.008 Y35.853
X39.432 Y35.382
X39.733 Y34.823
X39.776 Y34.717
X39.863 Y34.563
X39.984 Y34.435
X40.133 Y34.34
G3 X40.521 Y34.787 I0.124 J0.284
G1 X40.485 Y34.846 Z-1.846
X40.45 Y34.902 Z-1.823
X40.419 Y34.952 Z-1.786
X40.394 Y34.993 Z-1.737
X40.374 Y35.025 Z-1.679
X40.362 Y35.044 Z-1.613
X40.358 Y35.051 Z-1.544
G0 Z5
X33.924 Y37.373
Z-1.234
G1 Z-1.544 F1000
X33.929 Y37.367 Z-1.613
X33.944 Y37.349 Z-1.679
X33.967 Y37.32 Z-1.737
X33.998 Y37.282 Z-1.786
X34.035 Y37.236 Z-1.823
X34.076 Y37.185 Z-1.846
X34.119 Y37.132 Z-1.854
G3 X34.749 Y36.663 I1.23 J0.996
G1 X35.182 Y36.503
X35.614 Y36.34
X36.047 Y36.173
X36.483 Y35.994
X36.821 Y35.85
X37.921 Y35.376
X38.147 Y35.274
X38.497 Y35.113
X38.93 Y34.911
X39.939 Y34.433
X40.371 Y34.227
X40.804 Y34.023
X41.092 Y33.881
X41.236 Y33.809
X41.38 Y33.733
X41.72 Y33.546
X41.759 Y33.522
G0 Z5
X43.72 Y10.038
Z-1.234
G1 Z-1.544 F1000
X43.714 Y10.033 Z-1.613
X43.698 Y10.016 Z-1.679
X43.673 Y9.99 Z-1.737
X43.638 Y9.955 Z-1.786
X43.597 Y9.913 Z-1.823
X43.551 Y9.866 Z-1.846
X43.503 Y9.817 Z-1.854
G3 X43.11 Y9.137 I1.131 J-1.107
G1 X43.093 Y9.067
X43.053 Y8.923
X42.999 Y8.779
X42.838 Y8.413
X42.831 Y8.4
X42.678 Y8.176
X42.588 Y8.059
X42.533 Y7.993
X42.467 Y7.915
X42.361 Y7.778
X42.263 Y7.628
X42.157 Y7.433
X42.046 Y7.183
X41.93 Y6.854
X41.811 Y6.402
X41.699 Y5.777
X41.635 Y5.466
X41.517 Y5.172
X41.179 Y4.635
X40.687 Y4.234
X40.118 Y3.953
X39.513 Y3.764
X38.891 Y3.639
X38.262 Y3.558
X37.629 Y3.506
X36.996 Y3.472
X36.362 Y3.451
X35.728 Y3.438
X35.093 Y3.429
X34.459 Y3.424
X33.824 Y3.421
X32.555 Y3.418
X31.542 Y3.417
X31.473 Y3.414
X31.405 Y3.404
X31.338 Y3.387
X31.002 Y3.292
X30.857 Y3.251
X30.425 Y3.136
X30.281 Y3.099
X29.272 Y2.848
X28.983 Y2.779
X28.777 Y2.731
X28.263 Y2.617
X27.974 Y2.554
X27.542 Y2.47
X26.533 Y2.28
X26.101 Y2.202
X25.92 Y2.174
X25.891 Y2.17
G3 X25.677 Y2.033 I0.045 J-0.307
G2 X25.439 Y1.893 I-0.259 J0.17
G1 X25.202 Y1.877
X18.287 Y1.404
X18.223 Y1.406
X18.161 Y1.422
X18.104 Y1.449
X18.053 Y1.488
G3 X17.365 Y1.867 I-1.085 J-1.152
G1 X15.145 Y2.361
X14.713 Y2.505
X14.495 Y2.587
X13.56 Y2.947
X13.179 Y3.072
X12.698 Y3.188
X12.071 Y3.286
X11.439 Y3.343
X10.805 Y3.376
X10.171 Y3.396
X9.537 Y3.407
X8.903 Y3.414
X8.268 Y3.418
X6.999 Y3.422
X6.686 Y3.47
X6.389 Y3.583
X5.852 Y3.921
X5.456 Y4.416
X5.182 Y4.988
X4.998 Y5.595
X4.878 Y6.218
X4.8 Y6.848
X4.75 Y7.48
X4.718 Y8.114
X4.697 Y8.748
X4.685 Y9.382
X4.677 Y9.962
X4.661 Y10.105
X4.617 Y10.242
X4.547 Y10.367
X4.334 Y10.672
X4.251 Y10.795
X4.03 Y11.227
X3.348 Y12.595
G3 X2.767 Y12.481 I-0.273 J-0.148
G1 X2.76 Y12.413 Z-1.846
X2.752 Y12.348 Z-1.823
X2.746 Y12.289 Z-1.786
X2.74 Y12.241 Z-1.737
X2.736 Y12.204 Z-1.679
X2.734 Y12.181 Z-1.613
X2.733 Y12.173 Z-1.544
G0 Z5
X14.375 Y2.226
Z-1.234
G1 Z-1.544 F1000
X14.371 Y2.232 Z-1.613
X14.356 Y2.25 Z-1.679
X14.334 Y2.279 Z-1.737
X14.303 Y2.318 Z-1.786
X14.267 Y2.364 Z-1.823
X14.226 Y2.416 Z-1.846
X14.184 Y2.47 Z-1.854
G3 X13.56 Y2.947 I-1.243 J-0.979
G1 X12.695 Y3.279
X12.406 Y3.401
X12.295 Y3.451
X11.397 Y3.959
X11.128 Y4.094
X10.852 Y4.206
X10.484 Y4.322
X9.959 Y4.442
X9.331 Y4.533
X8.699 Y4.586
X8.065 Y4.618
X7.763 Y4.715
X7.207 Y5.02
X6.785 Y5.494
X6.487 Y6.054
X6.285 Y6.655
X6.15 Y7.275
X6.062 Y7.903
X6.046 Y8.084
X6.018 Y8.228
X5.962 Y8.362
X5.88 Y8.483
G0 Z5
X12.098 Y3.126
Z-1.234
G1 Z-1.544 F1000
X12.094 Y3.133 Z-1.613
X12.082 Y3.152 Z-1.679
X12.064 Y3.185 Z-1.737
X12.04 Y3.227 Z-1.786
X12.011 Y3.278 Z-1.823
X11.978 Y3.335 Z-1.846
X11.944 Y3.395 Z-1.854
G3 X11.397 Y3.959 I-1.374 J-0.785
G1 X10.1 Y4.694
X9.956 Y4.782
X9.668 Y5.004
X9.407 Y5.185
X8.859 Y5.503
X8.374 Y5.913
X8.259 Y6.069
X8.218 Y6.121
X8.172 Y6.168
X8.121 Y6.211
G3 X7.748 Y5.716 I-0.182 J-0.251
G1 X9.279 Y4.521
G3 X9.668 Y5.004 I0.191 J0.244
G1 X9.441 Y5.179
X8.082 Y6.242
X7.938 Y6.361
X7.794 Y6.482
X7.649 Y6.611
X5.92 Y8.436
X5.874 Y8.491
X5.763 Y8.635
X5.658 Y8.779
X4.547 Y10.367
G3 X3.989 Y10.17 I-0.248 J-0.186
G1 X3.992 Y10.101 Z-1.846
X3.994 Y10.035 Z-1.823
X3.996 Y9.976 Z-1.786
X3.998 Y9.927 Z-1.737
X3.999 Y9.89 Z-1.679
X4 Y9.868 Z-1.613
X4.001 Y9.86 Z-1.544
G0 Z5
X2.124 Y26.5
Z-1.234
G1 Z-1.544 F1000
X2.13 Y26.504 Z-1.613
X2.149 Y26.517 Z-1.679
X2.179 Y26.538 Z-1.737
X2.219 Y26.566 Z-1.786
X2.268 Y26.6 Z-1.823
X2.322 Y26.637 Z-1.846
X2.378 Y26.676 Z-1.854
G3 X2.893 Y27.27 I-0.902 J1.301
G1 X3.786 Y29.226
X3.855 Y29.37
X3.929 Y29.514
X4.01 Y29.658
X4.083 Y29.789
X4.194 Y30.054
X4.309 Y30.408
X4.429 Y30.905
X4.526 Y31.532
X4.584 Y32.164
X4.617 Y32.798
X4.638 Y33.432
X4.65 Y34.066
X4.743 Y34.369
X5.046 Y34.927
X5.52 Y35.348
X6.081 Y35.644
X6.683 Y35.844
X7.304 Y35.977
X7.932 Y36.064
X8.564 Y36.12
X9.197 Y36.156
X9.831 Y36.179
X9.958 Y36.182
X10.084 Y36.196
X10.205 Y36.232
X10.319 Y36.288
X11.72 Y37.146
X11.83 Y37.207
X12.118 Y37.332
X12.406 Y37.456
X12.545 Y37.515
G3 X12.468 Y38.101 I-0.131 J0.281
G1 X12.4 Y38.113 Z-1.846
X12.335 Y38.124 Z-1.823
X12.277 Y38.134 Z-1.786
X12.229 Y38.143 Z-1.737
X12.193 Y38.149 Z-1.679
X12.17 Y38.153 Z-1.613
X12.162 Y38.154 Z-1.544
G0 Z5
X3.135 Y29.01
Z-1.234
G1 Z-1.544 F1000
X3.142 Y29.013 Z-1.613
X3.163 Y29.023 Z-1.679
X3.196 Y29.04 Z-1.737
X3.24 Y29.061 Z-1.786
X3.293 Y29.087 Z-1.823
X3.352 Y29.116 Z-1.846
X3.413 Y29.147 Z-1.854
G3 X4.01 Y29.658 I-0.7 J1.419
G1 X5.133 Y31.386
X5.233 Y31.558
X5.345 Y31.792
X5.463 Y32.101
X5.642 Y32.709
X5.739 Y33.011
X6.03 Y33.575
X6.489 Y34.014
X7.038 Y34.33
X7.634 Y34.549
X7.99 Y34.635
X8.096 Y34.669
X8.195 Y34.719
X8.286 Y34.784
G3 X8.04 Y35.322 I-0.207 J0.231
G1 X7.971 Y35.313 Z-1.846
X7.906 Y35.305 Z-1.823
X7.848 Y35.298 Z-1.786
X7.799 Y35.292 Z-1.737
X7.763 Y35.287 Z-1.679
X7.74 Y35.285 Z-1.613
X7.732 Y35.284 Z-1.544
G0 Z5
X4.259 Y30.738
Z-1.234
G1 Z-1.544 F1000
X4.266 Y30.741 Z-1.613
X4.286 Y30.752 Z-1.679
X4.319 Y30.768 Z-1.737
X4.363 Y30.79 Z-1.786
X4.416 Y30.815 Z-1.823
X4.475 Y30.844 Z-1.846
X4.537 Y30.875 Z-1.854
G3 X5.133 Y31.386 I-0.699 J1.42
G1 X5.227 Y31.53
X5.429 Y31.818
X5.531 Y31.962
X7.189 Y33.834
X7.217 Y33.862
X7.505 Y34.124
X7.667 Y34.266
X9.091 Y35.458
X9.39 Y35.706
X9.523 Y35.8
X10.1 Y36.155
X10.319 Y36.288
G3 X10.155 Y36.857 I-0.171 J0.259
G1 X10.086 Y36.859 Z-1.846
X10.021 Y36.86 Z-1.823
X9.962 Y36.862 Z-1.786
X9.913 Y36.863 Z-1.737
X9.876 Y36.864 Z-1.679
X9.853 Z-1.613
X9.845 Z-1.544
G0 Z5
X43.42 Y8.442
Z-1.234
G1 Z-1.544 F1000
X43.412 Y8.439 Z-1.613
X43.39 Y8.432 Z-1.679
X43.355 Y8.42 Z-1.737
X43.309 Y8.404 Z-1.786
X43.253 Y8.386 Z-1.823
X43.191 Y8.365 Z-1.846
X43.126 Y8.343 Z-1.854
G3 X42.467 Y7.915 I0.505 J-1.5
G1 X42.389 Y7.825
X42.334 Y7.771
X42.245 Y7.688
X42.169 Y7.627
X42.101 Y7.578
X41.957 Y7.483
X41.813 Y7.389
X41.725 Y7.339
X41.595 Y7.264
X41.483 Y7.164
X41.367 Y7.043
X40.969 Y6.549
X40.586 Y6.043
X40.102 Y5.633
X39.547 Y5.325
X38.951 Y5.107
X38.335 Y4.955
X37.709 Y4.853
X37.078 Y4.784
X36.446 Y4.739
X35.812 Y4.709
X35.382 Y4.696
X35.306 Y4.69
X35.231 Y4.676
X35.158 Y4.654
G3 X35.204 Y4.064 I0.115 J-0.288
G1 X35.271 Y4.048 Z-1.846
X35.335 Y4.034 Z-1.823
X35.392 Y4.021 Z-1.786
X35.44 Y4.009 Z-1.737
X35.476 Y4.001 Z-1.679
X35.498 Y3.996 Z-1.613
X35.506 Y3.994 Z-1.544
G0 Z5
X42.806 Y7.47
Z-1.234
G1 Z-1.544 F1000
X42.798 Z-1.613
X42.775 Y7.471 Z-1.679
X42.738 Y7.474 Z-1.737
X42.689 Y7.477 Z-1.786
X42.63 Y7.48 Z-1.823
X42.565 Y7.484 Z-1.846
X42.496 Y7.488 Z-1.854
G3 X41.725 Y7.339 I-0.095 J-1.58
G1 X41.38 Y7.161
X41.236 Y7.092
X40.948 Y6.968
X40.804 Y6.907
X39.75 Y6.475
X37.488 Y5.548
X36.047 Y4.98
X35.326 Y4.715
X33.74 Y4.144
X33.596 Y4.094
X33.164 Y3.949
X32.587 Y3.765
X32.299 Y3.675
X31.722 Y3.501
X31.338 Y3.387
G3 X31.138 Y3.006 I0.098 J-0.294
G1 X31.166 Y2.96 Z-1.849
X31.192 Y2.915 Z-1.835
X31.217 Y2.873 Z-1.812
X31.261 Y2.847 Z-1.773
X31.298 Y2.825 Z-1.725
X31.325 Y2.809 Z-1.67
X31.342 Y2.799 Z-1.608
X31.348 Y2.796 Z-1.544
G0 Z5
X41.98 Y35.746
Z-1.134
G1 Z-1.444 F1000
X41.976 Y35.739 Z-1.513
X41.966 Y35.718 Z-1.579
X41.95 Y35.685 Z-1.637
X41.929 Y35.641 Z-1.686
X41.903 Y35.588 Z-1.723
X41.875 Y35.529 Z-1.746
X41.844 Y35.467 Z-1.754
G3 X41.271 Y33.861 I7.123 J-3.449
G1 X41.263 Y33.82
X41.276 Y33.781
X41.306 Y33.753
X41.38 Y33.714
X41.683 Y33.546
X41.813 Y33.469
X41.957 Y33.371
X42.105 Y33.258
X42.245 Y33.136
X42.409 Y32.97
X42.536 Y32.826
X42.646 Y32.682
X42.736 Y32.538
X42.81 Y32.394
X42.966 Y32.046
X43.041 Y31.818
X43.084 Y31.674
X43.115 Y31.53
X43.173 Y31.242
X43.199 Y31.098
X43.254 Y30.667
X43.293 Y30.234
X43.317 Y29.802
X43.323 Y29.658
X43.334 Y29.226
X43.374 Y26.346
X43.378 Y25.914
X43.38 Y25.482
X43.375 Y24.186
X43.353 Y19.723
X43.346 Y16.411
X43.342 Y14.395
X43.334 Y12.667
X43.329 Y12.091
X43.317 Y11.515
X43.309 Y11.227
X43.305 Y11.083
X43.287 Y10.651
X43.254 Y10.184
X43.211 Y9.787
X43.19 Y9.643
X43.141 Y9.355
X43.11 Y9.203
X43.077 Y9.067
X43.032 Y8.923
X42.981 Y8.779
X42.924 Y8.635
X42.822 Y8.422
X42.771 Y8.347
X42.67 Y8.203
X42.559 Y8.059
X42.533 Y8.027
X42.441 Y7.915
X42.389 Y7.855
X42.307 Y7.771
X42.245 Y7.712
X42.138 Y7.627
X42.101 Y7.6
X41.957 Y7.502
X41.813 Y7.409
X41.687 Y7.339
X41.38 Y7.18
X41.236 Y7.111
X40.948 Y6.987
X40.757 Y6.907
X40.227 Y6.689
X37.777 Y5.687
X37.488 Y5.569
X36.768 Y5.283
X36.623 Y5.227
X36.479 Y5.172
X34.141 Y4.315
X33.308 Y4.016
X33.164 Y3.965
X32.587 Y3.78
X32.299 Y3.692
X31.578 Y3.48
X30.857 Y3.27
X30.425 Y3.153
X30.281 Y3.115
X29.848 Y3.008
X29.128 Y2.835
X28.407 Y2.665
X27.974 Y2.571
X27.542 Y2.488
X26.821 Y2.354
X26.101 Y2.222
X25.956 Y2.198
X25.668 Y2.152
X25.524 Y2.13
X25.091 Y2.069
X23.579 Y1.867
X23.218 Y1.821
X23.073 Y1.808
X20.911 Y1.639
X20.767 Y1.63
X20.479 Y1.623
X20.335 Y1.621
X18.028 Y1.783
X17.884 Y1.8
X17.596 Y1.841
X17.447 Y1.867
X15.145 Y2.379
X14.713 Y2.524
X14.544 Y2.587
X12.839 Y3.243
X12.676 Y3.307
X12.335 Y3.451
X12.262 Y3.49
X10.244 Y4.632
X10.1 Y4.715
X9.956 Y4.803
X9.47 Y5.179
X8.082 Y6.265
X7.938 Y6.383
X7.794 Y6.503
X7.666 Y6.619
X6.028 Y8.347
X5.92 Y8.462
X5.776 Y8.649
X5.679 Y8.779
X4.471 Y10.507
X4.334 Y10.704
X4.272 Y10.795
X4.046 Y11.234
X3.117 Y13.099
X3.054 Y13.243
X2.943 Y13.531
X2.891 Y13.675
X2.285 Y15.547
X2.15 Y15.979
X2.073 Y16.411
X1.761 Y18.283
X1.739 Y18.427
X1.698 Y18.715
X1.685 Y18.859
X1.672 Y19.579
X1.645 Y21.162
X1.651 Y21.594
X1.668 Y21.738
X1.953 Y23.898
X1.975 Y24.042
X2.028 Y24.33
X2.058 Y24.474
X2.72 Y26.778
X2.748 Y26.857
X2.828 Y27.066
X2.885 Y27.21
X3.805 Y29.226
X3.902 Y29.42
X3.95 Y29.514
X4.03 Y29.658
X5.199 Y31.455
X5.248 Y31.53
X5.554 Y31.962
X7.217 Y33.839
X7.505 Y34.102
X7.528 Y34.122
X7.649 Y34.228
X9.07 Y35.418
X9.419 Y35.706
X9.523 Y35.778
X9.956 Y36.046
X11.755 Y37.146
X11.83 Y37.187
X12.262 Y37.375
X14.136 Y38.17
X14.28 Y38.224
X14.569 Y38.318
X14.713 Y38.362
X16.731 Y38.882
X17.019 Y38.956
X17.163 Y38.977
X17.452 Y39.015
X19.47 Y39.225
X19.758 Y39.253
X19.902 Y39.262
X20.335 Y39.249
X22.28 Y39.162
X22.641 Y39.141
X22.785 Y39.13
X23.506 Y39.057
X24.515 Y38.951
X24.659 Y38.936
X25.091 Y38.885
X25.524 Y38.83
X25.668 Y38.809
X26.245 Y38.723
X27.11 Y38.59
X27.542 Y38.52
X27.974 Y38.447
X28.407 Y38.363
X28.983 Y38.245
X29.848 Y38.063
X30.281 Y37.966
X30.425 Y37.932
X30.713 Y37.862
X30.857 Y37.826
X31.29 Y37.712
X32.299 Y37.433
X32.731 Y37.31
X33.164 Y37.179
X33.308 Y37.134
X33.596 Y37.04
X33.74 Y36.991
X34.749 Y36.638
X35.038 Y36.536
X35.182 Y36.484
X35.614 Y36.323
X35.903 Y36.212
X36.047 Y36.155
X37.344 Y35.603
X37.921 Y35.355
X38.209 Y35.226
X38.497 Y35.093
X39.945 Y34.41
X40.854 Y33.978
X41.236 Y33.79
X41.306 Y33.753
X41.372 Y33.73
X41.441 Y33.722
X41.442
G3 X41.715 Y33.886 I0 J0.31
G1 X41.728 Y33.936 Z-1.749
X41.74 Y33.986 Z-1.736
X41.752 Y34.032 Z-1.714
X41.74 Y34.078 Z-1.681
X41.73 Y34.117 Z-1.639
X41.722 Y34.148 Z-1.591
X41.716 Y34.17 Z-1.537
X41.713 Y34.181 Z-1.48
X41.712 Y34.183 Z-1.444
G0 Z5
X41.982 Y35.725
Z-1.034
G1 Z-1.344 F1000
X41.979 Y35.718 Z-1.413
X41.969 Y35.697 Z-1.479
X41.953 Y35.664 Z-1.537
X41.931 Y35.62 Z-1.586
X41.906 Y35.567 Z-1.623
X41.877 Y35.508 Z-1.646
X41.847 Y35.446 Z-1.654
G3 X41.271 Y33.841 I7.118 J-3.459
G1 X41.263 Y33.8
X41.276 Y33.761
X41.306 Y33.733
X41.386 Y33.69
X41.669 Y33.533
X41.813 Y33.448
X41.957 Y33.351
X42.101 Y33.236
X42.245 Y33.111
X42.389 Y32.966
X42.513 Y32.826
X42.624 Y32.682
X42.678 Y32.6
X42.716 Y32.538
X42.79 Y32.394
X42.918 Y32.106
X42.966 Y31.984
X43.066 Y31.674
X43.099 Y31.53
X43.155 Y31.242
X43.18 Y31.098
X43.235 Y30.666
X43.276 Y30.234
X43.288 Y29.946
X43.294 Y29.802
X43.297 Y29.658
X43.357 Y25.338
X43.36 Y25.05
Y24.762
X43.335 Y19.579
X43.325 Y14.539
X43.314 Y12.379
X43.312 Y12.091
X43.29 Y11.227
X43.286 Y11.083
X43.269 Y10.651
X43.239 Y10.219
X43.209 Y9.931
X43.194 Y9.787
X43.173 Y9.643
X43.11 Y9.269
X43.096 Y9.211
X43.056 Y9.067
X43.01 Y8.923
X42.96 Y8.779
X42.907 Y8.635
X42.822 Y8.466
X42.746 Y8.347
X42.642 Y8.203
X42.529 Y8.059
X42.413 Y7.915
X42.389 Y7.887
X42.281 Y7.771
X42.245 Y7.737
X42.101 Y7.622
X41.957 Y7.521
X41.813 Y7.428
X41.649 Y7.339
X41.37 Y7.195
X41.236 Y7.131
X41.051 Y7.051
X40.804 Y6.946
X40.227 Y6.708
X37.488 Y5.59
X37.056 Y5.419
X36.768 Y5.312
X33.164 Y3.992
X32.731 Y3.842
X32.443 Y3.755
X30.857 Y3.292
X30.398 Y3.163
X30.281 Y3.133
X29.272 Y2.892
X28.407 Y2.687
X27.966 Y2.587
X27.254 Y2.455
X26.101 Y2.244
X25.593 Y2.155
X25.524 Y2.145
X23.445 Y1.867
X23.218 Y1.839
X23.073 Y1.826
X20.911 Y1.657
X20.767 Y1.647
X20.479 Y1.641
X20.335 Y1.638
X18.028 Y1.801
X17.884 Y1.817
X17.533 Y1.867
X17.452 Y1.884
X15.145 Y2.397
X14.713 Y2.542
X14.569 Y2.597
X12.839 Y3.261
X12.695 Y3.32
X12.383 Y3.451
X12.262 Y3.51
X10.244 Y4.653
X10.083 Y4.747
X9.956 Y4.825
X9.498 Y5.179
X8.082 Y6.287
X8.027 Y6.331
X7.794 Y6.524
X7.691 Y6.619
X7.28 Y7.051
X6.052 Y8.347
X5.92 Y8.493
X5.776 Y8.68
X5.701 Y8.779
X4.593 Y10.363
X4.294 Y10.795
X4.19 Y10.993
X4.046 Y11.272
X3.136 Y13.099
X3.074 Y13.243
X2.962 Y13.531
X2.91 Y13.675
X2.303 Y15.547
X2.168 Y15.979
X2.091 Y16.411
X1.778 Y18.283
X1.756 Y18.427
X1.715 Y18.715
X1.702 Y18.859
X1.689 Y19.579
X1.663 Y21.162
X1.669 Y21.594
X1.686 Y21.738
X1.971 Y23.898
X1.993 Y24.042
X2.046 Y24.33
X2.076 Y24.474
X2.739 Y26.778
X2.748 Y26.809
X2.844 Y27.066
X2.893 Y27.185
X3.824 Y29.226
X3.971 Y29.514
X4.046 Y29.65
X5.199 Y31.423
X5.27 Y31.53
X5.578 Y31.962
X7.236 Y33.834
X7.393 Y33.978
X7.553 Y34.122
X7.649 Y34.205
X8.947 Y35.292
X9.235 Y35.53
X9.449 Y35.706
X9.523 Y35.757
X9.956 Y36.025
X11.686 Y37.083
X11.79 Y37.146
X11.83 Y37.167
X12.262 Y37.356
X14.144 Y38.154
X14.28 Y38.205
X14.569 Y38.3
X14.713 Y38.344
X16.769 Y38.874
X17.019 Y38.938
X17.163 Y38.959
X17.452 Y38.996
X17.645 Y39.018
X19.47 Y39.208
X19.758 Y39.235
X19.902 Y39.245
X20.335 Y39.231
X22.209 Y39.148
X22.641 Y39.123
X22.785 Y39.111
X24.371 Y38.944
X25.091 Y38.868
X25.524 Y38.809
X25.812 Y38.766
X27.542 Y38.501
X27.903 Y38.442
X27.974 Y38.429
X28.61 Y38.298
X30.281 Y37.947
X30.425 Y37.914
X30.713 Y37.842
X30.857 Y37.805
X32.731 Y37.287
X33.164 Y37.162
X33.219 Y37.146
X33.308 Y37.116
X35.47 Y36.357
X35.614 Y36.305
X35.903 Y36.19
X36.047 Y36.13
X37.921 Y35.333
X38.209 Y35.207
X38.93 Y34.868
X40.371 Y34.187
X40.81 Y33.978
X41.178 Y33.799
X41.236 Y33.77
X41.306 Y33.733
G3 X41.716 Y33.864 I0.137 J0.278
G1 X41.728 Y33.915 Z-1.649
X41.741 Y33.965 Z-1.636
X41.753 Y34.011 Z-1.614
X41.74 Y34.059 Z-1.579
X41.73 Y34.099 Z-1.535
X41.722 Y34.13 Z-1.483
X41.717 Y34.151 Z-1.427
X41.714 Y34.161 Z-1.367
Z-1.344
G0 Z5
X41.99 Y35.687
Z-0.934
G1 Z-1.244 F1000
X41.987 Y35.68 Z-1.313
X41.976 Y35.659 Z-1.379
X41.96 Y35.626 Z-1.437
X41.939 Y35.582 Z-1.486
X41.913 Y35.529 Z-1.523
X41.884 Y35.47 Z-1.546
X41.853 Y35.408 Z-1.554
G3 X41.272 Y33.806 I7.105 J-3.486
G1 X41.263 Y33.765
X41.276 Y33.726
X41.306 Y33.698
X41.524 Y33.577
X41.669 Y33.497
X41.813 Y33.411
X41.957 Y33.31
X42.199 Y33.114
X42.389 Y32.925
X42.47 Y32.826
X42.58 Y32.682
X42.679 Y32.538
X42.759 Y32.394
X42.822 Y32.275
X42.833 Y32.25
X42.89 Y32.106
X42.94 Y31.962
X43.03 Y31.674
X43.07 Y31.53
X43.124 Y31.242
X43.148 Y31.098
X43.203 Y30.666
X43.242 Y30.234
X43.265 Y29.802
X43.269 Y29.658
X43.327 Y25.482
X43.329 Y24.906
X43.323 Y23.61
X43.304 Y19.723
X43.293 Y14.395
X43.284 Y12.523
X43.279 Y12.091
X43.262 Y11.371
X43.254 Y11.079
X43.237 Y10.651
X43.207 Y10.219
X43.178 Y9.931
X43.163 Y9.787
X43.142 Y9.643
X43.093 Y9.355
X43.064 Y9.211
X42.966 Y8.89
X42.928 Y8.779
X42.872 Y8.635
X42.794 Y8.491
X42.703 Y8.347
X42.678 Y8.311
X42.596 Y8.203
X42.483 Y8.059
X42.389 Y7.945
X42.215 Y7.754
X42.198 Y7.737
X41.957 Y7.557
X41.813 Y7.464
X41.669 Y7.385
X41.38 Y7.235
X41.302 Y7.195
X41.092 Y7.101
X40.804 Y6.98
X40.227 Y6.742
X37.921 Y5.801
X37.488 Y5.627
X36.768 Y5.34
X36.623 Y5.287
X33.578 Y4.171
X33.164 Y4.022
X32.731 Y3.875
X32.443 Y3.788
X30.857 Y3.324
X30.713 Y3.284
X30.425 Y3.204
X30.271 Y3.163
X29.848 Y3.059
X28.407 Y2.717
X27.974 Y2.624
X27.542 Y2.539
X27.254 Y2.485
X26.101 Y2.273
X25.956 Y2.249
X25.524 Y2.179
X25.091 Y2.116
X23.65 Y1.923
X23.218 Y1.869
X22.785 Y1.831
X21.92 Y1.763
X20.911 Y1.684
X20.767 Y1.676
X20.335 Y1.674
X20.19 Y1.677
X19.902 Y1.696
X18.461 Y1.798
X18.028 Y1.831
X17.884 Y1.848
X17.596 Y1.891
X17.452 Y1.913
X17.307 Y1.944
X15.434 Y2.361
X15.289 Y2.394
X15.12 Y2.443
X14.857 Y2.524
X14.713 Y2.571
X14.28 Y2.737
X12.796 Y3.307
X12.695 Y3.347
X12.551 Y3.412
X12.171 Y3.595
X12.118 Y3.623
X10.387 Y4.603
X10.244 Y4.685
X10.1 Y4.78
X9.935 Y4.891
X9.812 Y4.976
X9.729 Y5.035
X9.523 Y5.194
X8.07 Y6.331
X7.938 Y6.443
X7.594 Y6.763
X7.217 Y7.158
X6.09 Y8.347
X6.064 Y8.376
X5.969 Y8.491
X5.739 Y8.779
X5.631 Y8.926
X4.478 Y10.575
X4.428 Y10.651
X4.334 Y10.808
X4.175 Y11.083
X4.099 Y11.227
X3.311 Y12.811
X3.17 Y13.099
X3.108 Y13.243
X2.994 Y13.531
X2.941 Y13.675
X2.846 Y13.963
X2.286 Y15.691
X2.246 Y15.835
X2.212 Y15.979
X2.146 Y16.267
X2.119 Y16.411
X1.806 Y18.283
X1.784 Y18.427
X1.764 Y18.571
X1.731 Y19.003
X1.724 Y19.147
X1.69 Y21.162
Y21.306
X1.699 Y21.45
X1.721 Y21.738
X1.733 Y21.882
X1.789 Y22.314
X1.999 Y23.898
X2.02 Y24.042
X2.028 Y24.092
X2.081 Y24.33
X2.148 Y24.618
X2.188 Y24.762
X2.644 Y26.346
X2.772 Y26.778
X2.826 Y26.922
X2.939 Y27.21
X3.002 Y27.354
X3.263 Y27.93
X3.855 Y29.226
X3.902 Y29.319
X3.929 Y29.37
X4.095 Y29.658
X4.179 Y29.802
X4.478 Y30.263
X5.343 Y31.593
X5.401 Y31.674
X5.487 Y31.786
X5.631 Y31.967
X5.743 Y32.106
X7.147 Y33.69
X7.217 Y33.766
X7.287 Y33.834
X7.597 Y34.122
X7.649 Y34.168
X9.235 Y35.497
X9.317 Y35.562
X9.379 Y35.61
X9.731 Y35.85
X9.812 Y35.904
X11.606 Y37.002
X11.686 Y37.047
X11.83 Y37.121
X12.18 Y37.29
X12.262 Y37.326
X14.136 Y38.119
X14.221 Y38.154
X14.671 Y38.298
X15.145 Y38.426
X16.731 Y38.835
X16.884 Y38.874
X17.019 Y38.901
X17.452 Y38.966
X17.596 Y38.983
X19.614 Y39.194
X19.758 Y39.201
X19.902 Y39.205
X20.335 Y39.202
X22.209 Y39.119
X22.641 Y39.093
X22.785 Y39.081
X23.393 Y39.018
X24.659 Y38.883
X25.091 Y38.832
X25.524 Y38.774
X25.956 Y38.712
X26.389 Y38.646
X27.398 Y38.492
X27.542 Y38.469
X27.974 Y38.394
X29.848 Y38.001
X30.281 Y37.907
X30.569 Y37.842
X30.713 Y37.809
X30.857 Y37.775
X32.731 Y37.257
X33.164 Y37.13
X33.308 Y37.082
X35.47 Y36.325
X35.591 Y36.282
X35.937 Y36.138
X37.488 Y35.478
X38.065 Y35.23
X38.353 Y35.103
X38.497 Y35.038
X40.371 Y34.153
X41.036 Y33.834
X41.092 Y33.807
X41.275 Y33.715
X41.306 Y33.698
G3 X41.714 Y33.835 I0.133 J0.28
G1 X41.727 Y33.884 Z-1.55
X41.738 Y33.933 Z-1.537
X41.75 Y33.978 Z-1.516
X41.736 Y34.032 Z-1.476
X41.724 Y34.077 Z-1.424
X41.716 Y34.109 Z-1.363
X41.711 Y34.128 Z-1.297
X41.709 Y34.132 Z-1.244
G0 Z5
X41.999 Y35.641
Z-0.834
G1 Z-1.144 F1000
X41.995 Y35.634 Z-1.213
X41.985 Y35.613 Z-1.279
X41.969 Y35.58 Z-1.337
X41.947 Y35.536 Z-1.386
X41.921 Y35.484 Z-1.423
X41.892 Y35.425 Z-1.446
X41.862 Y35.363 Z-1.454
G3 X41.278 Y33.761 I7.101 J-3.494
G1 X41.27 Y33.72
X41.283 Y33.681
X41.313 Y33.653
X41.38 Y33.617
X41.761 Y33.402
X41.813 Y33.368
X41.959 Y33.258
X42.139 Y33.114
X42.245 Y33.021
X42.296 Y32.97
X42.389 Y32.867
X42.631 Y32.538
X42.678 Y32.462
X42.793 Y32.25
X42.852 Y32.106
X42.903 Y31.962
X42.993 Y31.674
X43.033 Y31.53
X43.065 Y31.386
X43.09 Y31.242
X43.112 Y31.098
X43.149 Y30.81
X43.167 Y30.666
X43.2 Y30.234
X43.229 Y29.802
X43.236 Y29.658
X43.245 Y29.37
X43.248 Y29.226
X43.271 Y27.498
X43.293 Y25.914
X43.291 Y24.762
X43.286 Y23.466
X43.269 Y20.01
X43.264 Y18.283
X43.257 Y14.539
X43.253 Y13.387
X43.248 Y12.523
X43.229 Y11.515
X43.222 Y11.227
X43.218 Y11.083
X43.2 Y10.651
X43.168 Y10.219
X43.127 Y9.787
X43.11 Y9.662
X43.083 Y9.499
X43.059 Y9.355
X43.023 Y9.211
X42.939 Y8.923
X42.889 Y8.779
X42.829 Y8.635
X42.746 Y8.491
X42.678 Y8.382
X42.653 Y8.347
X42.533 Y8.191
X42.389 Y8.005
X42.312 Y7.915
X42.245 Y7.84
X42.179 Y7.771
X42.101 Y7.705
X41.997 Y7.627
X41.957 Y7.6
X41.813 Y7.507
X41.773 Y7.483
X41.38 Y7.275
X41.236 Y7.206
X41.092 Y7.142
X40.948 Y7.079
X40.515 Y6.9
X38.497 Y6.076
X36.047 Y5.101
X34.173 Y4.414
X33.74 Y4.261
X32.731 Y3.917
X32.299 Y3.781
X31.722 Y3.612
X31.29 Y3.487
X30.281 Y3.208
X29.848 Y3.092
X28.934 Y2.875
X28.695 Y2.822
X27.542 Y2.575
X27.398 Y2.546
X26.849 Y2.443
X26.389 Y2.359
X26.245 Y2.334
X25.956 Y2.288
X25.091 Y2.155
X24.659 Y2.092
X23.794 Y1.976
X23.65 Y1.957
X23.218 Y1.906
X22.818 Y1.867
X22.641 Y1.851
X21.92 Y1.794
X21.344 Y1.749
X21.055 Y1.729
X20.767 Y1.728
X20.335
X19.902 Y1.73
X19.758 Y1.738
X18.461 Y1.829
X18.316 Y1.841
X18.172 Y1.859
X17.162 Y2.011
X17.019 Y2.04
X15.722 Y2.328
X15.578 Y2.362
X15.434 Y2.403
X14.569 Y2.67
X14.424 Y2.716
X13.992 Y2.881
X12.983 Y3.269
X12.896 Y3.307
X12.695 Y3.402
X11.974 Y3.749
X11.83 Y3.822
X10.959 Y4.315
X10.458 Y4.603
X10.388 Y4.647
X9.608 Y5.179
X9.523 Y5.238
X9.41 Y5.323
X8.37 Y6.136
X8.226 Y6.251
X8.082 Y6.382
X7.505 Y6.917
X7.361 Y7.053
X6.929 Y7.507
X6.352 Y8.115
X6.271 Y8.203
X6.208 Y8.277
X5.693 Y8.923
X5.579 Y9.067
X5.487 Y9.187
X4.665 Y10.363
X4.622 Y10.425
X4.571 Y10.507
X4.403 Y10.795
X4.154 Y11.227
X3.991 Y11.515
X3.325 Y12.853
X3.279 Y12.955
X3.165 Y13.243
X2.882 Y13.963
X2.832 Y14.107
X2.412 Y15.403
X2.369 Y15.547
X2.266 Y15.979
X2.135 Y16.555
X2.104 Y16.699
X2.028 Y17.147
X1.91 Y17.851
X1.842 Y18.283
X1.828 Y18.427
X1.752 Y19.435
X1.748 Y19.579
X1.727 Y20.874
X1.725 Y21.018
X1.731 Y21.162
X1.806 Y22.17
X1.821 Y22.314
X2.012 Y23.754
X2.028 Y23.852
X2.103 Y24.186
X2.267 Y24.906
X2.304 Y25.05
X2.677 Y26.346
X2.72 Y26.49
X2.748 Y26.577
X2.94 Y27.066
X3.109 Y27.498
X3.168 Y27.642
X3.325 Y27.989
X3.757 Y28.934
X3.826 Y29.082
X3.907 Y29.226
X4.334 Y29.967
X4.406 Y30.09
X4.778 Y30.666
X5.247 Y31.386
X5.343 Y31.52
X5.925 Y32.25
X6.042 Y32.394
X6.934 Y33.402
X7.073 Y33.554
X7.217 Y33.697
X7.83 Y34.266
X7.938 Y34.365
X7.988 Y34.41
X9.019 Y35.274
X9.235 Y35.447
X9.402 Y35.562
X10.1 Y36.038
X10.257 Y36.138
X11.433 Y36.858
X11.542 Y36.921
X11.703 Y37.002
X12.551 Y37.41
X12.601 Y37.434
X13.704 Y37.901
X13.992 Y38.02
X14.136 Y38.078
X15.145 Y38.389
X15.578 Y38.504
X16.587 Y38.764
X16.731 Y38.798
X16.875 Y38.826
X17.452 Y38.914
X17.884 Y38.977
X18.028 Y38.996
X19.326 Y39.131
X19.47 Y39.146
X19.614 Y39.153
X20.335
X20.767 Y39.149
X20.911 Y39.144
X22.209 Y39.086
X22.497 Y39.067
X22.641 Y39.057
X22.785 Y39.045
X23.074 Y39.018
X23.65 Y38.957
X24.082 Y38.912
X24.403 Y38.874
X24.659 Y38.842
X26.101 Y38.65
X26.56 Y38.586
X27.498 Y38.442
X27.974 Y38.353
X28.983 Y38.141
X30.713 Y37.766
X30.857 Y37.734
X31.29 Y37.623
X32.155 Y37.384
X32.299 Y37.344
X33.164 Y37.09
X33.308 Y37.043
X33.74 Y36.895
X35.081 Y36.426
X35.48 Y36.282
X35.614 Y36.231
X36.623 Y35.802
X37.516 Y35.418
X38.353 Y35.057
X38.513 Y34.986
X38.93 Y34.795
X40.083 Y34.25
X40.804 Y33.906
X41.092 Y33.765
X41.243 Y33.69
X41.313 Y33.653
G3 X41.722 Y33.784 I0.137 J0.278
G1 X41.735 Y33.835 Z-1.449
X41.748 Y33.884 Z-1.436
X41.759 Y33.931 Z-1.414
X41.747 Y33.978 Z-1.379
X41.737 Y34.019 Z-1.335
X41.729 Y34.05 Z-1.283
X41.723 Y34.071 Z-1.227
X41.721 Y34.081 Z-1.168
X41.72 Z-1.144
G0 Z5
X41.987 Y35.605
Z-0.734
G1 Z-1.044 F1000
X41.983 Y35.598 Z-1.113
X41.973 Y35.578 Z-1.179
X41.957 Y35.544 Z-1.237
X41.935 Y35.5 Z-1.286
X41.91 Y35.448 Z-1.323
X41.881 Y35.389 Z-1.346
X41.851 Y35.327 Z-1.354
G3 X41.271 Y33.723 I7.111 J-3.475
G1 X41.263 Y33.682
X41.276 Y33.643
X41.306 Y33.615
X41.38 Y33.575
X41.685 Y33.402
X41.813 Y33.323
X42.101 Y33.095
X42.247 Y32.97
X42.377 Y32.826
X42.493 Y32.682
X42.584 Y32.538
X42.678 Y32.381
X42.753 Y32.25
X42.822 Y32.088
X42.866 Y31.962
X42.966 Y31.643
X42.993 Y31.53
X43.05 Y31.242
X43.075 Y31.098
X43.112 Y30.81
X43.13 Y30.666
X43.197 Y29.658
X43.215 Y29.37
X43.222 Y29.226
X43.257 Y26.49
X43.258 Y26.346
X43.251 Y23.754
X43.233 Y20.298
X43.225 Y17.707
X43.221 Y14.971
X43.216 Y13.099
X43.21 Y12.523
X43.185 Y11.227
X43.181 Y11.083
X43.163 Y10.651
X43.129 Y10.219
X43.09 Y9.787
X43.071 Y9.643
X43.046 Y9.499
X43.019 Y9.355
X42.985 Y9.211
X42.901 Y8.923
X42.849 Y8.779
X42.783 Y8.635
X42.678 Y8.46
X42.599 Y8.347
X42.379 Y8.059
X42.262 Y7.915
X42.245 Y7.896
X42.118 Y7.771
X42.101 Y7.757
X41.957 Y7.644
X41.813 Y7.55
X41.669 Y7.471
X41.38 Y7.316
X41.236 Y7.246
X40.948 Y7.119
X40.786 Y7.051
X40.227 Y6.821
X39.362 Y6.469
X38.93 Y6.294
X35.401 Y4.891
X35.326 Y4.862
X34.605 Y4.598
X34.029 Y4.4
X32.731 Y3.959
X32.299 Y3.817
X32.155 Y3.773
X31.722 Y3.65
X29.848 Y3.131
X29.399 Y3.019
X28.839 Y2.896
X27.254 Y2.558
X26.965 Y2.497
X26.533 Y2.42
X24.659 Y2.132
X24.227 Y2.068
X24.082 Y2.048
X23.65 Y1.993
X23.218 Y1.942
X22.929 Y1.914
X22.43 Y1.867
X22.209 Y1.848
X21.488 Y1.791
X21.344 Y1.783
X21.199 Y1.782
X19.614
X19.47 Y1.789
X18.749 Y1.84
X18.605 Y1.851
X18.461 Y1.87
X17.019 Y2.087
X16.875 Y2.11
X16.731 Y2.136
X16.154 Y2.264
X15.866 Y2.33
X15.722 Y2.371
X14.28 Y2.815
X14.136 Y2.86
X14.094 Y2.875
X13.271 Y3.191
X13.127 Y3.254
X11.686 Y3.948
X11.533 Y4.027
X11.253 Y4.184
X10.768 Y4.459
X10.677 Y4.516
X9.281 Y5.467
X9.235 Y5.502
X9.091 Y5.612
X8.514 Y6.063
X8.37 Y6.19
X7.938 Y6.589
X7.361 Y7.125
X7.133 Y7.339
X7.073 Y7.401
X6.585 Y7.915
X6.496 Y8.01
X6.453 Y8.059
X6.336 Y8.203
X5.417 Y9.355
X5.343 Y9.449
X5.307 Y9.499
X5.005 Y9.931
X4.767 Y10.276
X4.715 Y10.363
X3.902 Y11.772
X3.885 Y11.803
X3.811 Y11.947
X3.453 Y12.667
X3.393 Y12.811
X3.325 Y12.981
X2.827 Y14.251
X2.773 Y14.395
X2.678 Y14.683
X2.492 Y15.259
X2.455 Y15.403
X2.42 Y15.547
X2.091 Y16.987
X2.063 Y17.131
X1.942 Y17.851
X1.919 Y17.995
X1.903 Y18.139
X1.784 Y19.723
X1.775 Y19.866
X1.761 Y20.73
X1.764 Y20.874
X1.784 Y21.162
X1.884 Y22.488
X1.893 Y22.602
X1.91 Y22.746
X2.006 Y23.466
X2.028 Y23.613
X2.059 Y23.754
X2.387 Y25.194
X2.422 Y25.338
X2.461 Y25.482
X2.604 Y25.977
X2.67 Y26.202
X2.716 Y26.346
X2.997 Y27.066
X3.336 Y27.93
X3.4 Y28.074
X3.728 Y28.794
X3.757 Y28.854
X3.802 Y28.938
X3.968 Y29.226
X4.633 Y30.378
X4.723 Y30.522
X5.055 Y31.032
X5.199 Y31.246
X5.304 Y31.386
X6.222 Y32.538
X6.339 Y32.682
X6.929 Y33.347
X6.982 Y33.402
X7.132 Y33.546
X8.226 Y34.561
X8.383 Y34.698
X8.898 Y35.13
X8.947 Y35.171
X9.078 Y35.274
X9.523 Y35.581
X10.388 Y36.171
X10.554 Y36.282
X11.109 Y36.622
X11.26 Y36.714
X11.397 Y36.793
X11.83 Y37.004
X12.983 Y37.559
X13.024 Y37.578
X13.704 Y37.866
X13.848 Y37.924
X13.992 Y37.979
X15.578 Y38.468
X15.722 Y38.507
X16.298 Y38.656
X16.443 Y38.692
X16.587 Y38.727
X17.019 Y38.796
X18.028 Y38.947
X18.461 Y39.008
X18.893 Y39.053
X19.326 Y39.094
X19.47 Y39.1
X20.767 Y39.101
X21.199 Y39.095
X21.344 Y39.092
X21.776 Y39.072
X22.209 Y39.05
X22.678 Y39.018
X22.929 Y38.995
X23.218 Y38.968
X23.65 Y38.924
X24.082 Y38.871
X25.956 Y38.622
X26.965 Y38.487
X27.273 Y38.442
X27.398 Y38.423
X27.542 Y38.398
X27.974 Y38.311
X30.425 Y37.781
X30.857 Y37.687
X31.29 Y37.591
X31.722 Y37.472
X32.155 Y37.346
X33.164 Y37.05
X33.315 Y37.002
X33.596 Y36.908
X33.745 Y36.858
X35.038 Y36.405
X35.182 Y36.353
X35.47 Y36.244
X35.614 Y36.187
X36.191 Y35.94
X38.497 Y34.945
X38.93 Y34.756
X39.795 Y34.346
X40.66 Y33.934
X40.948 Y33.795
X41.236 Y33.652
X41.306 Y33.615
G3 X41.716 Y33.747 I0.136 J0.278
G1 X41.728 Y33.797 Z-1.349
X41.741 Y33.847 Z-1.336
X41.752 Y33.893 Z-1.314
X41.74 Y33.941 Z-1.279
X41.73 Y33.98 Z-1.235
X41.722 Y34.012 Z-1.184
X41.717 Y34.033 Z-1.128
X41.714 Y34.043 Z-1.069
X41.713 Y34.044 Z-1.044
G0 Z5
X41.981 Y35.552
Z-0.634
G1 Z-0.944 F1000
X41.977 Y35.545 Z-1.013
X41.967 Y35.524 Z-1.079
X41.951 Y35.491 Z-1.137
X41.93 Y35.447 Z-1.186
X41.904 Y35.394 Z-1.223
X41.876 Y35.335 Z-1.246
X41.846 Y35.273 Z-1.254
G3 X41.271 Y33.668 I7.121 J-3.453
G1 X41.263 Y33.627
X41.276 Y33.588
X41.307 Y33.56
X41.334 Y33.546
X41.669 Y33.356
X41.813 Y33.257
X42.174 Y32.97
X42.21 Y32.94
X42.245 Y32.904
X42.533 Y32.515
X42.614 Y32.394
X42.757 Y32.106
X42.815 Y31.962
X42.905 Y31.674
X42.942 Y31.53
X42.999 Y31.242
X43.026 Y31.098
X43.048 Y30.954
X43.066 Y30.81
X43.078 Y30.666
X43.164 Y29.37
X43.171 Y29.226
X43.184 Y28.794
X43.208 Y26.922
Y26.346
X43.201 Y23.61
X43.185 Y20.442
X43.175 Y17.419
X43.171 Y14.683
X43.167 Y13.099
X43.161 Y12.667
X43.135 Y11.227
X43.131 Y11.083
X43.112 Y10.651
X43.067 Y10.075
X43.054 Y9.931
X43.041 Y9.787
X43.02 Y9.643
X42.966 Y9.345
X42.934 Y9.211
X42.849 Y8.923
X42.822 Y8.833
X42.798 Y8.779
X42.731 Y8.635
X42.647 Y8.491
X42.545 Y8.347
X42.323 Y8.059
X42.245 Y7.96
X42.204 Y7.915
X42.101 Y7.822
X42.042 Y7.771
X41.957 Y7.703
X41.813 Y7.61
X41.669 Y7.527
X41.322 Y7.339
X41.092 Y7.237
X40.948 Y7.173
X40.804 Y7.111
X40.227 Y6.875
X39.506 Y6.581
X38.353 Y6.122
X35.182 Y4.861
X35.038 Y4.805
X34.884 Y4.747
X34.749 Y4.699
X32.587 Y3.965
X32.299 Y3.868
X32.155 Y3.824
X29.848 Y3.185
X29.416 Y3.075
X29.272 Y3.043
X27.11 Y2.58
X26.965 Y2.55
X26.533 Y2.473
X24.227 Y2.118
X24.082 Y2.098
X23.65 Y2.043
X23.218 Y2
X22.929 Y1.964
X22.497 Y1.91
X22.041 Y1.867
X21.776 Y1.845
X21.632 Y1.836
X21.344
X19.326
X19.181 Y1.841
X19.037 Y1.851
X18.893 Y1.861
X18.842 Y1.867
X17.883 Y2.011
X16.587 Y2.207
X16.443 Y2.236
X16.153 Y2.299
X16.01 Y2.338
X13.848 Y3.005
X13.704 Y3.058
X13.56 Y3.114
X13.444 Y3.163
X13.271 Y3.244
X11.346 Y4.171
X11.253 Y4.22
X11.085 Y4.315
X10.965 Y4.386
X10.821 Y4.483
X9.091 Y5.662
X8.964 Y5.755
X8.613 Y6.043
X8.514 Y6.128
X7.054 Y7.483
X6.91 Y7.627
X6.771 Y7.771
X6.64 Y7.908
X6.352 Y8.268
X5.199 Y9.715
X5.144 Y9.787
X5.044 Y9.931
X4.946 Y10.075
X4.911 Y10.132
X3.757 Y12.129
X3.702 Y12.235
X3.613 Y12.414
X3.566 Y12.523
X3.506 Y12.667
X2.715 Y14.683
X2.664 Y14.827
X2.604 Y15.013
X2.575 Y15.115
X2.541 Y15.259
X2.08 Y17.275
X2.049 Y17.419
X1.978 Y17.851
X1.817 Y20.01
X1.806 Y20.154
X1.802 Y20.298
X1.801 Y20.586
X1.805 Y20.73
X1.967 Y22.89
X1.981 Y23.034
X2 Y23.178
X2.02 Y23.322
X2.028 Y23.373
X2.048 Y23.466
X2.541 Y25.626
X2.577 Y25.77
X2.619 Y25.914
X2.662 Y26.058
X2.716 Y26.202
X2.884 Y26.634
X3.507 Y28.218
X3.7 Y28.65
X3.78 Y28.794
X4.777 Y30.522
X4.911 Y30.739
X5.055 Y30.971
X5.145 Y31.098
X5.256 Y31.242
X6.52 Y32.826
X6.64 Y32.973
X6.785 Y33.136
X6.904 Y33.258
X7.073 Y33.419
X8.514 Y34.757
X8.614 Y34.842
X8.964 Y35.13
X9.091 Y35.222
X10.857 Y36.426
X10.965 Y36.495
X11.109 Y36.582
X11.253 Y36.667
X11.397 Y36.738
X13.271 Y37.64
X13.704 Y37.829
X13.812 Y37.866
X14.28 Y38.013
X16.01 Y38.546
X16.156 Y38.586
X16.298 Y38.623
X16.443 Y38.655
X16.731 Y38.699
X18.461 Y38.96
X18.749 Y39.002
X18.867 Y39.018
X19.037 Y39.034
X19.181 Y39.046
X19.326 Y39.048
X19.758
X21.199
X21.344
X21.776 Y39.039
X22.064 Y39.023
X22.209 Y39.014
X22.641 Y38.966
X22.785 Y38.953
X23.218 Y38.918
X23.65 Y38.873
X27.11 Y38.412
X27.398 Y38.373
X27.542 Y38.348
X28.263 Y38.194
X31.29 Y37.538
X31.722 Y37.419
X32.011 Y37.336
X33.164 Y36.998
X33.308 Y36.952
X33.596 Y36.857
X33.74 Y36.809
X35.038 Y36.355
X35.182 Y36.302
X35.47 Y36.19
X35.614 Y36.13
X38.935 Y34.698
X39.506 Y34.429
X40.515 Y33.948
X40.804 Y33.81
X41.236 Y33.596
X41.307 Y33.56
G3 X41.714 Y33.697 I0.133 J0.28
G1 X41.726 Y33.747 Z-1.25
X41.738 Y33.795 Z-1.237
X41.749 Y33.84 Z-1.216
X41.735 Y33.894 Z-1.177
X41.724 Y33.938 Z-1.126
X41.716 Y33.971 Z-1.066
X41.711 Y33.99 Z-1.001
X41.708 Y33.995 Z-0.944
G0 Z5
X42.478 Y35.279
Z-0.534
G1 Z-0.844 F1000
X42.473 Y35.273 Z-0.913
X42.458 Y35.256 Z-0.979
X42.434 Y35.228 Z-1.037
X42.402 Y35.191 Z-1.086
X42.364 Y35.147 Z-1.123
X42.321 Y35.097 Z-1.146
X42.276 Y35.045 Z-1.154
G3 X41.307 Y33.642 I5.989 J-5.173
G1 X41.24 Y33.508
X41.241 Y33.502
X41.244 Y33.497
X41.248 Y33.494
X41.38 Y33.424
X41.524 Y33.343
X41.669 Y33.255
X41.813 Y33.153
X42.149 Y32.88
X42.176 Y32.853
X42.416 Y32.538
X42.515 Y32.394
X42.599 Y32.25
X42.678 Y32.085
X42.723 Y31.962
X42.822 Y31.654
X42.854 Y31.53
X42.912 Y31.242
X42.938 Y31.098
X42.975 Y30.81
X42.992 Y30.666
X43.078 Y29.37
X43.086 Y29.226
X43.098 Y28.794
X43.122 Y26.922
X43.123 Y26.346
X43.115 Y23.61
X43.099 Y20.442
X43.089 Y17.419
X43.085 Y14.683
X43.081 Y13.099
X43.076 Y12.667
X43.049 Y11.227
X43.045 Y11.083
X43.026 Y10.651
X42.992 Y10.219
X42.954 Y9.787
X42.933 Y9.643
X42.88 Y9.355
X42.845 Y9.211
X42.758 Y8.923
X42.704 Y8.779
X42.638 Y8.635
X42.566 Y8.491
X42.533 Y8.428
X42.481 Y8.347
X42.389 Y8.211
X42.245 Y8.058
X42.101 Y7.935
X41.813 Y7.716
X41.669 Y7.622
X41.524 Y7.541
X41.38 Y7.465
X41.236 Y7.395
X40.948 Y7.267
X40.782 Y7.195
X40.371 Y7.026
X39.362 Y6.615
X35.182 Y4.953
X35.019 Y4.891
X34.605 Y4.74
X32.299 Y3.957
X32.155 Y3.914
X30.488 Y3.451
X29.848 Y3.274
X29.416 Y3.163
X29.272 Y3.13
X27.11 Y2.668
X26.965 Y2.638
X26.533 Y2.559
X24.227 Y2.205
X24.082 Y2.184
X23.65 Y2.125
X23.218 Y2.084
X23.073 Y2.067
X22.353 Y1.975
X22.209 Y1.963
X21.776 Y1.94
X21.055 Y1.938
X19.47
X19.326 Y1.941
X19.037 Y1.953
X18.893 Y1.963
X16.587 Y2.31
X16.443 Y2.333
X16.298 Y2.363
X16.154 Y2.402
X16.01 Y2.445
X13.992 Y3.068
X13.848 Y3.113
X13.704 Y3.161
X13.415 Y3.288
X11.397 Y4.26
X11.299 Y4.315
X10.965 Y4.513
X10.821 Y4.607
X9.091 Y5.786
X8.939 Y5.899
X8.764 Y6.043
X8.659 Y6.134
X7.204 Y7.483
X7.073 Y7.609
X6.776 Y7.915
X6.65 Y8.059
X5.272 Y9.787
X5.199 Y9.881
X4.911 Y10.336
X3.897 Y12.091
X3.815 Y12.235
X3.613 Y12.674
X2.881 Y14.539
X2.774 Y14.827
X2.721 Y14.971
X2.679 Y15.115
X2.514 Y15.835
X2.172 Y17.334
X2.154 Y17.419
X2.081 Y17.851
X1.908 Y20.154
X1.903 Y20.298
Y20.586
X1.908 Y20.73
X2.081 Y23.034
X2.154 Y23.466
X2.172 Y23.551
X2.613 Y25.482
X2.679 Y25.77
X2.721 Y25.914
X2.827 Y26.202
X2.893 Y26.376
X3.613 Y28.211
X3.815 Y28.65
X4.064 Y29.082
X4.911 Y30.549
X5.199 Y31.004
X5.272 Y31.098
X6.65 Y32.826
X6.776 Y32.97
X7.073 Y33.275
X7.217 Y33.414
X8.659 Y34.751
X8.764 Y34.842
X8.947 Y34.992
X9.091 Y35.099
X10.826 Y36.282
X10.965 Y36.372
X11.299 Y36.57
X11.397 Y36.625
X13.415 Y37.597
X13.704 Y37.724
X13.848 Y37.772
X14.857 Y38.084
X16.016 Y38.442
X16.154 Y38.483
X16.298 Y38.522
X16.443 Y38.552
X16.731 Y38.596
X18.893 Y38.922
X19.037 Y38.932
X19.326 Y38.944
X19.47 Y38.947
X21.776
X21.92 Y38.948
X22.064 Y38.944
X22.209 Y38.93
X22.641 Y38.883
X22.731 Y38.874
X23.073 Y38.849
X23.218 Y38.837
X23.65 Y38.787
X27.11 Y38.326
X27.398 Y38.286
X27.542 Y38.261
X28.707 Y38.01
X31.29 Y37.45
X31.722 Y37.33
X32.299 Y37.162
X33.164 Y36.909
X33.322 Y36.858
X33.596 Y36.767
X33.752 Y36.714
X35.038 Y36.264
X35.182 Y36.213
X35.326 Y36.161
X38.93 Y34.607
X39.65 Y34.266
X40.66 Y33.785
X40.854 Y33.69
X41.248 Y33.494
X41.314 Y33.47
X41.383 Y33.462
X41.384
G3 X41.657 Y33.627 I0 J0.31
G1 X41.67 Y33.677 Z-1.149
X41.682 Y33.726 Z-1.136
X41.694 Y33.772 Z-1.114
X41.682 Y33.819 Z-1.081
X41.672 Y33.858 Z-1.039
X41.664 Y33.889 Z-0.99
X41.658 Y33.911 Z-0.936
X41.655 Y33.922 Z-0.879
X41.654 Y33.924 Z-0.844
G0 Z5
X42.482 Y35.186
Z-0.458
G1 Z-0.768 F1000
X42.477 Y35.18 Z-0.837
X42.462 Y35.162 Z-0.903
X42.438 Y35.135 Z-0.961
X42.406 Y35.098 Z-1.01
X42.367 Y35.053 Z-1.047
X42.324 Y35.004 Z-1.07
X42.279 Y34.952 Z-1.078
G3 X41.307 Y33.551 I5.978 J-5.186
G1 X41.24 Y33.417
X41.241 Y33.411
X41.244 Y33.406
X41.248 Y33.403
X41.38 Y33.334
X41.524 Y33.246
X41.738 Y33.114
X41.813 Y33.056
X41.957 Y32.94
X42.084 Y32.826
X42.101 Y32.809
X42.215 Y32.682
X42.325 Y32.538
X42.389 Y32.45
X42.605 Y32.052
X42.613 Y32.034
X42.731 Y31.674
X42.77 Y31.53
X42.83 Y31.242
X42.856 Y31.098
X42.894 Y30.81
X42.911 Y30.666
X42.997 Y29.37
X43.005 Y29.226
X43.017 Y28.794
X43.041 Y26.922
X43.042 Y26.346
X43.035 Y23.61
X43.018 Y20.442
X43.009 Y17.419
X43.004 Y14.683
X43 Y13.099
X42.995 Y12.667
X42.966 Y11.123
X42.945 Y10.651
X42.911 Y10.219
X42.872 Y9.787
X42.851 Y9.643
X42.797 Y9.355
X42.761 Y9.211
X42.672 Y8.923
X42.62 Y8.779
X42.533 Y8.622
X42.459 Y8.491
X42.389 Y8.384
X42.245 Y8.203
X42.119 Y8.059
X42.101 Y8.041
X41.947 Y7.915
X41.761 Y7.771
X41.515 Y7.627
X41.38 Y7.552
X41.233 Y7.483
X40.911 Y7.339
X40.804 Y7.292
X40.371 Y7.113
X39.362 Y6.702
X35.169 Y5.035
X35.038 Y4.985
X34.605 Y4.826
X32.255 Y4.027
X32.011 Y3.958
X31.434 Y3.797
X29.666 Y3.307
X29.56 Y3.28
X29.416 Y3.245
X29.128 Y3.182
X27.02 Y2.731
X26.965 Y2.72
X26.533 Y2.641
X24.082 Y2.265
X23.65 Y2.202
X23.073 Y2.131
X22.929 Y2.112
X22.785 Y2.099
X21.776 Y2.044
X21.199 Y2.042
X19.47
X19.326 Y2.045
X19.037 Y2.058
X18.893 Y2.068
X16.587 Y2.416
X16.443 Y2.447
X16.154 Y2.514
X16.01 Y2.554
X14.136 Y3.132
X13.848 Y3.223
X13.704 Y3.27
X13.621 Y3.307
X13.271 Y3.473
X11.397 Y4.376
X11.253 Y4.461
X10.965 Y4.638
X10.8 Y4.747
X9.091 Y5.913
X8.947 Y6.019
X8.917 Y6.043
X8.803 Y6.142
X7.202 Y7.627
X7.073 Y7.751
X6.911 Y7.915
X6.783 Y8.059
X5.343 Y9.865
X5.291 Y9.931
X5.199 Y10.062
X5.055 Y10.296
X5.015 Y10.363
X3.935 Y12.235
X3.855 Y12.379
X3.787 Y12.523
X3.728 Y12.667
X2.88 Y14.827
X2.829 Y14.971
X2.788 Y15.115
X2.687 Y15.547
X2.292 Y17.275
X2.26 Y17.419
X2.185 Y17.851
X2.012 Y20.154
X2.008 Y20.298
Y20.586
X2.012 Y20.73
X2.185 Y23.034
X2.26 Y23.466
X2.316 Y23.715
X2.687 Y25.338
X2.788 Y25.77
X2.829 Y25.914
X2.88 Y26.058
X3.728 Y28.218
X3.787 Y28.362
X3.855 Y28.506
X3.935 Y28.65
X5.015 Y30.522
X5.055 Y30.589
X5.199 Y30.823
X5.291 Y30.954
X5.92 Y31.743
X6.785 Y32.828
X6.911 Y32.97
X7.073 Y33.134
X7.217 Y33.272
X8.803 Y34.743
X8.917 Y34.842
X8.947 Y34.866
X9.091 Y34.972
X10.821 Y36.152
X10.965 Y36.247
X11.256 Y36.426
X11.397 Y36.509
X13.318 Y37.434
X13.621 Y37.578
X13.704 Y37.615
X13.848 Y37.662
X14.28 Y37.797
X16.01 Y38.331
X16.154 Y38.371
X16.458 Y38.442
X16.587 Y38.469
X18.893 Y38.817
X19.037 Y38.827
X19.326 Y38.84
X19.47 Y38.843
X21.632
X21.776
X22.209 Y38.847
X22.353 Y38.845
X22.497 Y38.833
X22.929 Y38.789
X23.218 Y38.758
X23.65 Y38.706
X26.965 Y38.264
X27.398 Y38.204
X27.542 Y38.179
X31.29 Y37.367
X31.722 Y37.246
X33.164 Y36.824
X33.308 Y36.778
X33.596 Y36.682
X33.74 Y36.632
X35.038 Y36.179
X35.148 Y36.138
X35.506 Y35.994
X35.614 Y35.949
X38.93 Y34.519
X40.515 Y33.764
X40.804 Y33.625
X41.248 Y33.403
G3 X41.654 Y33.546 I0.129 J0.282
G1 X41.665 Y33.594 Z-1.074
X41.676 Y33.641 Z-1.062
X41.687 Y33.685 Z-1.042
X41.674 Y33.737 Z-1.006
X41.662 Y33.78 Z-0.959
X41.654 Y33.813 Z-0.904
X41.648 Y33.835 Z-0.843
X41.645 Y33.841 Z-0.806
X41.644 Y33.843 Z-0.768
G0 Z5
X42.483 Y35.095
Z-0.382
G1 Z-0.692 F1000
X42.478 Y35.089 Z-0.761
X42.462 Y35.072 Z-0.826
X42.438 Y35.044 Z-0.885
X42.406 Y35.007 Z-0.934
X42.368 Y34.963 Z-0.971
X42.325 Y34.913 Z-0.994
X42.279 Y34.861 Z-1.002
G3 X41.307 Y33.46 I5.977 J-5.188
G1 X41.24 Y33.326
X41.241 Y33.321
X41.244 Y33.316
X41.248 Y33.312
X41.344 Y33.258
X41.669 Y33.057
X41.796 Y32.97
X41.813 Y32.956
X41.961 Y32.826
X42.103 Y32.682
X42.23 Y32.538
X42.245 Y32.518
X42.326 Y32.394
X42.484 Y32.106
X42.533 Y32.014
X42.553 Y31.962
X42.606 Y31.818
X42.649 Y31.674
X42.678 Y31.571
X42.747 Y31.242
X42.774 Y31.098
X42.822 Y30.739
X42.83 Y30.666
X42.916 Y29.37
X42.923 Y29.226
X42.936 Y28.794
X42.96 Y26.922
X42.961 Y26.346
X42.953 Y23.61
X42.937 Y20.442
X42.927 Y17.419
X42.923 Y14.683
X42.919 Y13.099
X42.914 Y12.667
X42.887 Y11.227
X42.883 Y11.083
X42.864 Y10.651
X42.83 Y10.219
X42.79 Y9.787
X42.768 Y9.643
X42.714 Y9.355
X42.678 Y9.206
X42.636 Y9.067
X42.592 Y8.923
X42.533 Y8.808
X42.347 Y8.491
X42.245 Y8.345
X42.127 Y8.203
X41.957 Y8.02
X41.813 Y7.906
X41.669 Y7.813
X41.343 Y7.627
X41.236 Y7.572
X40.948 Y7.444
X40.804 Y7.381
X40.357 Y7.195
X39.362 Y6.79
X35.182 Y5.128
X35.038 Y5.072
X34.605 Y4.911
X32.299 Y4.128
X32.155 Y4.083
X31.722 Y3.961
X29.848 Y3.442
X29.416 Y3.328
X29.325 Y3.307
X27.11 Y2.833
X26.965 Y2.803
X26.533 Y2.723
X24.082 Y2.347
X23.65 Y2.284
X23.218 Y2.231
X23.073 Y2.221
X22.497 Y2.188
X21.776 Y2.149
X21.199 Y2.147
X19.47
X19.326 Y2.15
X19.037 Y2.163
X18.893 Y2.174
X16.587 Y2.522
X16.443 Y2.554
X16.154 Y2.623
X16.01 Y2.664
X13.992 Y3.286
X13.848 Y3.334
X13.704 Y3.386
X13.26 Y3.595
X11.397 Y4.492
X11.253 Y4.577
X11.109 Y4.666
X10.965 Y4.761
X9.507 Y5.755
X9.091 Y6.043
X8.947 Y6.155
X8.753 Y6.331
X7.201 Y7.771
X7.073 Y7.893
X7.051 Y7.915
X6.929 Y8.049
X6.64 Y8.406
X5.487 Y9.852
X5.427 Y9.931
X5.321 Y10.075
X5.22 Y10.219
X4.139 Y12.091
X4.056 Y12.235
X3.842 Y12.667
X3.757 Y12.877
X3.105 Y14.539
X2.941 Y14.971
X2.893 Y15.12
X2.86 Y15.259
X2.4 Y17.275
X2.368 Y17.419
X2.29 Y17.851
X2.117 Y20.154
X2.113 Y20.298
Y20.586
X2.117 Y20.73
X2.29 Y23.034
X2.368 Y23.466
X2.432 Y23.754
X2.86 Y25.626
X2.894 Y25.77
X2.941 Y25.914
X3.105 Y26.346
X3.784 Y28.074
X3.842 Y28.218
X4.056 Y28.65
X4.334 Y29.133
X5.22 Y30.666
X5.321 Y30.81
X5.427 Y30.954
X5.487 Y31.033
X6.688 Y32.538
X6.929 Y32.836
X7.051 Y32.97
X7.073 Y32.992
X7.217 Y33.129
X8.803 Y34.6
X8.947 Y34.73
X9.091 Y34.842
X9.523 Y35.141
X10.985 Y36.138
X11.109 Y36.219
X11.253 Y36.308
X11.397 Y36.393
X13.271 Y37.295
X13.704 Y37.499
X13.848 Y37.551
X13.992 Y37.599
X16.01 Y38.221
X16.154 Y38.262
X16.443 Y38.331
X16.587 Y38.363
X18.893 Y38.711
X19.037 Y38.721
X19.326 Y38.735
X19.47 Y38.738
X21.632
X21.92 Y38.74
X22.209 Y38.742
X22.353 Y38.737
X22.785 Y38.715
X22.929 Y38.706
X23.073 Y38.693
X23.65 Y38.624
X26.965 Y38.182
X27.398 Y38.121
X27.542 Y38.096
X31.29 Y37.284
X31.778 Y37.146
X33.164 Y36.74
X33.248 Y36.714
X33.452 Y36.647
X34.605 Y36.244
X35.038 Y36.093
X35.182 Y36.038
X35.47 Y35.92
X35.639 Y35.85
X38.497 Y34.617
X38.93 Y34.429
X40.371 Y33.743
X40.804 Y33.535
X41.236 Y33.319
X41.248 Y33.312
G3 X41.66 Y33.435 I0.142 J0.275
G1 X41.674 Y33.487 Z-0.997
X41.687 Y33.537 Z-0.983
X41.7 Y33.585 Z-0.96
Y33.588 Z-0.958
X41.688 Y33.637 Z-0.919
X41.678 Y33.677 Z-0.871
X41.67 Y33.707 Z-0.816
X41.666 Y33.726 Z-0.755
X41.664 Y33.732 Z-0.692
G0 Z5
X-0.309 Y-3.631
Z-2.234
G1 Z-2.544 F1000
X-0.307 Y-3.624 Z-2.613
X-0.301 Y-3.601 Z-2.679
X-0.292 Y-3.566 Z-2.737
X-0.28 Y-3.518 Z-2.786
X-0.265 Y-3.461 Z-2.823
X-0.249 Y-3.398 Z-2.846
X-0.232 Y-3.331 Z-2.854
G3 X0.011 Y-1.643 I-7.667 J1.964
G1 Y-1.493
X-0.116 Y-0.872
X-0.192 Y-0.242
X-0.236 Y0.391
X-0.262 Y1.025
X-0.277 Y1.659
X-0.286 Y2.294
X-0.291 Y2.928
X-0.294 Y3.563
X-0.297 Y4.831
X-0.298 Y8.638
X-0.292 Y39.408
X-0.271 Y39.565
X-0.16 Y39.862
X0.035 Y40.113
X0.515 Y40.527
X1.093 Y40.789
X1.707 Y40.948
X2.334 Y41.044
X2.966 Y41.1
X3.6 Y41.134
X4.234 Y41.153
X4.868 Y41.164
X5.503 Y41.171
X6.137 Y41.175
X7.406 Y41.178
X8.04 Y41.179
X13.116 Y41.18
X43.569 Y41.179
X43.723 Y41.143
X44.011 Y41.011
X44.254 Y40.807
X44.656 Y40.316
X44.907 Y39.733
X45.061 Y39.118
X45.152 Y38.49
X45.206 Y37.858
X45.238 Y37.224
X45.256 Y36.59
X45.267 Y35.956
X45.272 Y35.321
X45.276 Y34.687
X45.278 Y33.418
Y30.88
X45.275 Y27.074
X45.254 Y1.379
X45.168 Y1.074
X44.987 Y0.813
X44.524 Y0.38
X43.952 Y0.105
X43.34 Y-0.063
X42.714 Y-0.163
X42.082 Y-0.223
X41.449 Y-0.258
X40.815 Y-0.278
X40.18 Y-0.29
X39.546 Y-0.297
X38.912 Y-0.301
X37.643 Y-0.304
X35.105 Y-0.305
X21.147 Y-0.301
X2.749 Y-0.295
X2.438 Y-0.231
X2.166 Y-0.068
X1.708 Y0.371
X1.411 Y0.931
X1.225 Y1.538
X1.111 Y2.162
X1.043 Y2.793
X1.002 Y3.426
X0.977 Y4.06
X0.963 Y4.694
X0.954 Y5.329
X0.949 Y5.963
X0.946 Y6.597
X0.944 Y7.866
X0.943 Y11.039
X0.946 Y30.706
X0.947 Y37.685
X0.963 Y38.001
X1.061 Y38.303
X1.225 Y38.575
X1.649 Y39.046
X2.195 Y39.371
X2.792 Y39.583
X3.412 Y39.719
X4.041 Y39.804
X4.673 Y39.857
X5.307 Y39.889
X5.941 Y39.909
X6.575 Y39.921
X7.21 Y39.929
X7.844 Y39.933
X8.478 Y39.936
X9.747 Y39.939
X13.554 Y39.94
X42.103 Y39.939
X42.405 Y39.841
X42.676 Y39.676
X43.147 Y39.251
X43.471 Y38.705
X43.684 Y38.108
X43.82 Y37.488
X43.905 Y36.859
X43.958 Y36.227
X43.99 Y35.594
X44.01 Y34.959
X44.022 Y34.325
X44.029 Y33.691
X44.033 Y33.056
X44.035 Y32.422
X44.037 Y31.153
X44.035 Y27.346
X44.016 Y3.238
X44.013 Y2.921
X43.929 Y2.615
X43.775 Y2.338
X43.364 Y1.854
X42.824 Y1.521
X42.229 Y1.302
X41.61 Y1.162
X40.981 Y1.074
X40.349 Y1.02
X39.716 Y0.986
X39.082 Y0.966
X38.447 Y0.953
X37.813 Y0.946
X37.179 Y0.941
X36.544 Y0.939
X35.275 Y0.936
X32.103
X30.834
X4.188 Y0.944
X3.883 Y1.03
X3.606 Y1.185
X3.121 Y1.594
X2.785 Y2.132
X2.563 Y2.727
X2.42 Y3.345
X2.329 Y3.973
X2.273 Y4.605
X2.238 Y5.238
X2.216 Y5.872
X2.203 Y6.506
X2.195 Y7.141
X2.19 Y7.775
X2.187 Y8.41
X2.184 Y9.679
X2.183 Y12.851
Y15.186
X2.18 Y15.254
X2.171 Y15.321
X2.155 Y15.388
X2.068 Y15.691
X1.988 Y15.979
X1.878 Y16.555
X1.739 Y17.293
X1.717 Y17.419
X1.648 Y17.851
X1.59 Y18.283
X1.538 Y18.715
X1.526 Y18.859
X1.478 Y20.154
X1.475 Y20.298
X1.472 Y20.586
Y20.73
X1.479 Y21.162
X1.492 Y21.594
X1.507 Y21.738
X1.652 Y23.034
X1.713 Y23.466
X1.76 Y23.754
X1.784 Y23.898
X1.809 Y24.042
X1.884 Y24.437
X1.893 Y24.474
X1.991 Y24.928
X2.073 Y25.557
X2.12 Y26.19
X2.148 Y26.824
X2.164 Y27.458
X2.173 Y28.093
X2.178 Y28.727
X2.182 Y29.361
X2.185 Y30.63
X2.187 Y34.437
Y36.34
X2.216 Y36.656
X2.314 Y36.958
X2.473 Y37.232
X2.883 Y37.717
X3.417 Y38.058
X4.009 Y38.288
X4.625 Y38.438
X5.252 Y38.535
X5.884 Y38.596
X6.517 Y38.635
X7.151 Y38.66
X7.785 Y38.675
X8.419 Y38.685
X9.054 Y38.691
X9.688 Y38.694
X10.957 Y38.698
X13.495 Y38.7
X15.239
X15.303 Y38.703
X15.367 Y38.711
X15.43 Y38.726
X16.01 Y38.885
X16.154 Y38.922
X16.587 Y39.022
X17.019 Y39.118
X17.163 Y39.138
X17.452 Y39.177
X18.316 Y39.281
X18.893 Y39.35
X19.037 Y39.362
X19.47 Y39.395
X19.758 Y39.414
X19.902 Y39.42
X20.335 Y39.411
X21.632 Y39.372
X21.776 Y39.367
X22.209 Y39.336
X22.641 Y39.3
X22.785 Y39.286
X26.306 Y38.874
X26.939 Y38.831
X27.571 Y38.776
X28.205 Y38.744
X28.839 Y38.725
X29.473 Y38.715
X30.108 Y38.708
X30.742 Y38.705
X32.011 Y38.701
X35.183 Y38.7
X40.576 Y38.699
X40.888 Y38.643
X41.179 Y38.518
X41.701 Y38.157
X42.079 Y37.647
X42.336 Y37.067
X42.505 Y36.456
X42.614 Y35.831
X42.683 Y35.2
X42.727 Y34.567
X42.754 Y33.933
X42.771 Y33.299
X42.777 Y32.929
X42.787 Y32.821
X42.813 Y32.716
X42.854 Y32.617
X42.966 Y32.39
X43.11 Y32.092
X43.161 Y31.962
X43.209 Y31.818
X43.254 Y31.596
X43.398 Y30.752
X43.411 Y30.666
X43.442 Y30.234
X43.51 Y28.794
