(206)
(WC binnenkant)
(T1  D=3.1 CR=0 - ZMIN=-20.892 - flat end mill)
(2x2=4mm retract, +/-4mm er omheen -- 18,8 - 21,0 van voorkant, breedte 35mm)
G90 G94
G17
G21

(Adaptive6)
S5000 M3
G54
G0 Z4
G0 X17.654 Y18.629
G3 X19.709 Y16.519 Z2.339 I1.028 J-1.055 F333.3
X17.654 Y18.629 Z2.177 I-1.028 J1.055
X19.709 Y16.519 Z2.016 I1.028 J-1.055
X17.654 Y18.629 Z1.854 I-1.028 J1.055
X19.709 Y16.519 Z1.693 I1.028 J-1.055
X17.654 Y18.629 Z1.531 I-1.028 J1.055
X19.709 Y16.519 Z1.369 I1.028 J-1.055
X17.654 Y18.629 Z1.208 I-1.028 J1.055
X19.709 Y16.519 Z1.046 I1.028 J-1.055
X17.654 Y18.629 Z0.885 I-1.028 J1.055
X19.709 Y16.519 Z0.723 I1.028 J-1.055
X17.654 Y18.629 Z0.562 I-1.028 J1.055
X19.709 Y16.519 Z0.4 I1.028 J-1.055
X17.654 Y18.629 Z0.239 I-1.028 J1.055
X19.709 Y16.519 Z0.077 I1.028 J-1.055
X17.654 Y18.629 Z-0.084 I-1.028 J1.055
X19.709 Y16.519 Z-0.246 I1.028 J-1.055
X17.654 Y18.629 Z-0.407 I-1.028 J1.055
X19.709 Y16.519 Z-0.569 I1.028 J-1.055
X17.654 Y18.629 Z-0.731 I-1.028 J1.055
X19.709 Y16.519 Z-0.892 I1.028 J-1.055
X20.154 Y17.574 Z-0.933 I-1.028 J1.055
X17.209 Y17.574 I-1.472 J0
X20.154 Y17.574 I1.472 J0
S10000
G1 X20.16 Y17.799 F1000
X20.285 Y18.156
X20.305 Y18.229
X20.316 Y18.303
X20.321 Y18.378
X20.32 Y18.457
X20.312 Y18.542
X20.297 Y18.631
X20.272 Y18.725
X20.239 Y18.821
X20.195 Y18.919
X20.142 Y19.019
X20.077 Y19.118
X20.001 Y19.216
X19.915 Y19.312
X19.817 Y19.404
X19.709 Y19.49
X19.591 Y19.57
X19.462 Y19.642
X19.325 Y19.705
X19.18 Y19.759
X19.027 Y19.801
X18.869 Y19.832
X18.706 Y19.85
X18.538 Y19.855
X18.369 Y19.847
X18.199 Y19.825
X18.029 Y19.788
X17.861 Y19.738
X17.696 Y19.674
X17.535 Y19.596
X17.38 Y19.505
X17.232 Y19.401
X17.092 Y19.285
X16.961 Y19.157
X16.84 Y19.018
X16.73 Y18.87
X16.632 Y18.713
X16.547 Y18.548
X16.475 Y18.377
X16.417 Y18.199
X16.374 Y18.018
X16.345 Y17.833
X16.331 Y17.646
X16.332 Y17.458
X16.348 Y17.271
X16.379 Y17.086
X16.425 Y16.903
X16.485 Y16.725
X16.56 Y16.551
X16.648 Y16.385
X16.75 Y16.226
X16.864 Y16.075
X16.989 Y15.934
X17.126 Y15.804
X17.273 Y15.685
X17.429 Y15.578
X17.593 Y15.483
X17.764 Y15.403
X17.941 Y15.336
X18.123 Y15.284
X18.308 Y15.246
X18.496 Y15.224
X18.685 Y15.216
X18.874 Y15.224
X19.062 Y15.247
X19.248 Y15.285
X19.429 Y15.338
X19.606 Y15.405
X19.777 Y15.486
X19.941 Y15.581
X20.097 Y15.688
X20.244 Y15.808
X20.381 Y15.939
X20.506 Y16.081
X20.62 Y16.232
X20.778 Y16.48
X20.973 Y16.851
X21.093 Y17.13
X21.177 Y17.38
X21.234 Y17.61
X21.271 Y17.833
X21.289 Y18.05
X21.29 Y18.261
X21.274 Y18.467
X21.241 Y18.669
X21.193 Y18.867
X21.129 Y19.061
X21.05 Y19.25
X20.955 Y19.433
X20.844 Y19.609
X20.719 Y19.778
X20.579 Y19.937
X20.425 Y20.086
X20.257 Y20.225
X20.076 Y20.351
X19.883 Y20.464
X19.679 Y20.563
X19.464 Y20.646
X19.241 Y20.712
X19.01 Y20.76
X18.774 Y20.791
X18.533 Y20.802
X18.29 Y20.794
X18.046 Y20.766
X17.803 Y20.718
X17.562 Y20.651
X17.327 Y20.564
X17.097 Y20.457
X16.876 Y20.332
X16.664 Y20.188
X16.463 Y20.027
X16.275 Y19.85
X16.101 Y19.657
X15.942 Y19.45
X15.801 Y19.23
X15.676 Y18.999
X15.571 Y18.758
X15.485 Y18.509
X15.419 Y18.253
X15.373 Y17.992
X15.349 Y17.727
X15.346 Y17.462
X15.365 Y17.196
X15.404 Y16.933
X15.465 Y16.673
X15.547 Y16.419
X15.648 Y16.171
X15.77 Y15.933
X15.91 Y15.705
X16.068 Y15.489
X16.243 Y15.286
X16.434 Y15.098
X16.639 Y14.926
X16.858 Y14.77
X17.088 Y14.633
X17.329 Y14.514
X17.579 Y14.416
X17.835 Y14.337
X18.098 Y14.28
X18.364 Y14.243
X18.632 Y14.229
X18.9 Y14.235
X19.167 Y14.263
X19.431 Y14.313
X19.691 Y14.384
X19.943 Y14.475
X20.188 Y14.586
X20.423 Y14.716
X20.647 Y14.865
X20.874 Y15.045
X21.114 Y15.267
X21.34 Y15.514
X21.552 Y15.785
X21.741 Y16.074
X21.904 Y16.37
X22.038 Y16.671
X22.146 Y16.973
X22.227 Y17.277
X22.282 Y17.58
X22.312 Y17.883
X22.318 Y18.183
X22.3 Y18.48
X22.258 Y18.773
X22.193 Y19.06
X22.106 Y19.34
X21.996 Y19.613
X21.865 Y19.876
X21.713 Y20.128
X21.54 Y20.369
X21.347 Y20.596
X21.135 Y20.809
X20.905 Y21.005
X20.658 Y21.184
X20.395 Y21.343
X20.118 Y21.482
X19.829 Y21.6
X19.528 Y21.694
X19.218 Y21.765
X18.901 Y21.811
X18.58 Y21.831
X18.255 Y21.826
X17.93 Y21.794
X17.606 Y21.736
X17.286 Y21.652
X16.972 Y21.541
X16.667 Y21.406
X16.371 Y21.245
X16.088 Y21.06
X15.82 Y20.852
X15.568 Y20.622
X15.335 Y20.372
X15.121 Y20.103
X14.93 Y19.816
X14.761 Y19.515
X14.617 Y19.2
X14.498 Y18.873
X14.406 Y18.538
X14.341 Y18.196
X14.303 Y17.848
X14.293 Y17.499
X14.312 Y17.149
X14.358 Y16.802
X14.433 Y16.459
X14.534 Y16.123
X14.663 Y15.795
X14.817 Y15.479
X14.997 Y15.177
X15.2 Y14.889
X15.426 Y14.619
X15.672 Y14.367
X15.939 Y14.136
X16.223 Y13.927
X16.523 Y13.741
X16.837 Y13.58
X17.163 Y13.445
X17.499 Y13.337
X17.842 Y13.255
X18.191 Y13.202
X18.544 Y13.176
X18.897 Y13.179
X19.249 Y13.211
X19.597 Y13.27
X19.939 Y13.357
X20.274 Y13.472
X20.602 Y13.615
X20.93 Y13.79
X21.252 Y13.997
X21.566 Y14.236
X21.866 Y14.505
X22.148 Y14.802
X22.405 Y15.121
X22.636 Y15.46
X22.838 Y15.815
X23.01 Y16.181
X23.15 Y16.558
X23.259 Y16.94
X23.336 Y17.327
X23.381 Y17.716
X23.395 Y18.105
X23.378 Y18.492
X23.33 Y18.874
X23.252 Y19.25
X23.144 Y19.617
X23.007 Y19.975
X22.841 Y20.321
X22.648 Y20.652
X22.429 Y20.969
X22.184 Y21.267
X21.914 Y21.547
X21.622 Y21.805
X21.308 Y22.04
X20.974 Y22.25
X20.622 Y22.434
X20.255 Y22.59
X19.874 Y22.716
X19.482 Y22.813
X19.081 Y22.878
X18.673 Y22.91
X18.263
X17.851 Y22.877
X17.441 Y22.811
X17.036 Y22.711
X16.638 Y22.578
X16.25 Y22.414
X15.876 Y22.217
X15.517 Y21.991
X15.176 Y21.735
X14.855 Y21.452
X14.557 Y21.143
X14.284 Y20.811
X14.039 Y20.456
X13.821 Y20.082
X13.634 Y19.691
X13.479 Y19.285
X13.357 Y18.868
X13.268 Y18.441
X13.214 Y18.007
X13.195 Y17.571
X13.211 Y17.133
X13.262 Y16.698
X13.347 Y16.267
X13.468 Y15.845
X13.622 Y15.433
X13.808 Y15.035
X14.026 Y14.653
X14.274 Y14.289
X14.551 Y13.947
X14.854 Y13.627
X15.182 Y13.333
X15.533 Y13.066
X15.904 Y12.827
X16.294 Y12.62
X16.698 Y12.444
X17.116 Y12.301
X17.544 Y12.192
X17.979 Y12.118
X18.419 Y12.079
X18.86 Y12.076
X19.301 Y12.108
X19.738 Y12.175
X20.172 Y12.278
X20.6 Y12.417
X21.016 Y12.59
X21.417 Y12.795
X21.801 Y13.031
X22.165 Y13.295
X22.509 Y13.586
X22.83 Y13.902
X23.128 Y14.24
X23.4 Y14.599
X23.645 Y14.977
X23.862 Y15.372
X24.049 Y15.782
X24.206 Y16.204
X24.331 Y16.637
X24.423 Y17.078
X24.481 Y17.524
X24.506 Y17.974
X24.496 Y18.424
X24.452 Y18.873
X24.374 Y19.316
X24.263 Y19.753
X24.119 Y20.18
X23.942 Y20.594
X23.735 Y20.994
X23.498 Y21.377
X23.232 Y21.74
X22.94 Y22.083
X22.622 Y22.403
X22.282 Y22.698
X21.92 Y22.966
X21.539 Y23.207
X21.142 Y23.418
X20.729 Y23.599
X20.304 Y23.749
X19.869 Y23.867
X19.427 Y23.953
X18.98 Y24.006
X18.53 Y24.027
X18.08 Y24.016
X17.631 Y23.973
X17.187 Y23.898
X16.75 Y23.791
X16.321 Y23.652
X15.904 Y23.483
X15.499 Y23.285
X15.109 Y23.059
X14.736 Y22.807
X14.382 Y22.529
X14.047 Y22.227
X13.735 Y21.903
X13.446 Y21.557
X13.183 Y21.191
X12.945 Y20.809
X12.734 Y20.411
X12.551 Y19.999
X12.395 Y19.577
X12.271 Y19.144
X12.176 Y18.703
X12.113 Y18.257
X12.08 Y17.808
X12.078 Y17.358
X12.106 Y16.908
X12.164 Y16.461
X12.253 Y16.02
X12.374 Y15.586
X12.523 Y15.161
X12.701 Y14.747
X12.907 Y14.346
X13.138 Y13.96
X13.396 Y13.59
X13.679 Y13.24
X13.985 Y12.91
X14.313 Y12.601
X14.661 Y12.315
X15.028 Y12.054
X15.411 Y11.817
X15.81 Y11.607
X16.222 Y11.426
X16.646 Y11.273
X17.079 Y11.15
X17.52 Y11.055
X17.965 Y10.991
X18.415 Y10.956
X18.865 Y10.953
X19.315 Y10.982
X19.761 Y11.04
X20.203 Y11.129
X20.638 Y11.246
X21.064 Y11.391
X21.48 Y11.566
X21.882 Y11.767
X22.271 Y11.995
X22.644 Y12.247
X23.001 Y12.521
X23.341 Y12.818
X23.661 Y13.135
X23.96 Y13.472
X24.237 Y13.827
X24.492 Y14.198
X24.724 Y14.584
X24.931 Y14.984
X25.114 Y15.396
X25.27 Y15.818
X25.398 Y16.25
X25.499 Y16.689
X25.573 Y17.133
X25.618 Y17.582
X25.636 Y18.032
X25.624 Y18.482
X25.583 Y18.931
X25.513 Y19.376
X25.415 Y19.815
X25.29 Y20.248
X25.138 Y20.672
X24.959 Y21.085
X24.753 Y21.486
X24.522 Y21.872
X24.266 Y22.243
X23.988 Y22.598
X23.689 Y22.934
X23.369 Y23.251
X23.029 Y23.547
X22.67 Y23.819
X22.295 Y24.069
X21.906 Y24.295
X21.503 Y24.497
X21.088 Y24.673
X20.663 Y24.822
X20.229 Y24.943
X19.789 Y25.038
X19.344 Y25.106
X18.895 Y25.147
X18.445 Y25.16
X17.995 Y25.147
X17.546 Y25.105
X17.101 Y25.035
X16.661 Y24.939
X16.228 Y24.816
X15.802 Y24.667
X15.387 Y24.494
X14.982 Y24.296
X14.591 Y24.073
X14.213 Y23.827
X13.851 Y23.56
X13.505 Y23.271
X13.176 Y22.963
X12.867 Y22.636
X12.578 Y22.29
X12.31 Y21.928
X12.064 Y21.55
X11.841 Y21.159
X11.64 Y20.756
X11.463 Y20.342
X11.311 Y19.918
X11.185 Y19.486
X11.085 Y19.046
X11.011 Y18.602
X10.962 Y18.154
X10.939 Y17.704
X10.942 Y17.254
X10.972 Y16.804
X11.029 Y16.358
X11.112 Y15.915
X11.221 Y15.478
X11.354 Y15.048
X11.512 Y14.626
X11.694 Y14.214
X11.9 Y13.813
X12.129 Y13.425
X12.381 Y13.052
X12.654 Y12.694
X12.948 Y12.352
X13.26 Y12.027
X13.59 Y11.721
X13.938 Y11.435
X14.302 Y11.17
X14.681 Y10.926
X15.074 Y10.706
X15.479 Y10.508
X15.894 Y10.333
X16.318 Y10.183
X16.751 Y10.058
X17.191 Y9.959
X17.635 Y9.885
X18.083 Y9.837
X18.533 Y9.815
X18.983 Y9.819
X19.433 Y9.849
X19.88 Y9.906
X20.323 Y9.988
X20.76 Y10.095
X21.191 Y10.227
X21.613 Y10.384
X22.026 Y10.563
X22.429 Y10.766
X22.819 Y10.991
X23.196 Y11.237
X23.559 Y11.504
X23.907 Y11.79
X24.239 Y12.094
X24.554 Y12.416
X24.852 Y12.754
X25.13 Y13.108
X25.389 Y13.477
X25.628 Y13.859
X25.846 Y14.253
X26.043 Y14.658
X26.217 Y15.073
X26.369 Y15.497
X26.498 Y15.929
X26.602 Y16.367
X26.683 Y16.811
X26.739 Y17.257
X26.771 Y17.707
X26.778 Y18.157
X26.762 Y18.607
X26.72 Y19.056
X26.653 Y19.501
X26.562 Y19.942
X26.446 Y20.378
X26.308 Y20.806
X26.146 Y21.227
X25.961 Y21.638
X25.754 Y22.038
X25.525 Y22.425
X25.275 Y22.8
X25.005 Y23.161
X24.716 Y23.506
X24.408 Y23.835
X24.083 Y24.147
X23.742 Y24.441
X23.384 Y24.715
X23.012 Y24.969
X22.627 Y25.203
X22.23 Y25.416
X21.822 Y25.607
X21.405 Y25.776
X20.979 Y25.922
X20.546 Y26.045
X20.106 Y26.144
X19.662 Y26.22
X19.215 Y26.272
X18.765 Y26.3
X18.315 Y26.305
X17.865 Y26.287
X17.416 Y26.244
X16.971 Y26.177
X16.529 Y26.087
X16.094 Y25.973
X15.664 Y25.838
X15.242 Y25.68
X14.829 Y25.5
X14.426 Y25.3
X14.034 Y25.078
X13.654 Y24.836
X13.287 Y24.575
X12.934 Y24.295
X12.596 Y23.997
X12.273 Y23.683
X11.967 Y23.352
X11.679 Y23.006
X11.409 Y22.645
X11.159 Y22.271
X10.927 Y21.884
X10.716 Y21.487
X10.525 Y21.079
X10.355 Y20.662
X10.206 Y20.236
X10.08 Y19.804
X9.977 Y19.366
X9.896 Y18.922
X9.837 Y18.476
X9.801 Y18.027
X9.788 Y17.577
X9.797 Y17.126
X9.829 Y16.677
X9.885 Y16.23
X9.964 Y15.786
X10.065 Y15.347
X10.188 Y14.914
X10.332 Y14.488
X10.498 Y14.069
X10.685 Y13.659
X10.892 Y13.259
X11.12 Y12.87
X11.367 Y12.494
X11.633 Y12.13
X11.918 Y11.781
X12.219 Y11.446
X12.536 Y11.126
X12.869 Y10.823
X13.218 Y10.537
X13.58 Y10.27
X13.956 Y10.022
X14.344 Y9.793
X14.743 Y9.584
X15.151 Y9.394
X15.569 Y9.226
X15.995 Y9.078
X16.428 Y8.953
X16.866 Y8.85
X17.309 Y8.77
X17.756 Y8.712
X18.205 Y8.677
X18.655 Y8.664
X19.106 Y8.673
X19.555 Y8.705
X20.002 Y8.76
X20.446 Y8.838
X20.885 Y8.938
X21.319 Y9.059
X21.746 Y9.202
X22.166 Y9.365
X22.577 Y9.549
X22.979 Y9.752
X23.37 Y9.976
X23.75 Y10.218
X24.117 Y10.479
X24.472 Y10.756
X24.813 Y11.051
X25.14 Y11.36
X25.452 Y11.685
X25.748 Y12.025
X26.028 Y12.378
X26.29 Y12.744
X26.534 Y13.123
X26.76 Y13.512
X26.968 Y13.912
X27.157 Y14.321
X27.326 Y14.738
X27.476 Y15.163
X27.605 Y15.595
X27.712 Y16.032
X27.798 Y16.474
X27.864 Y16.92
X27.908 Y17.368
X27.93 Y17.818
X27.932 Y18.269
X27.912 Y18.719
X27.87 Y19.167
X27.806 Y19.613
X27.72 Y20.055
X27.613 Y20.493
X27.486 Y20.925
X27.338 Y21.35
X27.17 Y21.768
X26.983 Y22.178
X26.775 Y22.578
X26.548 Y22.967
X26.303 Y23.345
X26.04 Y23.71
X25.759 Y24.063
X25.463 Y24.402
X25.15 Y24.726
X24.823 Y25.036
X24.481 Y25.329
X24.125 Y25.605
X23.756 Y25.863
X23.375 Y26.104
X22.984 Y26.326
X22.582 Y26.53
X22.171 Y26.715
X21.752 Y26.88
X21.326 Y27.025
X20.893 Y27.15
X20.454 Y27.253
X20.011 Y27.336
X19.565 Y27.398
X19.117 Y27.44
X18.667 Y27.461
X18.216
X17.766 Y27.44
X17.318 Y27.398
X16.872 Y27.335
X16.43 Y27.25
X15.991 Y27.146
X15.558 Y27.021
X15.132 Y26.877
X14.712 Y26.714
X14.3 Y26.532
X13.897 Y26.331
X13.504 Y26.111
X13.121 Y25.873
X12.75 Y25.618
X12.391 Y25.346
X12.044 Y25.058
X11.711 Y24.755
X11.391 Y24.438
X11.087 Y24.106
X10.798 Y23.76
X10.525 Y23.402
X10.27 Y23.031
X10.031 Y22.649
X9.809 Y22.257
X9.606 Y21.855
X9.42 Y21.445
X9.253 Y21.026
X9.105 Y20.601
X8.977 Y20.169
X8.869 Y19.732
X8.781 Y19.29
X8.713 Y18.845
X8.665 Y18.397
X8.636 Y17.947
X8.628 Y17.497
X8.639 Y17.047
X8.671 Y16.597
X8.724 Y16.15
X8.798 Y15.705
X8.891 Y15.265
X9.003 Y14.829
X9.135 Y14.398
X9.286 Y13.973
X9.455 Y13.556
X9.643 Y13.147
X9.85 Y12.746
X10.074 Y12.356
X10.316 Y11.976
X10.575 Y11.607
X10.85 Y11.251
X11.141 Y10.906
X11.446 Y10.575
X11.765 Y10.257
X12.099 Y9.955
X12.446 Y9.668
X12.806 Y9.397
X13.178 Y9.143
X13.561 Y8.905
X13.953 Y8.685
X14.356 Y8.482
X14.766 Y8.297
X15.185 Y8.13
X15.61 Y7.983
X16.042 Y7.855
X16.48 Y7.747
X16.921 Y7.659
X17.366 Y7.59
X17.814 Y7.541
X18.264 Y7.512
X18.714 Y7.503
X19.164 Y7.513
X19.614 Y7.544
X20.061 Y7.596
X20.506 Y7.667
X20.947 Y7.759
X21.384 Y7.869
X21.815 Y7.998
X22.241 Y8.146
X22.66 Y8.312
X23.071 Y8.496
X23.473 Y8.698
X23.866 Y8.918
X24.25 Y9.155
X24.622 Y9.408
X24.984 Y9.677
X25.334 Y9.96
X25.672 Y10.258
X25.997 Y10.57
X26.308 Y10.895
X26.605 Y11.234
X26.888 Y11.585
X27.155 Y11.948
X27.406 Y12.322
X27.641 Y12.706
X27.861 Y13.099
X28.063 Y13.501
X28.249 Y13.912
X28.418 Y14.329
X28.568 Y14.754
X28.699 Y15.185
X28.812 Y15.621
X28.906 Y16.061
X28.982 Y16.506
X29.039 Y16.952
X29.077 Y17.401
X29.096 Y17.851
Y18.302
X29.077 Y18.752
X29.037 Y19.2
X28.979 Y19.647
X28.901 Y20.091
X28.804 Y20.531
X28.689 Y20.966
X28.556 Y21.396
X28.405 Y21.821
X28.236 Y22.238
X28.049 Y22.648
X27.844 Y23.049
X27.621 Y23.441
X27.383 Y23.823
X27.128 Y24.194
X26.858 Y24.555
X26.573 Y24.904
X26.273 Y25.24
X25.96 Y25.564
X25.633 Y25.873
X25.292 Y26.169
X24.94 Y26.449
X24.575 Y26.713
X24.2 Y26.963
X23.815 Y27.196
X23.42 Y27.413
X23.016 Y27.613
X22.605 Y27.796
X22.186 Y27.962
X21.76 Y28.109
X21.329 Y28.238
X20.892 Y28.349
X20.451 Y28.441
X20.007 Y28.515
X19.56 Y28.571
X19.111 Y28.608
X18.661 Y28.627
X18.211 Y28.628
X17.76 Y28.608
X17.312 Y28.57
X16.865 Y28.513
X16.421 Y28.438
X15.98 Y28.344
X15.544 Y28.232
X15.112 Y28.103
X14.686 Y27.957
X14.267 Y27.793
X13.854 Y27.612
X13.45 Y27.414
X13.054 Y27.199
X12.667 Y26.967
X12.291 Y26.721
X11.924 Y26.459
X11.568 Y26.182
X11.224 Y25.892
X10.892 Y25.588
X10.572 Y25.271
X10.266 Y24.94
X9.974 Y24.597
X9.696 Y24.243
X9.433 Y23.877
X9.184 Y23.501
X8.951 Y23.116
X8.734 Y22.721
X8.532 Y22.318
X8.347 Y21.908
X8.179 Y21.49
X8.028 Y21.066
X7.895 Y20.635
X7.78 Y20.2
X7.682 Y19.76
X7.602 Y19.317
X7.539 Y18.871
X7.494 Y18.423
X7.467 Y17.973
X7.458 Y17.523
X7.468 Y17.072
X7.497 Y16.623
X7.543 Y16.175
X7.608 Y15.729
X7.69 Y15.286
X7.79 Y14.847
X7.908 Y14.412
X8.042 Y13.982
X8.193 Y13.558
X8.362 Y13.14
X8.547 Y12.729
X8.749 Y12.327
X8.968 Y11.933
X9.202 Y11.548
X9.451 Y11.173
X9.715 Y10.808
X9.993 Y10.453
X10.284 Y10.11
X10.589 Y9.778
X10.908 Y9.46
X11.239 Y9.155
X11.583 Y8.863
X11.938 Y8.586
X12.303 Y8.323
X12.679 Y8.075
X13.065 Y7.842
X13.459 Y7.624
X13.862 Y7.422
X14.272 Y7.236
X14.69 Y7.067
X15.114 Y6.916
X15.544 Y6.782
X15.979 Y6.665
X16.418 Y6.566
X16.861 Y6.484
X17.307 Y6.42
X17.755 Y6.373
X18.205 Y6.344
X18.655 Y6.333
X19.105 Y6.341
X19.555 Y6.367
X20.003 Y6.411
X20.449 Y6.473
X20.893 Y6.552
X21.333 Y6.649
X21.769 Y6.763
X22.2 Y6.893
X22.625 Y7.04
X23.045 Y7.204
X23.457 Y7.385
X23.862 Y7.582
X24.259 Y7.795
X24.648 Y8.023
X25.027 Y8.266
X25.397 Y8.523
X25.757 Y8.794
X26.106 Y9.079
X26.444 Y9.376
X26.771 Y9.687
X27.085 Y10.01
X27.386 Y10.344
X27.674 Y10.691
X27.949 Y11.048
X28.21 Y11.415
X28.457 Y11.792
X28.69 Y12.177
X28.908 Y12.571
X29.111 Y12.973
X29.298 Y13.383
X29.47 Y13.8
X29.625 Y14.222
X29.763 Y14.651
X29.885 Y15.085
X29.991 Y15.523
X30.08 Y15.964
X30.152 Y16.409
X30.207 Y16.856
X30.245 Y17.305
X30.266 Y17.755
X30.27 Y18.205
X30.255 Y18.655
X30.223 Y19.105
X30.174 Y19.552
X30.108 Y19.998
X30.024 Y20.441
X29.925 Y20.88
X29.808 Y21.315
X29.675 Y21.745
X29.526 Y22.17
X29.36 Y22.589
X29.177 Y23.001
X28.979 Y23.405
X28.765 Y23.802
X28.536 Y24.19
X28.293 Y24.569
X28.035 Y24.938
X27.789 Y25.265
X27.767 Y25.293
X27.743 Y25.319
X27.718 Y25.345
X27.596 Y25.464
X27.187 Y25.835
X27.085 Y25.922
X26.84 Y26.122
X26.778 Y26.173
X26.368 Y26.487
X26.306 Y26.532
X26.16 Y26.634
X26.061 Y26.702
X25.447 Y27.1
X25.372 Y27.146
X25.183 Y27.248
X24.73 Y27.493
X24.611 Y27.555
X24.526 Y27.598
X24.402 Y27.658
X24.321 Y27.696
X24.116 Y27.787
X23.809 Y27.922
X23.707 Y27.967
X23.604 Y28.009
X23.297 Y28.124
X22.99 Y28.233
X22.877 Y28.272
X22.683 Y28.338
X22.581 Y28.37
X22.478 Y28.4
X22.171 Y28.484
X21.818 Y28.579
X21.762 Y28.593
X21.66 Y28.617
X21.557 Y28.638
X21.455 Y28.659
X20.943 Y28.757
X20.841 Y28.775
X20.791 Y28.784
X20.636 Y28.809
X20.534 Y28.824
X20.431 Y28.838
X19.92 Y28.897
X19.817 Y28.907
X19.715 Y28.916
X19.51 Y28.932
X19.408 Y28.938
X18.896 Y28.957
X18.794 Y28.961
X18.691
X18.486 Y28.959
X18.384 Y28.956
X18.179 Y28.947
X17.463 Y28.913
X17.361 Y28.906
X17.258 Y28.894
X16.951 Y28.851
X16.439 Y28.779
X16.337 Y28.764
X16.235 Y28.748
X16.03 Y28.712
X15.928 Y28.692
X15.313 Y28.551
X15.211 Y28.525
X15.006 Y28.471
X14.904 Y28.443
X14.802 Y28.411
X14.29 Y28.25
X14.187 Y28.215
X13.983 Y28.142
X13.88 Y28.104
X13.778 Y28.063
X13.266 Y27.855
X13.164 Y27.812
X12.959 Y27.715
X12.838 Y27.658
X12.754 Y27.616
X12.233 Y27.351
X12.14 Y27.303
X12.038 Y27.243
X11.936 Y27.181
X11.526 Y26.929
X11.424 Y26.865
X11.383 Y26.839
X11.219 Y26.728
X11.083 Y26.634
X11.014 Y26.584
X10.503 Y26.208
X10.392 Y26.122
X10.298 Y26.043
X9.684 Y25.507
X9.578 Y25.406
X9.07 Y24.88
X8.967 Y24.772
X8.895 Y24.689
X8.66 Y24.404
X8.393 Y24.075
X8.311 Y23.973
X8.251 Y23.889
X7.963 Y23.461
X7.73 Y23.075
X7.501 Y22.688
X7.296 Y22.287
X7.113 Y21.875
X6.95 Y21.455
X6.807 Y21.028
X6.682 Y20.595
X6.575 Y20.158
X6.485 Y19.716
X6.412 Y19.272
X6.355 Y18.825
X6.315 Y18.376
X6.292 Y17.926
X6.286 Y17.476
X6.296 Y17.026
X6.322 Y16.576
X6.366 Y16.128
X6.426 Y15.681
X6.502 Y15.237
X6.595 Y14.796
X6.703 Y14.359
X6.826 Y13.926
X6.845 Y13.871
X6.849 Y13.86
G3 X7.438 Y13.917 I0.285 J0.121
G1 X7.452 Y13.984 Z-0.925
X7.466 Y14.048 Z-0.902
X7.478 Y14.106 Z-0.866
X7.488 Y14.154 Z-0.816
X7.495 Y14.19 Z-0.758
X7.5 Y14.212 Z-0.692
X7.502 Y14.22 Z-0.623
G0 Z-0.313
X8.847 Y24.095
G1 Z-0.623 F1000
X8.84 Y24.092 Z-0.692
X8.82 Y24.082 Z-0.758
X8.786 Y24.067 Z-0.816
X8.742 Y24.046 Z-0.866
X8.689 Y24.02 Z-0.902
X8.629 Y23.992 Z-0.925
X8.567 Y23.963 Z-0.933
G3 X7.963 Y23.461 I0.677 J-1.43
G1 X7.894 Y23.359
X7.701 Y23.052
X7.636 Y22.941
X7.416 Y22.54
X7.329 Y22.382
X7.304 Y22.335
X7.253 Y22.233
X7.227 Y22.18
X6.92 Y21.478
X6.893 Y21.414
X6.854 Y21.311
X6.818 Y21.207
X6.647 Y20.697
X6.613 Y20.594
X6.582 Y20.493
X6.553 Y20.39
X6.525 Y20.288
X6.501 Y20.186
X6.355 Y19.571
X6.335 Y19.469
X6.32 Y19.367
X6.276 Y19.06
X6.247 Y18.855
X6.233 Y18.753
X6.203 Y18.502
X6.199 Y18.445
X6.192 Y18.343
X6.168 Y17.831
X6.165 Y17.729
X6.164 Y17.627
X6.163 Y17.524
Y17.422
X6.165 Y17.319
X6.18 Y16.91
X6.187 Y16.808
X6.196 Y16.705
X6.207 Y16.603
X6.23 Y16.398
X6.242 Y16.296
X6.269 Y16.091
X6.284 Y15.989
X6.306 Y15.869
X6.408 Y15.347
X6.424 Y15.272
X6.472 Y15.068
X6.496 Y14.965
X6.511 Y14.91
X6.677 Y14.351
X6.715 Y14.229
X6.744 Y14.146
X6.818 Y13.942
X6.857 Y13.839
X7.064 Y13.327
X7.125 Y13.183
X7.154 Y13.123
X7.227 Y12.976
X7.417 Y12.611
X7.578 Y12.304
X7.638 Y12.202
X7.701 Y12.099
X8.099 Y11.485
X8.148 Y11.413
X8.251 Y11.271
X8.321 Y11.178
X8.66 Y10.747
X8.762 Y10.618
X8.807 Y10.564
X8.865 Y10.499
X8.967 Y10.388
X9.187 Y10.154
X9.284 Y10.052
X9.383 Y9.95
X9.583 Y9.745
X9.684 Y9.649
X10.195 Y9.196
X10.298 Y9.106
X10.39 Y9.028
X10.503 Y8.942
X11.014 Y8.564
X11.079 Y8.517
X11.23 Y8.414
X11.382 Y8.312
X11.424 Y8.285
X11.546 Y8.209
X12.05 Y7.902
X12.14 Y7.848
X12.447 Y7.691
X12.55 Y7.64
X12.857 Y7.488
X13.061 Y7.387
X13.164 Y7.337
X13.266 Y7.295
X13.88 Y7.053
X14.187 Y6.935
X14.29 Y6.9
X15.211 Y6.624
X15.313 Y6.597
X15.432 Y6.572
X16.235 Y6.402
X16.337 Y6.383
X16.439 Y6.367
X16.644 Y6.339
X16.746 Y6.325
X17.258 Y6.26
X17.361 Y6.249
X17.463 Y6.24
X17.668 Y6.225
X17.77 Y6.219
X18.282 Y6.197
X18.384 Y6.193
X18.486 Y6.191
X18.691 Y6.188
X18.794
X18.998 Y6.194
X19.408 Y6.207
X19.51 Y6.214
X19.817 Y6.245
X20.227 Y6.289
X20.431 Y6.311
X20.534 Y6.324
X20.738 Y6.356
X20.841 Y6.373
X20.943 Y6.392
X21.557 Y6.512
X21.66 Y6.533
X21.762 Y6.555
X21.832 Y6.572
X21.864 Y6.58
X21.967 Y6.607
X22.581 Y6.784
X22.888 Y6.876
X22.898 Y6.879
X22.99 Y6.91
X23.093 Y6.949
X23.502 Y7.107
X23.809 Y7.226
X23.912 Y7.266
X23.966 Y7.288
X24.014 Y7.31
X24.116 Y7.358
X24.393 Y7.493
X24.73 Y7.66
X24.935 Y7.763
X25.007 Y7.8
X25.037 Y7.817
X25.14 Y7.875
X25.242 Y7.936
X25.549 Y8.124
X25.754 Y8.249
X25.856 Y8.314
X26.061 Y8.447
X26.163 Y8.52
X26.573 Y8.824
X26.778 Y8.976
X26.842 Y9.028
X27.086 Y9.233
X27.187 Y9.321
X27.596 Y9.688
X27.801 Y9.885
X27.865 Y9.95
X28.006 Y10.101
X28.244 Y10.359
X28.337 Y10.461
X28.429 Y10.564
X28.519 Y10.666
X28.602 Y10.768
X28.837 Y11.076
X29.07 Y11.383
X29.132 Y11.468
X29.234 Y11.619
X29.279 Y11.69
X29.439 Y11.948
X29.594 Y12.202
X29.746 Y12.458
X29.772 Y12.509
X29.824 Y12.611
X29.951 Y12.867
X30.075 Y13.123
X30.123 Y13.225
X30.214 Y13.43
X30.258 Y13.532
X30.299 Y13.635
X30.488 Y14.146
X30.525 Y14.249
X30.565 Y14.373
X30.622 Y14.556
X30.652 Y14.658
X30.785 Y15.17
X30.812 Y15.272
X30.833 Y15.375
X30.874 Y15.579
X30.893 Y15.682
X30.925 Y15.886
X30.989 Y16.296
X31.002 Y16.398
X31.023 Y16.603
X31.032 Y16.705
X31.038 Y16.808
X31.061 Y17.319
X31.065 Y17.422
X31.068 Y17.627
Y17.729
X31.067 Y17.831
X31.061 Y18.036
X31.057 Y18.138
X31.046 Y18.343
X31.039 Y18.445
X31.029 Y18.548
X31.007 Y18.753
X30.995 Y18.855
X30.982 Y18.957
X30.968 Y19.06
X30.953 Y19.162
X30.936 Y19.264
X30.879 Y19.571
X30.84 Y19.776
X30.819 Y19.878
X30.66 Y20.493
X30.63 Y20.595
X30.562 Y20.8
X30.492 Y21.004
X30.422 Y21.209
X30.384 Y21.311
X30.305 Y21.516
X30.258 Y21.628
X30.125 Y21.926
X30.053 Y22.084
X29.985 Y22.233
X29.951 Y22.304
X29.934 Y22.335
X29.879 Y22.437
X29.595 Y22.949
X29.541 Y23.041
X29.404 Y23.256
X29.337 Y23.362
X29.271 Y23.461
X29.132 Y23.668
X29.062 Y23.768
X28.916 Y23.973
X28.838 Y24.075
X28.593 Y24.382
X28.51 Y24.485
X28.313 Y24.719
X28.249 Y24.792
X27.863 Y25.201
X27.801 Y25.264
X27.718 Y25.345
G3 X27.288 Y25.334 I-0.209 J-0.229
G1 X27.261 Y25.288 Z-0.928
X27.235 Y25.243 Z-0.914
X27.211 Y25.201 Z-0.891
X27.204 Y25.155 Z-0.858
X27.199 Y25.116 Z-0.818
X27.203 Y25.079 Z-0.759
X27.206 Y25.056 Z-0.693
X27.207 Y25.048 Z-0.623
G0 Z-0.113
X18.067 Y8.257
G1 Z-0.423 F1000
X18.066 Y8.249 Z-0.492
Y8.226 Z-0.558
X18.064 Y8.189 Z-0.616
X18.063 Y8.14 Z-0.666
X18.061 Y8.081 Z-0.702
X18.059 Y8.016 Z-0.725
X18.057 Y7.947 Z-0.733
G3 X18.188 Y6.247 I7.91 J-0.247
G1 X18.195 Y6.213
X18.218 Y6.188
X18.251 Y6.178
X18.384 Y6.172
X18.486 Y6.17
X18.691 Y6.168
X18.794
X18.998 Y6.174
X19.408 Y6.187
X19.51 Y6.193
X19.612 Y6.202
X19.715 Y6.213
X20.124 Y6.256
X20.329 Y6.28
X20.431 Y6.291
X20.534 Y6.305
X20.738 Y6.336
X20.841 Y6.352
X20.943 Y6.371
X21.25 Y6.431
X21.557 Y6.493
X21.762 Y6.537
X21.864 Y6.561
X21.907 Y6.572
X22.171 Y6.646
X22.274 Y6.675
X22.581 Y6.765
X22.786 Y6.827
X22.888 Y6.858
X22.953 Y6.879
X23.093 Y6.93
X23.297 Y7.007
X23.604 Y7.127
X23.809 Y7.208
X23.912 Y7.249
X24.014 Y7.293
X24.116 Y7.34
X24.321 Y7.437
X24.435 Y7.493
X24.641 Y7.595
X24.842 Y7.698
X24.935 Y7.745
X25.039 Y7.8
X25.14 Y7.857
X25.242 Y7.916
X25.345 Y7.977
X25.72 Y8.209
X25.881 Y8.312
X26.037 Y8.414
X26.061 Y8.43
X26.163 Y8.501
X26.327 Y8.619
X26.368 Y8.649
X26.47 Y8.725
X26.778 Y8.959
X26.864 Y9.028
X27.112 Y9.233
X27.187 Y9.298
X27.289 Y9.389
X27.458 Y9.54
X27.494 Y9.573
X27.596 Y9.669
X27.699 Y9.767
X27.801 Y9.867
X27.883 Y9.95
X27.981 Y10.052
X28.172 Y10.257
X28.267 Y10.359
X28.313 Y10.41
X28.446 Y10.564
X28.534 Y10.666
X28.62 Y10.772
X28.777 Y10.973
X28.856 Y11.076
X28.933 Y11.178
X29.084 Y11.383
X29.132 Y11.448
X29.234 Y11.601
X29.292 Y11.69
X29.358 Y11.792
X29.439 Y11.922
X29.549 Y12.099
X29.61 Y12.202
X29.746 Y12.44
X29.784 Y12.509
X29.848 Y12.634
X29.951 Y12.836
X29.991 Y12.918
X30.091 Y13.123
X30.138 Y13.225
X30.183 Y13.327
X30.258 Y13.504
X30.269 Y13.532
X30.31 Y13.635
X30.389 Y13.839
X30.427 Y13.942
X30.503 Y14.146
X30.539 Y14.249
X30.565 Y14.329
X30.633 Y14.556
X30.667 Y14.677
X30.744 Y14.965
X30.798 Y15.17
X30.824 Y15.272
X30.846 Y15.375
X30.885 Y15.579
X30.903 Y15.682
X30.966 Y16.091
X30.998 Y16.296
X31.011 Y16.398
X31.032 Y16.603
X31.041 Y16.705
X31.047 Y16.808
X31.068 Y17.217
X31.072 Y17.319
X31.076 Y17.422
X31.079 Y17.627
Y17.729
X31.078 Y17.831
X31.07 Y18.036
X31.066 Y18.138
X31.054 Y18.343
X31.047 Y18.445
X31.038 Y18.548
X31.018 Y18.753
X31.006 Y18.855
X30.992 Y18.957
X30.974 Y19.072
X30.907 Y19.469
X30.889 Y19.571
X30.85 Y19.776
X30.828 Y19.878
X30.803 Y19.981
X30.749 Y20.186
X30.722 Y20.288
X30.665 Y20.493
X30.636 Y20.595
X30.565 Y20.826
X30.54 Y20.902
X30.506 Y21.004
X30.434 Y21.209
X30.395 Y21.311
X30.313 Y21.516
X30.258 Y21.651
X30.155 Y21.887
X30.138 Y21.926
X30.092 Y22.028
X29.996 Y22.233
X29.945 Y22.335
X29.89 Y22.437
X29.607 Y22.949
X29.541 Y23.06
X29.417 Y23.256
X29.337 Y23.382
X29.234 Y23.535
X29.132 Y23.688
X29.076 Y23.768
X28.927 Y23.979
X28.855 Y24.075
X28.609 Y24.382
X28.518 Y24.494
X28.313 Y24.741
X28.268 Y24.792
X28.211 Y24.855
X28.108 Y24.964
X27.981 Y25.099
X27.881 Y25.201
X27.801 Y25.282
X27.675 Y25.406
X27.596 Y25.482
X27.494 Y25.578
X27.289 Y25.764
X27.232 Y25.815
X27.187 Y25.855
X27.115 Y25.918
X26.862 Y26.122
X26.778 Y26.19
X26.467 Y26.429
X26.368 Y26.504
X26.33 Y26.532
X26.163 Y26.649
X26.061 Y26.718
X25.856 Y26.851
X25.401 Y27.146
X25.345 Y27.178
X25.14 Y27.289
X24.73 Y27.509
X24.628 Y27.563
X24.526 Y27.614
X24.423 Y27.665
X24.321 Y27.714
X23.912 Y27.895
X23.707 Y27.984
X23.604 Y28.027
X23.4 Y28.105
X23.297 Y28.143
X23.195 Y28.18
X22.99 Y28.252
X22.888 Y28.287
X22.628 Y28.374
X22.478 Y28.418
X22.272 Y28.477
X22.171 Y28.504
X21.892 Y28.579
X21.864 Y28.586
X21.762 Y28.611
X21.66 Y28.634
X21.557 Y28.656
X21.432 Y28.681
X20.898 Y28.784
X20.841 Y28.794
X20.738 Y28.811
X20.636 Y28.827
X20.534 Y28.843
X20.431 Y28.857
X19.715 Y28.939
X19.612 Y28.948
X19.51 Y28.954
X18.896 Y28.977
X18.794 Y28.981
X18.691 Y28.982
X18.486 Y28.98
X18.384 Y28.977
X18.179 Y28.968
X17.463 Y28.934
X17.361 Y28.927
X17.258 Y28.915
X17.038 Y28.886
X16.439 Y28.802
X16.315 Y28.784
X16.235 Y28.771
X16.03 Y28.736
X15.928 Y28.716
X15.313 Y28.575
X15.211 Y28.55
X15.006 Y28.497
X14.931 Y28.477
X14.802 Y28.437
X14.278 Y28.272
X14.187 Y28.242
X13.983 Y28.169
X13.88 Y28.132
X13.778 Y28.091
X13.216 Y27.862
X13.164 Y27.839
X13.061 Y27.793
X12.857 Y27.698
X12.775 Y27.658
X12.447 Y27.491
X12.243 Y27.387
X12.173 Y27.351
X12.14 Y27.333
X12.038 Y27.275
X11.936 Y27.216
X11.82 Y27.146
X11.424 Y26.9
X11.321 Y26.834
X11.117 Y26.694
X11.032 Y26.634
X10.4 Y26.169
X10.344 Y26.122
X10.093 Y25.905
X9.684 Y25.547
X9.581 Y25.455
X8.94 Y24.792
X8.865 Y24.706
X8.6 Y24.382
X8.351 Y24.075
X8.272 Y23.973
X8.251 Y23.943
X8.148 Y23.795
X8.046 Y23.644
X7.922 Y23.461
X7.841 Y23.337
X7.79 Y23.256
X7.636 Y23.008
X7.603 Y22.949
X7.321 Y22.437
X7.264 Y22.335
X7.227 Y22.263
X7.078 Y21.926
X6.92 Y21.565
X6.899 Y21.516
X6.857 Y21.414
X6.818 Y21.311
X6.781 Y21.209
X6.575 Y20.595
X6.542 Y20.493
X6.514 Y20.39
X6.464 Y20.186
X6.306 Y19.517
X6.283 Y19.367
X6.224 Y18.957
X6.196 Y18.753
X6.182 Y18.65
X6.171 Y18.548
X6.162 Y18.445
X6.156 Y18.343
X6.132 Y17.831
X6.128 Y17.729
X6.127 Y17.627
X6.126 Y17.524
Y17.422
X6.128 Y17.319
X6.136 Y17.115
X6.141 Y17.012
X6.153 Y16.808
X6.161 Y16.705
X6.17 Y16.603
X6.193 Y16.398
X6.205 Y16.296
X6.232 Y16.091
X6.247 Y15.989
X6.266 Y15.886
X6.366 Y15.375
X6.387 Y15.272
X6.411 Y15.17
X6.458 Y14.965
X6.487 Y14.863
X6.64 Y14.351
X6.671 Y14.249
X6.715 Y14.122
X6.78 Y13.942
X6.819 Y13.839
X7.068 Y13.225
X7.116 Y13.123
X7.227 Y12.902
X7.271 Y12.816
X7.486 Y12.406
X7.539 Y12.304
X7.595 Y12.202
X8.046 Y11.506
X8.059 Y11.485
X8.13 Y11.383
X8.251 Y11.216
X8.278 Y11.178
X8.357 Y11.076
X8.601 Y10.768
X8.66 Y10.696
X8.865 Y10.456
X8.951 Y10.359
X9.337 Y9.95
X9.581 Y9.7
X9.645 Y9.643
X10.107 Y9.233
X10.223 Y9.131
X10.343 Y9.028
X10.4 Y8.981
X11.029 Y8.517
X11.117 Y8.454
X11.321 Y8.316
X11.424 Y8.251
X12.038 Y7.876
X12.14 Y7.817
X12.171 Y7.8
X12.243 Y7.763
X12.55 Y7.61
X12.785 Y7.493
X12.995 Y7.391
X13.061 Y7.359
X13.164 Y7.311
X13.213 Y7.288
X13.88 Y7.026
X14.085 Y6.947
X14.187 Y6.908
X14.276 Y6.879
X14.959 Y6.674
X15.211 Y6.6
X15.321 Y6.572
X15.518 Y6.53
X16.286 Y6.367
X16.337 Y6.359
X16.439 Y6.344
X16.644 Y6.316
X17.258 Y6.238
X17.361 Y6.226
X17.463 Y6.217
X17.565 Y6.21
X17.668 Y6.203
X17.77 Y6.198
X18.251 Y6.178
G3 X18.563 Y6.474 I0.002 J0.31
G1 Y6.488
X18.55 Y6.54 Z-0.725
X18.537 Y6.591 Z-0.708
X18.525 Y6.637 Z-0.682
X18.493 Y6.673 Z-0.644
X18.467 Y6.702 Z-0.597
X18.448 Y6.723 Z-0.543
X18.436 Y6.736 Z-0.484
X18.432 Y6.741 Z-0.424
G0 Z2.5
X30.528 Y16.323
Z0.087
G1 Z-0.223 F1000
X30.531 Y16.329 Z-0.292
X30.542 Y16.35 Z-0.358
X30.559 Y16.382 Z-0.416
X30.582 Y16.426 Z-0.466
X30.609 Y16.478 Z-0.502
X30.639 Y16.536 Z-0.525
X30.671 Y16.597 Z-0.533
G3 X31.059 Y18.258 I-3.047 J1.587
G1 X31.053 Y18.36
X31.048 Y18.445
X31.04 Y18.548
X31.023 Y18.753
X31.01 Y18.855
X30.993 Y18.957
X30.857 Y19.776
X30.835 Y19.878
X30.809 Y19.981
X30.637 Y20.595
X30.565 Y20.852
X30.549 Y20.902
X30.513 Y21.004
X30.435 Y21.209
X30.396 Y21.311
X30.19 Y21.823
X30.148 Y21.926
X30.101 Y22.028
X29.998 Y22.233
X29.946 Y22.335
X29.837 Y22.54
X29.619 Y22.949
X29.559 Y23.052
X29.427 Y23.256
X29.337 Y23.395
X29.132 Y23.7
X28.927 Y23.999
X28.872 Y24.075
X28.518 Y24.504
X28.279 Y24.792
X28.211 Y24.872
X28.191 Y24.894
X28.108 Y24.982
X27.993 Y25.099
X27.89 Y25.201
X27.577 Y25.508
X27.471 Y25.611
X27.363 Y25.713
X27.289 Y25.781
X27.251 Y25.815
X27.187 Y25.868
X26.744 Y26.225
X26.47 Y26.444
X26.368 Y26.52
X26.266 Y26.59
X25.959 Y26.795
X25.737 Y26.941
X25.423 Y27.146
X25.345 Y27.192
X24.73 Y27.522
X24.667 Y27.555
X24.423 Y27.682
X24.321 Y27.731
X24.257 Y27.76
X24.014 Y27.865
X23.707 Y27.994
X23.4 Y28.122
X23.297 Y28.162
X23.278 Y28.17
X23.195 Y28.199
X23.093 Y28.233
X22.974 Y28.272
X22.332 Y28.477
X22.274 Y28.494
X22.171 Y28.522
X21.95 Y28.579
X21.864 Y28.599
X21.455 Y28.691
X21.25 Y28.736
X21.148 Y28.757
X20.943 Y28.797
X20.841 Y28.815
X20.738 Y28.83
X20.431 Y28.872
X20.227 Y28.899
X20.124 Y28.912
X19.92 Y28.936
X19.817 Y28.947
X19.715 Y28.955
X19.51 Y28.969
X19.408 Y28.975
X18.998 Y28.992
X18.794 Y28.999
X18.691 Y29
X18.486 Y28.999
X18.384 Y28.997
X18.178 Y28.988
X17.463 Y28.955
X17.361 Y28.949
X17.258 Y28.938
X16.951 Y28.897
X16.542 Y28.84
X16.439 Y28.826
X16.337 Y28.811
X16.235 Y28.794
X16.03 Y28.758
X15.928 Y28.737
X15.62 Y28.668
X15.313 Y28.598
X15.235 Y28.579
X15.006 Y28.521
X14.904 Y28.492
X14.851 Y28.477
X14.29 Y28.299
X14.187 Y28.266
X14.085 Y28.232
X13.983 Y28.196
X13.909 Y28.17
X13.88 Y28.159
X13.778 Y28.119
X13.471 Y27.994
X13.266 Y27.909
X13.157 Y27.862
X12.926 Y27.76
X12.857 Y27.729
X12.754 Y27.679
X12.513 Y27.555
X12.318 Y27.453
X12.126 Y27.351
X11.936 Y27.247
X11.833 Y27.189
X11.762 Y27.146
X11.526 Y26.998
X11.424 Y26.933
X11.281 Y26.839
X11.117 Y26.73
X11.014 Y26.661
X10.977 Y26.634
X10.559 Y26.327
X10.503 Y26.284
X10.298 Y26.119
X10.176 Y26.02
X10.093 Y25.949
X9.786 Y25.681
X9.706 Y25.611
X9.684 Y25.59
X9.598 Y25.508
X9.479 Y25.391
X9.377 Y25.289
X9.274 Y25.185
X8.967 Y24.867
X8.898 Y24.792
X8.644 Y24.485
X8.353 Y24.126
X8.311 Y24.075
X8.251 Y23.993
X8.046 Y23.696
X7.888 Y23.461
X7.841 Y23.392
X7.82 Y23.359
X7.739 Y23.232
X7.626 Y23.052
X7.566 Y22.949
X7.432 Y22.707
X7.329 Y22.519
X7.227 Y22.329
X7.176 Y22.233
X7.125 Y22.124
X6.92 Y21.655
X6.904 Y21.619
X6.862 Y21.516
X6.78 Y21.311
X6.742 Y21.209
X6.707 Y21.107
X6.57 Y20.697
X6.539 Y20.595
X6.453 Y20.288
X6.426 Y20.186
X6.401 Y20.083
X6.329 Y19.776
X6.305 Y19.674
X6.285 Y19.571
X6.234 Y19.264
X6.218 Y19.162
X6.203 Y19.06
X6.174 Y18.855
X6.161 Y18.753
X6.14 Y18.548
X6.131 Y18.445
X6.124 Y18.343
X6.108 Y18.036
X6.098 Y17.831
X6.095 Y17.729
X6.094 Y17.627
X6.093 Y17.524
Y17.422
X6.096 Y17.319
X6.105 Y17.115
X6.11 Y17.012
X6.121 Y16.808
X6.128 Y16.705
X6.137 Y16.603
X6.158 Y16.398
X6.168 Y16.296
X6.182 Y16.194
X6.216 Y15.989
X6.25 Y15.784
X6.269 Y15.682
X6.349 Y15.272
X6.37 Y15.17
X6.395 Y15.068
X6.453 Y14.863
X6.543 Y14.556
X6.613 Y14.32
X6.636 Y14.249
X6.671 Y14.146
X6.746 Y13.942
X6.785 Y13.839
X6.992 Y13.327
X7.035 Y13.225
X7.082 Y13.123
X7.184 Y12.918
X7.236 Y12.816
X7.342 Y12.611
X7.432 Y12.441
X7.561 Y12.202
X7.622 Y12.099
X7.887 Y11.69
X7.954 Y11.587
X8.046 Y11.449
X8.093 Y11.383
X8.251 Y11.16
X8.313 Y11.076
X8.559 Y10.768
X8.66 Y10.644
X8.812 Y10.461
X8.865 Y10.4
X8.902 Y10.359
X9.289 Y9.95
X9.377 Y9.86
X9.598 Y9.643
X9.684 Y9.562
X10.093 Y9.2
X10.175 Y9.131
X10.429 Y8.926
X10.503 Y8.867
X10.559 Y8.824
X10.912 Y8.563
X10.975 Y8.517
X11.014 Y8.489
X11.126 Y8.414
X11.436 Y8.209
X11.526 Y8.153
X11.833 Y7.965
X11.938 Y7.902
X12.038 Y7.846
X12.345 Y7.682
X12.447 Y7.628
X12.512 Y7.595
X12.925 Y7.391
X12.959 Y7.374
X13.061 Y7.328
X13.399 Y7.186
X13.471 Y7.156
X13.676 Y7.075
X13.983 Y6.954
X14.085 Y6.917
X14.201 Y6.879
X14.526 Y6.776
X14.699 Y6.724
X14.904 Y6.663
X15.006 Y6.634
X15.232 Y6.572
X15.313 Y6.552
X15.518 Y6.506
X15.684 Y6.469
X15.928 Y6.418
X16.235 Y6.355
X16.337 Y6.336
X16.439 Y6.321
X16.746 Y6.281
X17.258 Y6.216
X17.361 Y6.205
X17.463 Y6.196
X17.668 Y6.184
X17.77 Y6.179
X18.282 Y6.157
X18.384 Y6.153
X18.486 Y6.151
X18.691 Y6.149
X18.794 Y6.15
X18.896 Y6.154
X19.408 Y6.176
X19.51 Y6.182
X19.715 Y6.195
X19.817 Y6.203
X19.92 Y6.214
X20.124 Y6.238
X20.227 Y6.252
X20.738 Y6.319
X20.841 Y6.334
X20.943 Y6.352
X21.148 Y6.391
X21.25 Y6.412
X21.762 Y6.527
X21.864 Y6.55
X21.967 Y6.575
X22.171 Y6.628
X22.274 Y6.656
X22.333 Y6.674
X22.683 Y6.785
X22.99 Y6.883
X23.093 Y6.917
X23.195 Y6.952
X23.279 Y6.981
X23.297 Y6.988
X23.4 Y7.029
X23.604 Y7.113
X23.809 Y7.199
X24.116 Y7.33
X24.259 Y7.391
X24.321 Y7.418
X24.423 Y7.468
X24.668 Y7.595
X25.242 Y7.903
X25.345 Y7.958
X25.423 Y8.005
X25.739 Y8.209
X26.061 Y8.422
X26.266 Y8.559
X26.368 Y8.628
X26.47 Y8.704
X26.675 Y8.868
X27 Y9.131
X27.187 Y9.282
X27.251 Y9.335
X27.289 Y9.37
X27.392 Y9.464
X27.494 Y9.561
X27.596 Y9.661
X27.903 Y9.963
X28.006 Y10.065
X28.108 Y10.168
X28.192 Y10.257
X28.211 Y10.278
X28.28 Y10.359
X28.874 Y11.076
X28.927 Y11.149
X29.132 Y11.448
X29.337 Y11.753
X29.439 Y11.909
X29.563 Y12.099
X29.622 Y12.202
X29.893 Y12.713
X29.951 Y12.824
X29.999 Y12.918
X30.102 Y13.123
X30.149 Y13.225
X30.191 Y13.327
X30.396 Y13.839
X30.436 Y13.942
X30.514 Y14.146
X30.55 Y14.249
X30.565 Y14.294
X30.638 Y14.556
X30.77 Y15.025
X30.809 Y15.17
X30.836 Y15.272
X30.858 Y15.375
X30.91 Y15.682
X30.974 Y16.072
X31.01 Y16.296
X31.022 Y16.398
X31.04 Y16.603
X31.049 Y16.705
X31.055 Y16.808
X31.077 Y17.217
X31.083 Y17.319
X31.086 Y17.422
X31.087 Y17.524
Y17.627
X31.086 Y17.729
X31.083 Y17.831
X31.059 Y18.258
G3 X30.734 Y18.539 I-0.309 J-0.028
G1 X30.682 Y18.523 Z-0.528
X30.633 Y18.507 Z-0.514
X30.586 Y18.493 Z-0.491
X30.55 Y18.455 Z-0.453
X30.521 Y18.425 Z-0.405
X30.499 Y18.402 Z-0.349
X30.485 Y18.388 Z-0.288
X30.481 Y18.383 Z-0.224
G0 Z2.5
X18.411 Y26.96
Z0.287
G1 Z-0.023 F1000
Y26.968 Z-0.092
X18.409 Y26.991 Z-0.158
X18.407 Y27.027 Z-0.216
X18.404 Y27.076 Z-0.266
X18.4 Y27.135 Z-0.302
X18.396 Y27.201 Z-0.325
X18.391 Y27.269 Z-0.333
G3 X18.099 Y28.949 I-7.898 J-0.508
G1 X18.089 Y28.982
X18.063 Y29.005
X18.029 Y29.012
X17.463 Y28.982
X17.361 Y28.975
X17.258 Y28.967
X17.156 Y28.958
X17.053 Y28.948
X16.951 Y28.934
X16.012 Y28.784
X15.928 Y28.769
X15.723 Y28.729
X15.62 Y28.708
X15.516 Y28.681
X14.699 Y28.46
X14.597 Y28.432
X14.495 Y28.401
X14.29 Y28.338
X14.187 Y28.302
X13.983 Y28.223
X13.266 Y27.943
X13.164 Y27.902
X13.061 Y27.855
X12.959 Y27.808
X12.857 Y27.76
X12.754 Y27.709
X11.875 Y27.248
X11.833 Y27.226
X11.731 Y27.166
X11.424 Y26.963
X10.785 Y26.532
X10.707 Y26.476
X10.503 Y26.319
X10.382 Y26.225
X10.298 Y26.154
X9.545 Y25.508
X9.479 Y25.449
X9.333 Y25.304
X9.133 Y25.099
X9.034 Y24.996
X8.967 Y24.925
X8.66 Y24.57
X8.558 Y24.449
X8.503 Y24.382
X8.044 Y23.768
X7.971 Y23.666
X7.944 Y23.626
X7.904 Y23.563
X7.583 Y23.052
X7.534 Y22.97
X7.408 Y22.745
X7.352 Y22.642
X7.329 Y22.6
X7.192 Y22.335
X7.125 Y22.198
X7.022 Y21.989
X6.995 Y21.926
X6.952 Y21.823
X6.74 Y21.311
X6.715 Y21.248
X6.613 Y20.939
X6.568 Y20.8
X6.504 Y20.595
X6.473 Y20.493
X6.408 Y20.265
X6.388 Y20.186
X6.364 Y20.083
X6.25 Y19.571
X6.23 Y19.469
X6.197 Y19.264
X6.181 Y19.162
X6.14 Y18.855
X6.127 Y18.753
X6.101 Y18.546
X6.091 Y18.445
X6.085 Y18.343
X6.062 Y17.831
X6.059 Y17.729
X6.058 Y17.627
Y17.524
X6.059 Y17.422
X6.062 Y17.319
X6.085 Y16.808
X6.091 Y16.705
X6.101 Y16.603
X6.126 Y16.398
X6.139 Y16.296
X6.181 Y15.989
X6.196 Y15.886
X6.229 Y15.682
X6.249 Y15.579
X6.363 Y15.068
X6.387 Y14.965
X6.408 Y14.884
X6.472 Y14.658
X6.503 Y14.556
X6.567 Y14.351
X6.613 Y14.209
X6.715 Y13.9
X6.74 Y13.839
X6.952 Y13.327
X6.995 Y13.225
X7.022 Y13.163
X7.142 Y12.918
X7.193 Y12.816
X7.329 Y12.553
X7.353 Y12.509
X7.408 Y12.406
X7.534 Y12.18
X7.582 Y12.099
X7.904 Y11.587
X7.944 Y11.525
X7.97 Y11.485
X8.046 Y11.378
X8.504 Y10.768
X8.558 Y10.704
X8.685 Y10.564
X9.44 Y9.745
X9.479 Y9.703
X9.546 Y9.643
X9.684 Y9.523
X10.298 Y8.997
X10.383 Y8.926
X10.513 Y8.824
X10.707 Y8.674
X10.784 Y8.619
X11.424 Y8.187
X11.701 Y8.005
X11.731 Y7.985
X11.833 Y7.924
X12.345 Y7.656
X12.754 Y7.442
X12.858 Y7.391
X12.959 Y7.343
X13.077 Y7.288
X13.164 Y7.249
X13.266 Y7.208
X14.11 Y6.879
X14.187 Y6.849
X14.29 Y6.814
X14.495 Y6.75
X14.597 Y6.719
X14.904 Y6.636
X15.519 Y6.469
X15.62 Y6.444
X15.723 Y6.422
X15.928 Y6.382
X16.012 Y6.367
X16.951 Y6.217
X17.053 Y6.203
X17.156 Y6.193
X17.258 Y6.184
X17.361 Y6.175
X17.463 Y6.169
X18.282 Y6.125
X18.384 Y6.12
X18.486 Y6.117
X18.691 Y6.115
X18.794
X18.998 Y6.122
X19.408 Y6.137
X19.51 Y6.143
X19.733 Y6.162
X19.817 Y6.17
X20.022 Y6.191
X20.431 Y6.235
X20.534 Y6.249
X20.636 Y6.266
X21.206 Y6.367
X21.455 Y6.416
X21.557 Y6.438
X21.66 Y6.462
X22.171 Y6.592
X22.274 Y6.619
X22.478 Y6.68
X22.581 Y6.711
X22.683 Y6.743
X23.195 Y6.912
X23.297 Y6.948
X23.382 Y6.981
X24.014 Y7.242
X24.117 Y7.288
X24.321 Y7.382
X24.339 Y7.391
X24.423 Y7.432
X24.833 Y7.637
X24.953 Y7.698
X25.037 Y7.741
X25.14 Y7.801
X25.652 Y8.107
X25.754 Y8.169
X25.856 Y8.235
X25.972 Y8.312
X26.061 Y8.374
X26.409 Y8.619
X26.47 Y8.664
X26.68 Y8.824
X26.778 Y8.899
X26.812 Y8.926
X26.982 Y9.066
X27.187 Y9.235
X27.306 Y9.335
X27.392 Y9.413
X27.494 Y9.509
X27.844 Y9.847
X28.006 Y10.005
X28.053 Y10.052
X28.518 Y10.579
X28.62 Y10.695
X28.681 Y10.768
X29.14 Y11.383
X29.213 Y11.485
X29.234 Y11.515
X29.281 Y11.587
X29.601 Y12.099
X29.644 Y12.17
X29.776 Y12.406
X29.831 Y12.509
X29.885 Y12.611
X29.99 Y12.816
X30.053 Y12.942
X30.155 Y13.151
X30.189 Y13.225
X30.258 Y13.391
X30.462 Y13.888
X30.515 Y14.044
X30.565 Y14.192
X30.616 Y14.351
X30.68 Y14.556
X30.711 Y14.658
X30.77 Y14.863
X30.797 Y14.965
X30.821 Y15.068
X30.935 Y15.579
X30.955 Y15.682
X30.974 Y15.796
X30.989 Y15.886
X31.004 Y15.989
X31.044 Y16.296
X31.057 Y16.398
X31.082 Y16.603
X31.091 Y16.705
X31.097 Y16.808
X31.102 Y16.91
X31.126 Y17.319
X31.13 Y17.422
X31.131 Y17.524
Y17.627
X31.13 Y17.729
X31.126 Y17.831
X31.101 Y18.241
X31.096 Y18.343
X31.091 Y18.445
X31.081 Y18.548
X31.056 Y18.753
X31.043 Y18.855
X31.002 Y19.162
X30.987 Y19.264
X30.97 Y19.367
X30.953 Y19.469
X30.933 Y19.571
X30.819 Y20.083
X30.795 Y20.186
X30.768 Y20.288
X30.71 Y20.493
X30.679 Y20.595
X30.615 Y20.8
X30.565 Y20.956
X30.481 Y21.209
X30.462 Y21.264
X30.231 Y21.823
X30.188 Y21.926
X30.155 Y21.998
X30.041 Y22.233
X29.99 Y22.335
X29.848 Y22.607
X29.83 Y22.642
X29.774 Y22.745
X29.644 Y22.978
X29.599 Y23.052
X29.278 Y23.563
X29.234 Y23.631
X29.211 Y23.666
X29.132 Y23.777
X28.678 Y24.382
X28.62 Y24.453
X28.504 Y24.587
X28.108 Y25.035
X28.052 Y25.099
X28.006 Y25.145
X27.845 Y25.304
X27.494 Y25.641
X27.392 Y25.737
X27.306 Y25.815
X27.183 Y25.918
X26.88 Y26.167
X26.809 Y26.225
X26.778 Y26.25
X26.675 Y26.329
X26.47 Y26.485
X26.406 Y26.532
X26.061 Y26.774
X25.959 Y26.845
X25.856 Y26.914
X25.754 Y26.981
X25.65 Y27.044
X25.136 Y27.351
X25.037 Y27.408
X24.935 Y27.461
X24.73 Y27.565
X24.423 Y27.718
X24.321 Y27.768
X24.116 Y27.863
X24.014 Y27.909
X23.38 Y28.17
X23.297 Y28.202
X23.195 Y28.238
X22.683 Y28.406
X22.581 Y28.438
X22.376 Y28.5
X22.274 Y28.531
X22.171 Y28.558
X21.66 Y28.686
X21.557 Y28.711
X21.455 Y28.733
X21.201 Y28.784
X20.626 Y28.886
X20.534 Y28.902
X20.431 Y28.915
X19.92 Y28.97
X19.817 Y28.981
X19.715 Y28.99
X19.51 Y29.008
X19.408 Y29.015
X18.896 Y29.032
X18.794 Y29.035
X18.691 Y29.036
X18.486 Y29.033
X18.384 Y29.03
X18.282 Y29.026
X18.029 Y29.012
G3 X17.747 Y28.688 I0.027 J-0.309
G1 X17.763 Y28.636 Z-0.328
X17.778 Y28.587 Z-0.314
X17.793 Y28.54 Z-0.291
X17.83 Y28.504 Z-0.253
X17.861 Y28.475 Z-0.205
X17.884 Y28.453 Z-0.149
X17.898 Y28.439 Z-0.088
X17.902 Y28.434 Z-0.024
G0 Z2.5
X18.337 Y8.158
Z0.487
G1 Z0.177 F1000
Y8.151 Z0.108
Y8.128 Z0.042
Y8.091 Z-0.016
Y8.042 Z-0.066
Y7.983 Z-0.102
Y7.917 Z-0.125
Y7.848 Z-0.133
G3 X18.524 Y6.154 I7.914 J0.013
G1 X18.532 Y6.12
X18.557 Y6.095
X18.59 Y6.086
X18.896 Y6.085
X18.998 Y6.088
X19.612 Y6.119
X19.92 Y6.145
X20.022 Y6.157
X20.636 Y6.232
X20.943 Y6.288
X21.25 Y6.346
X21.36 Y6.367
X21.66 Y6.428
X21.967 Y6.505
X22.069 Y6.532
X22.274 Y6.59
X22.376 Y6.62
X22.99 Y6.811
X23.093 Y6.847
X23.4 Y6.961
X23.707 Y7.077
X24.014 Y7.206
X24.116 Y7.251
X24.321 Y7.345
X24.423 Y7.394
X24.73 Y7.553
X25.373 Y7.902
X25.447 Y7.947
X25.754 Y8.145
X26.061 Y8.345
X26.165 Y8.414
X26.368 Y8.553
X26.462 Y8.619
X26.736 Y8.824
X26.778 Y8.855
X26.987 Y9.028
X27.108 Y9.131
X27.392 Y9.374
X27.465 Y9.438
X27.596 Y9.562
X27.787 Y9.745
X27.801 Y9.759
X28.006 Y9.974
X28.108 Y10.082
X28.313 Y10.303
X28.415 Y10.413
X28.457 Y10.461
X28.543 Y10.564
X28.712 Y10.768
X28.951 Y11.076
X29.029 Y11.181
X29.132 Y11.321
X29.175 Y11.383
X29.439 Y11.775
X29.45 Y11.792
X29.513 Y11.894
X29.644 Y12.117
X29.808 Y12.406
X29.848 Y12.478
X30.172 Y13.123
X30.219 Y13.225
X30.309 Y13.43
X30.351 Y13.532
X30.467 Y13.839
X30.579 Y14.146
X30.614 Y14.249
X30.683 Y14.453
X30.714 Y14.556
X30.876 Y15.17
X30.898 Y15.272
X30.939 Y15.477
X30.959 Y15.579
X31.014 Y15.886
X31.066 Y16.194
X31.079 Y16.296
X31.103 Y16.501
X31.112 Y16.603
X31.127 Y16.808
X31.134 Y16.91
X31.158 Y17.524
Y17.627
X31.132 Y18.241
X31.124 Y18.343
X31.107 Y18.548
X31.097 Y18.65
X31.018 Y19.264
X30.999 Y19.367
X30.938 Y19.674
X30.872 Y19.998
X30.853 Y20.083
X30.803 Y20.288
X30.77 Y20.409
X30.717 Y20.595
X30.684 Y20.697
X30.577 Y21.004
X30.462 Y21.318
X30.347 Y21.619
X30.304 Y21.721
X30.024 Y22.335
X29.951 Y22.476
X29.848 Y22.67
X29.806 Y22.745
X29.631 Y23.052
X29.513 Y23.256
X29.439 Y23.371
X29.175 Y23.768
X29.132 Y23.831
X29.029 Y23.973
X28.953 Y24.075
X28.713 Y24.382
X28.518 Y24.613
X28.452 Y24.689
X28.184 Y24.996
X28.108 Y25.081
X27.699 Y25.486
X27.596 Y25.586
X27.462 Y25.713
X27.346 Y25.815
X27.112 Y26.02
X27.085 Y26.044
X26.982 Y26.127
X26.458 Y26.532
X26.368 Y26.597
X26.163 Y26.74
X26.061 Y26.809
X25.754 Y27.01
X25.549 Y27.135
X25.14 Y27.382
X25.037 Y27.441
X24.411 Y27.76
X24.321 Y27.805
X24.116 Y27.896
X24.014 Y27.941
X23.4 Y28.194
X23.297 Y28.231
X22.683 Y28.435
X22.558 Y28.477
X22.376 Y28.531
X22.274 Y28.559
X22.069 Y28.613
X21.967 Y28.64
X21.66 Y28.713
X21.045 Y28.848
X20.943 Y28.868
X20.534 Y28.928
X20.329 Y28.957
X20.227 Y28.97
X20.022 Y28.994
X19.92 Y29.004
X19.305 Y29.05
X19.203 Y29.054
X18.998 Y29.061
X18.896 Y29.063
X18.589 Y29.068
X17.975 Y29.053
X17.872 Y29.05
X17.565 Y29.034
X16.951 Y28.973
X16.849 Y28.961
X16.542 Y28.913
X16.03 Y28.826
X15.928 Y28.808
X15.825 Y28.787
X15.518 Y28.717
X15.211 Y28.641
X15.109 Y28.613
X14.495 Y28.442
X14.187 Y28.335
X14.015 Y28.272
X13.471 Y28.071
X13.164 Y27.945
X13.061 Y27.9
X12.857 Y27.806
X12.754 Y27.757
X12.447 Y27.598
X11.805 Y27.248
X11.731 Y27.205
X11.526 Y27.076
X11.424 Y27.011
X11.117 Y26.811
X11.009 Y26.737
X10.605 Y26.452
X10.573 Y26.429
X10.065 Y26.02
X9.786 Y25.77
X9.684 Y25.677
X9.479 Y25.487
X9.392 Y25.406
X9.07 Y25.074
X8.967 Y24.965
X8.762 Y24.745
X8.715 Y24.689
X8.468 Y24.382
X8.229 Y24.075
X8.148 Y23.967
X8.046 Y23.827
X8.004 Y23.768
X7.739 Y23.374
X7.729 Y23.359
X7.666 Y23.256
X7.534 Y23.031
X7.371 Y22.745
X7.329 Y22.67
X7.006 Y22.028
X6.959 Y21.926
X6.869 Y21.721
X6.827 Y21.619
X6.712 Y21.311
X6.6 Y21.004
X6.565 Y20.902
X6.496 Y20.697
X6.465 Y20.595
X6.303 Y19.981
X6.281 Y19.878
X6.24 Y19.674
X6.221 Y19.571
X6.166 Y19.264
X6.113 Y18.957
X6.1 Y18.855
X6.076 Y18.65
X6.066 Y18.548
X6.051 Y18.343
X6.044 Y18.241
X6.02 Y17.627
X6.019 Y17.524
X6.03 Y17.217
X6.044 Y16.91
X6.059 Y16.705
X6.067 Y16.603
X6.078 Y16.501
X6.104 Y16.296
X6.118 Y16.194
X6.203 Y15.642
X6.213 Y15.579
X6.232 Y15.477
X6.306 Y15.135
X6.321 Y15.068
X6.373 Y14.863
X6.46 Y14.556
X6.493 Y14.453
X6.601 Y14.146
X6.715 Y13.833
X6.83 Y13.532
X6.874 Y13.43
X7.152 Y12.816
X7.227 Y12.671
X7.329 Y12.476
X7.432 Y12.295
X7.543 Y12.099
X7.661 Y11.894
X7.726 Y11.792
X7.999 Y11.383
X8.046 Y11.316
X8.148 Y11.176
X8.223 Y11.076
X8.463 Y10.768
X8.66 Y10.536
X8.724 Y10.461
X8.993 Y10.154
X9.07 Y10.069
X9.5 Y9.643
X9.581 Y9.563
X9.714 Y9.438
X9.83 Y9.335
X10.063 Y9.131
X10.093 Y9.105
X10.187 Y9.028
X10.717 Y8.619
X10.81 Y8.552
X11.014 Y8.408
X11.117 Y8.339
X11.424 Y8.139
X11.526 Y8.076
X11.644 Y8.005
X12.038 Y7.768
X12.14 Y7.709
X12.766 Y7.391
X12.857 Y7.346
X13.061 Y7.254
X13.164 Y7.209
X13.778 Y6.956
X13.88 Y6.919
X14.392 Y6.747
X14.612 Y6.674
X14.802 Y6.618
X14.904 Y6.589
X15.109 Y6.535
X15.211 Y6.509
X15.518 Y6.436
X16.132 Y6.302
X16.235 Y6.282
X16.644 Y6.223
X16.849 Y6.193
X16.951 Y6.181
X17.156 Y6.157
X17.258 Y6.146
X17.872 Y6.101
X17.975 Y6.097
X18.179 Y6.092
X18.282 Y6.089
X18.59 Y6.086
G3 X18.891 Y6.394 I-0.01 J0.31
G1 Y6.396
X18.877 Y6.448 Z-0.128
X18.864 Y6.499 Z-0.113
X18.852 Y6.546 Z-0.09
X18.817 Y6.583 Z-0.051
X18.789 Y6.614 Z-0.003
X18.767 Y6.637 Z0.052
X18.754 Y6.651 Z0.113
X18.75 Y6.656 Z0.176
G0 Z2.5
X19.525 Y18.851
Z1.567
S5000
G3 X18.057 Y16.297 Z1.405 I-0.734 J-1.277 F333.3
X19.525 Y18.851 Z1.244 I0.734 J1.277
X18.057 Y16.297 Z1.082 I-0.734 J-1.277
X19.525 Y18.851 Z0.921 I0.734 J1.277
X18.057 Y16.297 Z0.759 I-0.734 J-1.277
X19.525 Y18.851 Z0.598 I0.734 J1.277
X18.057 Y16.297 Z0.436 I-0.734 J-1.277
X19.525 Y18.851 Z0.274 I0.734 J1.277
X18.057 Y16.297 Z0.113 I-0.734 J-1.277
X19.525 Y18.851 Z-0.049 I0.734 J1.277
X18.057 Y16.297 Z-0.21 I-0.734 J-1.277
X19.525 Y18.851 Z-0.372 I0.734 J1.277
X18.057 Y16.297 Z-0.533 I-0.734 J-1.277
X19.525 Y18.851 Z-0.695 I0.734 J1.277
X18.057 Y16.297 Z-0.856 I-0.734 J-1.277
X19.525 Y18.851 Z-1.018 I0.734 J1.277
X18.057 Y16.297 Z-1.179 I-0.734 J-1.277
X19.525 Y18.851 Z-1.341 I0.734 J1.277
X18.057 Y16.297 Z-1.503 I-0.734 J-1.277
X19.525 Y18.851 Z-1.664 I0.734 J1.277
X18.057 Y16.297 Z-1.826 I-0.734 J-1.277
X20.264 Y17.574 Z-1.933 I0.734 J1.277
X17.319 Y17.574 I-1.472 J0
X20.264 Y17.574 I1.472 J0
S10000
G1 X20.269 Y17.799 F1000
X20.395 Y18.157
X20.414 Y18.229
X20.426 Y18.303
X20.431 Y18.378
X20.43 Y18.457
X20.422 Y18.542
X20.406 Y18.632
X20.382 Y18.725
X20.348 Y18.821
X20.305 Y18.92
X20.251 Y19.019
X20.186 Y19.119
X20.111 Y19.217
X20.024 Y19.312
X19.927 Y19.404
X19.819 Y19.49
X19.7 Y19.57
X19.572 Y19.642
X19.435 Y19.706
X19.289 Y19.759
X19.137 Y19.802
X18.978 Y19.832
X18.815 Y19.85
X18.648 Y19.856
X18.479 Y19.847
X18.308 Y19.825
X18.138 Y19.789
X17.97 Y19.738
X17.805 Y19.674
X17.644 Y19.596
X17.489 Y19.505
X17.341 Y19.401
X17.201 Y19.285
X17.07 Y19.157
X16.949 Y19.019
X16.839 Y18.871
X16.742 Y18.714
X16.656 Y18.549
X16.585 Y18.377
X16.527 Y18.2
X16.483 Y18.018
X16.454 Y17.833
X16.44 Y17.646
X16.441 Y17.459
X16.457 Y17.271
X16.488 Y17.086
X16.534 Y16.903
X16.595 Y16.725
X16.669 Y16.552
X16.758 Y16.385
X16.859 Y16.226
X16.973 Y16.075
X17.099 Y15.934
X17.235 Y15.804
X17.382 Y15.685
X17.538 Y15.578
X17.702 Y15.484
X17.873 Y15.403
X18.05 Y15.336
X18.232 Y15.284
X18.417 Y15.247
X18.605 Y15.224
X18.794 Y15.217
X18.984 Y15.224
X19.172 Y15.247
X19.357 Y15.285
X19.539 Y15.338
X19.716 Y15.405
X19.887 Y15.487
X20.051 Y15.581
X20.207 Y15.689
X20.353 Y15.808
X20.49 Y15.939
X20.616 Y16.081
X20.73 Y16.232
X20.887 Y16.481
X21.083 Y16.851
X21.202 Y17.13
X21.286 Y17.38
X21.343 Y17.61
X21.38 Y17.834
X21.398 Y18.05
X21.399 Y18.261
X21.383 Y18.467
X21.351 Y18.669
X21.303 Y18.868
X21.239 Y19.061
X21.159 Y19.25
X21.064 Y19.433
X20.954 Y19.609
X20.828 Y19.778
X20.689 Y19.937
X20.535 Y20.087
X20.367 Y20.225
X20.186 Y20.352
X19.993 Y20.465
X19.788 Y20.563
X19.574 Y20.646
X19.351 Y20.712
X19.12 Y20.761
X18.883 Y20.791
X18.643 Y20.802
X18.399 Y20.794
X18.155 Y20.766
X17.912 Y20.719
X17.672 Y20.651
X17.436 Y20.564
X17.207 Y20.457
X16.985 Y20.332
X16.773 Y20.188
X16.573 Y20.027
X16.384 Y19.85
X16.21 Y19.657
X16.052 Y19.45
X15.91 Y19.231
X15.786 Y19
X15.68 Y18.758
X15.594 Y18.509
X15.528 Y18.253
X15.483 Y17.992
X15.459 Y17.728
X15.456 Y17.462
X15.474 Y17.196
X15.514 Y16.933
X15.574 Y16.673
X15.656 Y16.419
X15.758 Y16.172
X15.879 Y15.933
X16.019 Y15.705
X16.177 Y15.489
X16.352 Y15.286
X16.543 Y15.098
X16.749 Y14.926
X16.967 Y14.771
X17.198 Y14.633
X17.438 Y14.515
X17.688 Y14.416
X17.945 Y14.338
X18.207 Y14.28
X18.473 Y14.244
X18.741 Y14.229
X19.01 Y14.235
X19.277 Y14.264
X19.541 Y14.313
X19.8 Y14.384
X20.053 Y14.475
X20.297 Y14.586
X20.532 Y14.717
X20.756 Y14.866
X20.983 Y15.045
X21.223 Y15.267
X21.449 Y15.514
X21.661 Y15.786
X21.851 Y16.074
X22.013 Y16.37
X22.148 Y16.671
X22.255 Y16.974
X22.336 Y17.277
X22.391 Y17.58
X22.421 Y17.883
X22.427 Y18.183
X22.409 Y18.48
X22.367 Y18.773
X22.303 Y19.06
X22.215 Y19.341
X22.106 Y19.613
X21.975 Y19.876
X21.822 Y20.129
X21.649 Y20.369
X21.456 Y20.597
X21.244 Y20.809
X21.014 Y21.005
X20.767 Y21.184
X20.505 Y21.343
X20.228 Y21.483
X19.938 Y21.6
X19.637 Y21.694
X19.328 Y21.765
X19.011 Y21.811
X18.689 Y21.832
X18.365 Y21.826
X18.039 Y21.795
X17.716 Y21.736
X17.396 Y21.652
X17.082 Y21.542
X16.776 Y21.406
X16.481 Y21.245
X16.198 Y21.06
X15.929 Y20.852
X15.678 Y20.622
X15.444 Y20.372
X15.231 Y20.103
X15.039 Y19.817
X14.871 Y19.515
X14.726 Y19.2
X14.608 Y18.874
X14.515 Y18.538
X14.45 Y18.196
X14.413 Y17.849
X14.403 Y17.499
X14.421 Y17.149
X14.468 Y16.802
X14.542 Y16.459
X14.644 Y16.123
X14.772 Y15.796
X14.927 Y15.48
X15.106 Y15.177
X15.309 Y14.889
X15.535 Y14.619
X15.782 Y14.367
X16.048 Y14.136
X16.332 Y13.927
X16.632 Y13.742
X16.946 Y13.581
X17.272 Y13.445
X17.608 Y13.337
X17.952 Y13.255
X18.301 Y13.202
X18.653 Y13.177
X19.006 Y13.18
X19.358 Y13.211
X19.706 Y13.27
X20.049 Y13.358
X20.383 Y13.472
X20.712 Y13.615
X21.039 Y13.79
X21.362 Y13.997
X21.675 Y14.236
X21.976 Y14.506
X22.257 Y14.802
X22.515 Y15.122
X22.746 Y15.461
X22.948 Y15.815
X23.119 Y16.182
X23.259 Y16.558
X23.368 Y16.941
X23.445 Y17.328
X23.491 Y17.717
X23.505 Y18.106
X23.487 Y18.492
X23.439 Y18.874
X23.361 Y19.25
X23.253 Y19.618
X23.116 Y19.975
X22.951 Y20.321
X22.758 Y20.653
X22.538 Y20.969
X22.293 Y21.268
X22.024 Y21.547
X21.731 Y21.805
X21.417 Y22.04
X21.083 Y22.25
X20.732 Y22.434
X20.364 Y22.59
X19.983 Y22.717
X19.591 Y22.813
X19.19 Y22.878
X18.783 Y22.911
X18.372
X17.96 Y22.877
X17.55 Y22.811
X17.145 Y22.711
X16.747 Y22.579
X16.36 Y22.414
X15.985 Y22.218
X15.626 Y21.991
X15.285 Y21.736
X14.964 Y21.453
X14.667 Y21.144
X14.394 Y20.811
X14.148 Y20.457
X13.931 Y20.083
X13.744 Y19.691
X13.589 Y19.286
X13.466 Y18.868
X13.378 Y18.441
X13.323 Y18.008
X13.304 Y17.571
X13.32 Y17.133
X13.371 Y16.698
X13.457 Y16.268
X13.577 Y15.845
X13.731 Y15.434
X13.917 Y15.036
X14.135 Y14.653
X14.384 Y14.29
X14.66 Y13.947
X14.964 Y13.627
X15.292 Y13.333
X15.643 Y13.066
X16.014 Y12.828
X16.403 Y12.62
X16.808 Y12.444
X17.225 Y12.302
X17.653 Y12.193
X18.088 Y12.119
X18.528 Y12.08
X18.97 Y12.076
X19.41 Y12.108
X19.848 Y12.175
X20.281 Y12.278
X20.709 Y12.417
X21.125 Y12.59
X21.526 Y12.795
X21.91 Y13.031
X22.275 Y13.296
X22.618 Y13.587
X22.94 Y13.902
X23.237 Y14.241
X23.509 Y14.6
X23.754 Y14.978
X23.971 Y15.372
X24.159 Y15.782
X24.316 Y16.204
X24.44 Y16.637
X24.532 Y17.078
X24.591 Y17.525
X24.615 Y17.974
X24.606 Y18.425
X24.562 Y18.873
X24.484 Y19.317
X24.373 Y19.753
X24.228 Y20.18
X24.052 Y20.594
X23.844 Y20.994
X23.607 Y21.377
X23.341 Y21.741
X23.049 Y22.083
X22.732 Y22.403
X22.391 Y22.698
X22.03 Y22.967
X21.649 Y23.207
X21.251 Y23.419
X20.839 Y23.6
X20.414 Y23.749
X19.979 Y23.867
X19.537 Y23.953
X19.089 Y24.006
X18.639 Y24.027
X18.189 Y24.016
X17.741 Y23.973
X17.297 Y23.898
X16.859 Y23.791
X16.431 Y23.652
X16.013 Y23.483
X15.608 Y23.285
X15.219 Y23.059
X14.846 Y22.807
X14.491 Y22.529
X14.156 Y22.228
X13.844 Y21.903
X13.556 Y21.557
X13.292 Y21.192
X13.054 Y20.809
X12.843 Y20.411
X12.66 Y20
X12.505 Y19.577
X12.38 Y19.144
X12.286 Y18.704
X12.222 Y18.258
X12.189 Y17.808
X12.187 Y17.358
X12.215 Y16.908
X12.273 Y16.462
X12.363 Y16.02
X12.483 Y15.586
X12.633 Y15.161
X12.811 Y14.747
X13.016 Y14.347
X13.248 Y13.96
X13.505 Y13.591
X13.788 Y13.24
X14.095 Y12.91
X14.423 Y12.601
X14.771 Y12.316
X15.137 Y12.054
X15.521 Y11.817
X15.919 Y11.608
X16.332 Y11.426
X16.756 Y11.274
X17.189 Y11.15
X17.629 Y11.056
X18.075 Y10.991
X18.524 Y10.957
X18.974 Y10.954
X19.424 Y10.982
X19.871 Y11.041
X20.312 Y11.129
X20.747 Y11.246
X21.174 Y11.392
X21.589 Y11.566
X21.992 Y11.768
X22.38 Y11.995
X22.754 Y12.247
X23.111 Y12.522
X23.45 Y12.818
X23.77 Y13.135
X24.069 Y13.472
X24.346 Y13.827
X24.601 Y14.198
X24.833 Y14.585
X25.041 Y14.984
X25.224 Y15.396
X25.379 Y15.819
X25.508 Y16.25
X25.609 Y16.689
X25.682 Y17.134
X25.728 Y17.582
X25.745 Y18.032
X25.734 Y18.482
X25.692 Y18.931
X25.623 Y19.376
X25.525 Y19.816
X25.4 Y20.248
X25.248 Y20.672
X25.068 Y21.086
X24.862 Y21.486
X24.631 Y21.873
X24.376 Y22.244
X24.098 Y22.598
X23.798 Y22.935
X23.478 Y23.252
X23.138 Y23.547
X22.78 Y23.82
X22.405 Y24.07
X22.015 Y24.295
X21.612 Y24.497
X21.197 Y24.673
X20.772 Y24.822
X20.339 Y24.944
X19.898 Y25.038
X19.453 Y25.106
X19.004 Y25.147
X18.554 Y25.161
X18.104 Y25.147
X17.655 Y25.105
X17.21 Y25.035
X16.77 Y24.939
X16.337 Y24.816
X15.912 Y24.668
X15.496 Y24.494
X15.092 Y24.296
X14.7 Y24.073
X14.323 Y23.828
X13.96 Y23.56
X13.614 Y23.272
X13.286 Y22.963
X12.976 Y22.636
X12.687 Y22.29
X12.42 Y21.928
X12.174 Y21.551
X11.95 Y21.16
X11.749 Y20.756
X11.572 Y20.342
X11.42 Y19.918
X11.294 Y19.486
X11.194 Y19.047
X11.12 Y18.602
X11.072 Y18.154
X11.049 Y17.705
X11.052 Y17.254
X11.081 Y16.805
X11.138 Y16.358
X11.221 Y15.915
X11.33 Y15.478
X11.464 Y15.048
X11.622 Y14.626
X11.803 Y14.214
X12.009 Y13.813
X12.239 Y13.426
X12.491 Y13.052
X12.764 Y12.694
X13.057 Y12.352
X13.369 Y12.027
X13.7 Y11.721
X14.048 Y11.435
X14.412 Y11.17
X14.791 Y10.927
X15.183 Y10.706
X15.588 Y10.508
X16.003 Y10.333
X16.428 Y10.183
X16.861 Y10.058
X17.3 Y9.959
X17.744 Y9.885
X18.192 Y9.838
X18.642 Y9.816
X19.093 Y9.82
X19.542 Y9.85
X19.989 Y9.906
X20.432 Y9.988
X20.869 Y10.096
X21.3 Y10.228
X21.723 Y10.384
X22.136 Y10.563
X22.538 Y10.766
X22.928 Y10.991
X23.305 Y11.238
X23.668 Y11.504
X24.016 Y11.79
X24.348 Y12.095
X24.664 Y12.416
X24.961 Y12.755
X25.24 Y13.109
X25.499 Y13.477
X25.737 Y13.859
X25.955 Y14.253
X26.152 Y14.659
X26.327 Y15.074
X26.479 Y15.498
X26.607 Y15.929
X26.712 Y16.368
X26.792 Y16.811
X26.848 Y17.258
X26.88 Y17.707
X26.888 Y18.157
X26.871 Y18.608
X26.829 Y19.056
X26.762 Y19.502
X26.671 Y19.943
X26.556 Y20.378
X26.417 Y20.807
X26.255 Y21.227
X26.071 Y21.638
X25.864 Y22.038
X25.634 Y22.426
X25.384 Y22.8
X25.114 Y23.161
X24.825 Y23.506
X24.517 Y23.835
X24.193 Y24.147
X23.851 Y24.441
X23.494 Y24.715
X23.122 Y24.97
X22.737 Y25.203
X22.34 Y25.416
X21.932 Y25.607
X21.514 Y25.776
X21.088 Y25.922
X20.655 Y26.045
X20.216 Y26.144
X19.771 Y26.22
X19.324 Y26.272
X18.875 Y26.301
X18.424 Y26.306
X17.974 Y26.287
X17.526 Y26.244
X17.08 Y26.177
X16.639 Y26.087
X16.203 Y25.974
X15.773 Y25.838
X15.352 Y25.68
X14.938 Y25.501
X14.535 Y25.3
X14.143 Y25.078
X13.763 Y24.836
X13.396 Y24.575
X13.043 Y24.295
X12.705 Y23.997
X12.383 Y23.683
X12.077 Y23.352
X11.788 Y23.006
X11.519 Y22.645
X11.268 Y22.271
X11.037 Y21.885
X10.825 Y21.487
X10.634 Y21.079
X10.464 Y20.662
X10.316 Y20.237
X10.189 Y19.804
X10.086 Y19.366
X10.005 Y18.923
X9.946 Y18.476
X9.91 Y18.027
X9.897 Y17.577
X9.906 Y17.126
X9.939 Y16.677
X9.994 Y16.23
X10.073 Y15.787
X10.174 Y15.348
X10.297 Y14.914
X10.442 Y14.488
X10.608 Y14.069
X10.794 Y13.659
X11.001 Y13.259
X11.229 Y12.87
X11.477 Y12.494
X11.743 Y12.131
X12.027 Y11.781
X12.328 Y11.446
X12.646 Y11.127
X12.979 Y10.823
X13.327 Y10.538
X13.69 Y10.271
X14.065 Y10.022
X14.453 Y9.793
X14.852 Y9.584
X15.261 Y9.395
X15.679 Y9.226
X16.104 Y9.079
X16.537 Y8.953
X16.976 Y8.851
X17.419 Y8.77
X17.865 Y8.713
X18.315 Y8.677
X18.765 Y8.664
X19.215 Y8.673
X19.664 Y8.705
X20.112 Y8.76
X20.555 Y8.838
X20.994 Y8.938
X21.428 Y9.06
X21.855 Y9.202
X22.275 Y9.366
X22.686 Y9.549
X23.088 Y9.753
X23.479 Y9.976
X23.859 Y10.219
X24.227 Y10.479
X24.581 Y10.757
X24.922 Y11.051
X25.249 Y11.361
X25.561 Y11.686
X25.858 Y12.025
X26.137 Y12.378
X26.399 Y12.745
X26.644 Y13.123
X26.87 Y13.512
X27.078 Y13.912
X27.266 Y14.321
X27.436 Y14.738
X27.585 Y15.163
X27.714 Y15.595
X27.822 Y16.032
X27.908 Y16.475
X27.973 Y16.92
X28.017 Y17.369
X28.04 Y17.818
X28.041 Y18.269
X28.021 Y18.719
X27.979 Y19.167
X27.915 Y19.613
X27.83 Y20.055
X27.723 Y20.493
X27.595 Y20.925
X27.447 Y21.351
X27.28 Y21.769
X27.092 Y22.178
X26.885 Y22.578
X26.658 Y22.967
X26.412 Y23.345
X26.149 Y23.71
X25.869 Y24.063
X25.572 Y24.402
X25.26 Y24.726
X24.932 Y25.036
X24.59 Y25.329
X24.234 Y25.605
X23.865 Y25.864
X23.485 Y26.104
X23.093 Y26.326
X22.691 Y26.53
X22.28 Y26.715
X21.861 Y26.88
X21.435 Y27.025
X21.002 Y27.15
X20.564 Y27.253
X20.121 Y27.336
X19.675 Y27.399
X19.226 Y27.44
X18.776 Y27.461
X18.326
X17.876 Y27.44
X17.427 Y27.398
X16.981 Y27.335
X16.539 Y27.251
X16.101 Y27.146
X15.668 Y27.022
X15.241 Y26.878
X14.821 Y26.714
X14.409 Y26.532
X14.006 Y26.331
X13.613 Y26.111
X13.231 Y25.873
X12.859 Y25.618
X12.5 Y25.346
X12.153 Y25.059
X11.82 Y24.756
X11.501 Y24.438
X11.196 Y24.106
X10.907 Y23.761
X10.635 Y23.402
X10.379 Y23.031
X10.14 Y22.649
X9.919 Y22.257
X9.715 Y21.855
X9.529 Y21.445
X9.362 Y21.027
X9.214 Y20.601
X9.087 Y20.169
X8.979 Y19.732
X8.891 Y19.29
X8.822 Y18.845
X8.774 Y18.397
X8.745 Y17.948
X8.737 Y17.497
X8.749 Y17.047
X8.781 Y16.598
X8.834 Y16.15
X8.907 Y15.706
X9 Y15.265
X9.113 Y14.829
X9.245 Y14.398
X9.395 Y13.974
X9.565 Y13.556
X9.752 Y13.147
X9.959 Y12.747
X10.184 Y12.356
X10.426 Y11.976
X10.685 Y11.608
X10.96 Y11.251
X11.25 Y10.906
X11.555 Y10.575
X11.875 Y10.258
X12.208 Y9.955
X12.556 Y9.668
X12.915 Y9.397
X13.287 Y9.143
X13.67 Y8.905
X14.063 Y8.685
X14.465 Y8.482
X14.876 Y8.297
X15.294 Y8.13
X15.72 Y7.983
X16.152 Y7.855
X16.589 Y7.747
X17.031 Y7.659
X17.476 Y7.59
X17.924 Y7.541
X18.373 Y7.512
X18.824 Y7.503
X19.274 Y7.513
X19.723 Y7.545
X20.171 Y7.596
X20.615 Y7.668
X21.057 Y7.759
X21.493 Y7.869
X21.925 Y7.999
X22.35 Y8.146
X22.769 Y8.312
X23.18 Y8.496
X23.583 Y8.699
X23.976 Y8.919
X24.359 Y9.155
X24.732 Y9.408
X25.093 Y9.677
X25.443 Y9.961
X25.781 Y10.259
X26.106 Y10.57
X26.418 Y10.896
X26.715 Y11.234
X26.997 Y11.585
X27.264 Y11.948
X27.515 Y12.322
X27.751 Y12.706
X27.97 Y13.099
X28.173 Y13.502
X28.359 Y13.912
X28.527 Y14.33
X28.677 Y14.754
X28.809 Y15.185
X28.922 Y15.621
X29.016 Y16.062
X29.091 Y16.506
X29.148 Y16.953
X29.186 Y17.402
X29.205 Y17.852
Y18.302
X29.186 Y18.752
X29.147 Y19.201
X29.088 Y19.647
X29.01 Y20.091
X28.914 Y20.531
X28.799 Y20.967
X28.665 Y21.397
X28.514 Y21.821
X28.345 Y22.239
X28.158 Y22.648
X27.953 Y23.049
X27.731 Y23.441
X27.492 Y23.823
X27.237 Y24.195
X26.967 Y24.555
X26.682 Y24.904
X26.383 Y25.24
X26.069 Y25.564
X25.742 Y25.874
X25.402 Y26.169
X25.049 Y26.449
X24.685 Y26.714
X24.309 Y26.963
X23.924 Y27.196
X23.529 Y27.413
X23.126 Y27.613
X22.714 Y27.797
X22.295 Y27.962
X21.87 Y28.11
X21.438 Y28.239
X21.002 Y28.349
X20.561 Y28.442
X20.116 Y28.516
X19.669 Y28.571
X19.22 Y28.609
X18.77 Y28.628
X18.32
X17.87 Y28.609
X17.421 Y28.571
X16.974 Y28.514
X16.53 Y28.438
X16.09 Y28.344
X15.653 Y28.233
X15.222 Y28.104
X14.796 Y27.957
X14.376 Y27.793
X13.964 Y27.612
X13.559 Y27.414
X13.163 Y27.199
X12.777 Y26.968
X12.4 Y26.721
X12.033 Y26.459
X11.678 Y26.183
X11.333 Y25.892
X11.001 Y25.588
X10.681 Y25.271
X10.375 Y24.941
X10.083 Y24.598
X9.805 Y24.243
X9.542 Y23.878
X9.294 Y23.502
X9.061 Y23.116
X8.843 Y22.722
X8.642 Y22.319
X8.457 Y21.908
X8.288 Y21.49
X8.138 Y21.066
X8.005 Y20.635
X7.889 Y20.2
X7.791 Y19.76
X7.711 Y19.317
X7.649 Y18.871
X7.604 Y18.423
X7.577 Y17.973
X7.568 Y17.523
X7.578 Y17.073
X7.606 Y16.623
X7.653 Y16.175
X7.717 Y15.729
X7.8 Y15.286
X7.9 Y14.847
X8.017 Y14.412
X8.151 Y13.982
X8.303 Y13.558
X8.471 Y13.14
X8.657 Y12.73
X8.859 Y12.327
X9.077 Y11.933
X9.311 Y11.548
X9.56 Y11.173
X9.824 Y10.808
X10.102 Y10.453
X10.394 Y10.11
X10.699 Y9.779
X11.017 Y9.46
X11.349 Y9.155
X11.692 Y8.864
X12.047 Y8.586
X12.413 Y8.323
X12.789 Y8.075
X13.174 Y7.842
X13.568 Y7.624
X13.971 Y7.422
X14.381 Y7.236
X14.799 Y7.068
X15.223 Y6.916
X15.653 Y6.782
X16.088 Y6.665
X16.528 Y6.566
X16.971 Y6.484
X17.021 Y6.477
X17.258 Y6.447
X17.361 Y6.435
X17.463 Y6.423
X17.668 Y6.402
X17.77 Y6.395
X18.486 Y6.365
X18.691 Y6.357
X18.794 Y6.356
X18.896 Y6.359
X19.408 Y6.375
X19.51 Y6.381
X19.715 Y6.399
X19.817 Y6.408
X20.022 Y6.429
X20.467 Y6.499
X20.913 Y6.563
X21.355 Y6.648
X21.793 Y6.752
X22.226 Y6.876
X22.654 Y7.018
X23.075 Y7.178
X23.49 Y7.354
X23.896 Y7.548
X24.295 Y7.757
X24.686 Y7.982
X25.067 Y8.221
X25.439 Y8.475
X25.801 Y8.744
X26.152 Y9.025
X26.492 Y9.321
X26.821 Y9.629
X27.137 Y9.95
X27.441 Y10.283
X27.731 Y10.627
X28.009 Y10.982
X28.272 Y11.347
X28.522 Y11.722
X28.758 Y12.105
X28.979 Y12.498
X29.184 Y12.899
X29.374 Y13.307
X29.548 Y13.723
X29.706 Y14.145
X29.848 Y14.572
X29.973 Y15.005
X30.082 Y15.442
X30.174 Y15.883
X30.25 Y16.327
X30.308 Y16.774
X30.349 Y17.222
X30.373 Y17.672
X30.379 Y18.122
X30.368 Y18.573
X30.339 Y19.022
X30.294 Y19.47
X30.231 Y19.916
X30.151 Y20.36
X30.054 Y20.8
X29.941 Y21.236
X29.811 Y21.667
X29.664 Y22.093
X29.5 Y22.512
X29.321 Y22.926
X29.126 Y23.331
X28.915 Y23.73
X28.747 Y24.019
X28.728 Y24.05
X28.708 Y24.079
X28.686 Y24.108
X28.467 Y24.382
X28.415 Y24.444
X28.29 Y24.587
X28.199 Y24.689
X28.104 Y24.792
X27.903 Y25.005
X27.801 Y25.112
X27.699 Y25.212
X27.596 Y25.311
X27.494 Y25.408
X27.385 Y25.508
X27.085 Y25.779
X27.044 Y25.815
X26.982 Y25.866
X26.88 Y25.948
X26.778 Y26.029
X26.657 Y26.122
X26.47 Y26.266
X26.368 Y26.343
X26.251 Y26.429
X26.163 Y26.493
X26.109 Y26.532
X25.447 Y26.96
X25.345 Y27.021
X24.833 Y27.297
X24.73 Y27.352
X24.628 Y27.404
X24.423 Y27.504
X24.314 Y27.555
X24.219 Y27.598
X23.707 Y27.825
X23.615 Y27.862
X23.502 Y27.904
X22.99 Y28.085
X22.888 Y28.12
X22.683 Y28.188
X22.581 Y28.221
X21.967 Y28.388
X21.864 Y28.414
X21.594 Y28.477
X21.557 Y28.485
X21.455 Y28.505
X20.943 Y28.604
X20.841 Y28.622
X20.738 Y28.637
X20.534 Y28.666
X20.406 Y28.681
X19.92 Y28.737
X19.817 Y28.748
X19.715 Y28.755
X19.51 Y28.766
X19.408 Y28.771
X18.896 Y28.791
X18.794 Y28.794
X18.691 Y28.793
X18.384 Y28.78
X17.77 Y28.751
X17.668 Y28.745
X17.463 Y28.729
X17.361 Y28.719
X17.258 Y28.706
X16.439 Y28.59
X16.363 Y28.579
X16.337 Y28.575
X16.235 Y28.555
X16.03 Y28.512
X15.928 Y28.489
X15.416 Y28.372
X15.313 Y28.348
X15.211 Y28.32
X15.006 Y28.258
X14.802 Y28.194
X14.29 Y28.032
X14.187 Y27.995
X14.085 Y27.954
X13.573 Y27.745
X13.471 Y27.702
X13.266 Y27.613
X13.164 Y27.566
X13.141 Y27.555
X13.061 Y27.516
X12.535 Y27.248
X12.447 Y27.203
X12.345 Y27.144
X12.172 Y27.044
X12.14 Y27.025
X12.038 Y26.963
X11.833 Y26.837
X11.673 Y26.737
X11.51 Y26.634
X11.424 Y26.579
X10.803 Y26.122
X10.707 Y26.05
X10.503 Y25.879
X10.4 Y25.792
X10.192 Y25.611
X10.074 Y25.508
X9.991 Y25.434
X9.888 Y25.341
X9.848 Y25.304
X9.786 Y25.241
X9.352 Y24.792
X9.255 Y24.689
X9.172 Y24.598
X9.162 Y24.587
X9.07 Y24.476
X8.744 Y24.075
X8.66 Y23.97
X8.584 Y23.87
X8.51 Y23.768
X8.455 Y23.691
X8.232 Y23.359
X8.046 Y23.078
X8.029 Y23.052
X7.968 Y22.949
X7.631 Y22.335
X7.576 Y22.233
X7.528 Y22.13
X7.481 Y22.028
X7.432 Y21.918
X7.256 Y21.516
X7.227 Y21.449
X7.17 Y21.311
X7.131 Y21.209
X6.892 Y20.493
X6.862 Y20.39
X6.818 Y20.218
X6.761 Y19.981
X6.664 Y19.571
X6.644 Y19.469
X6.627 Y19.367
X6.596 Y19.162
X6.567 Y18.957
X6.538 Y18.753
X6.524 Y18.65
X6.511 Y18.531
X6.503 Y18.445
X6.497 Y18.343
X6.473 Y17.831
X6.469 Y17.729
X6.468 Y17.627
X6.467 Y17.524
Y17.422
X6.469 Y17.319
X6.477 Y17.115
X6.482 Y17.012
X6.495 Y16.808
X6.502 Y16.705
X6.512 Y16.603
X6.535 Y16.398
X6.547 Y16.296
X6.575 Y16.091
X6.591 Y15.989
X6.613 Y15.869
X6.715 Y15.348
X6.732 Y15.272
X6.756 Y15.17
X6.781 Y15.068
X6.818 Y14.925
X6.866 Y14.76
X6.988 Y14.351
X7.022 Y14.243
X7.057 Y14.146
X7.134 Y13.942
X7.174 Y13.839
X7.299 Y13.532
X7.383 Y13.327
X7.432 Y13.212
X7.475 Y13.123
X7.796 Y12.509
X7.851 Y12.406
X7.908 Y12.304
X7.944 Y12.242
X8.302 Y11.69
X8.455 Y11.456
X8.51 Y11.383
X8.994 Y10.768
X9.079 Y10.666
X9.172 Y10.56
X9.274 Y10.449
X9.649 Y10.052
X9.748 Y9.95
X9.786 Y9.91
X9.849 Y9.847
X9.888 Y9.811
X10.093 Y9.629
X10.309 Y9.438
X10.426 Y9.335
X10.503 Y9.27
X10.707 Y9.1
X10.81 Y9.022
X11.424 Y8.568
X11.526 Y8.504
X11.731 Y8.375
X11.833 Y8.312
X12.038 Y8.187
X12.17 Y8.107
X12.345 Y8.004
X12.447 Y7.945
X12.529 Y7.902
X13.061 Y7.639
X13.164 Y7.589
X13.266 Y7.541
X13.471 Y7.449
X13.573 Y7.406
X14.132 Y7.186
X14.187 Y7.165
X14.29 Y7.127
X14.495 Y7.057
X14.597 Y7.023
X15.006 Y6.9
X15.211 Y6.839
X15.313 Y6.81
X15.518 Y6.758
X15.62 Y6.732
X15.723 Y6.71
X16.439 Y6.558
X16.542 Y6.54
X16.644 Y6.525
X16.849 Y6.499
X17.021 Y6.477
G3 X17.265 Y6.551 I0.039 J0.308
G1 X17.311 Y6.585
X17.362 Y6.609
X17.417 Y6.624
X17.474 Y6.628
X17.769 Y6.623
X19.125 Y6.598
X19.189 Y6.59
X19.249 Y6.57
G3 X20.022 Y6.429 I0.66 J1.438
G1 X20.431 Y6.473
X20.534 Y6.485
X20.738 Y6.514
X20.841 Y6.529
X20.943 Y6.548
X21.455 Y6.648
X21.587 Y6.674
X21.864 Y6.732
X21.967 Y6.758
X22.888 Y7.023
X22.99 Y7.057
X23.093 Y7.096
X23.4 Y7.214
X23.912 Y7.412
X24.014 Y7.454
X24.219 Y7.552
X24.321 Y7.602
X24.935 Y7.906
X25.037 Y7.957
X25.14 Y8.018
X25.652 Y8.331
X25.784 Y8.414
X25.959 Y8.526
X26.061 Y8.593
X26.1 Y8.619
X26.163 Y8.665
X26.675 Y9.047
X26.786 Y9.131
X26.88 Y9.206
X27.036 Y9.335
X27.151 Y9.438
X27.392 Y9.654
X27.494 Y9.747
X27.601 Y9.847
X27.71 Y9.95
X27.801 Y10.038
X27.815 Y10.052
X27.912 Y10.154
X28.415 Y10.7
X28.475 Y10.768
X28.518 Y10.822
X28.556 Y10.871
X28.945 Y11.383
X29.019 Y11.485
X29.161 Y11.69
X29.234 Y11.799
X29.294 Y11.894
X29.608 Y12.406
X29.644 Y12.464
X29.667 Y12.509
X29.721 Y12.611
X29.848 Y12.865
X29.973 Y13.123
X30.053 Y13.29
X30.119 Y13.43
X30.155 Y13.509
X30.165 Y13.532
X30.206 Y13.635
X30.395 Y14.146
X30.432 Y14.249
X30.467 Y14.351
X30.501 Y14.453
X30.535 Y14.556
X30.565 Y14.658
X30.698 Y15.17
X30.724 Y15.272
X30.748 Y15.375
X30.793 Y15.579
X30.813 Y15.682
X30.845 Y15.886
X30.908 Y16.296
X30.922 Y16.398
X30.944 Y16.603
X30.953 Y16.705
X30.959 Y16.808
X30.974 Y17.115
X30.984 Y17.319
X30.987 Y17.422
X30.99 Y17.627
X30.991 Y17.729
X30.989 Y17.831
X30.983 Y18.036
X30.978 Y18.138
X30.966 Y18.343
X30.958 Y18.445
X30.948 Y18.548
X30.926 Y18.753
X30.914 Y18.855
X30.887 Y19.06
X30.872 Y19.163
X30.854 Y19.264
X30.817 Y19.469
X30.797 Y19.571
X30.757 Y19.776
X30.734 Y19.878
X30.709 Y19.981
X30.656 Y20.186
X30.628 Y20.288
X30.565 Y20.523
X30.542 Y20.595
X30.507 Y20.697
X30.331 Y21.209
X30.294 Y21.311
X30.252 Y21.414
X30.209 Y21.516
X30.155 Y21.641
X29.983 Y22.028
X29.951 Y22.099
X29.886 Y22.233
X29.848 Y22.306
X29.777 Y22.437
X29.493 Y22.949
X29.439 Y23.04
X29.337 Y23.195
X29.159 Y23.461
X29.022 Y23.666
X28.95 Y23.768
X28.927 Y23.801
X28.876 Y23.87
X28.686 Y24.108
G3 X28.258 Y24.149 I-0.235 J-0.202
G1 X28.226 Y24.106 Z-1.928
X28.194 Y24.064 Z-1.914
X28.165 Y24.025 Z-1.891
X28.155 Y23.977 Z-1.855
X28.147 Y23.937 Z-1.811
X28.141 Y23.906 Z-1.759
X28.142 Y23.883 Z-1.693
X28.143 Y23.875 Z-1.623
G0 Z-1.113
X18.172 Y8.401
G1 Z-1.423 F1000
X18.171 Y8.393 Z-1.492
Y8.37 Z-1.558
X18.17 Y8.334 Z-1.616
X18.168 Y8.284 Z-1.666
X18.166 Y8.226 Z-1.702
X18.164 Y8.16 Z-1.725
X18.162 Y8.091 Z-1.733
G3 X18.296 Y6.391 I7.911 J-0.235
G1 X18.303 Y6.358
X18.327 Y6.332
X18.36 Y6.322
X18.486 Y6.317
X18.691 Y6.311
X18.794 Y6.31
X18.896 Y6.313
X19.408 Y6.329
X19.51 Y6.335
X19.715 Y6.354
X19.847 Y6.367
X20.431 Y6.429
X20.534 Y6.442
X20.738 Y6.471
X20.841 Y6.487
X20.943 Y6.506
X21.557 Y6.626
X21.784 Y6.674
X21.864 Y6.692
X21.967 Y6.718
X22.888 Y6.983
X22.99 Y7.017
X23.195 Y7.095
X23.958 Y7.391
X24.014 Y7.416
X24.116 Y7.464
X24.386 Y7.595
X24.935 Y7.867
X25.004 Y7.902
X25.037 Y7.92
X25.14 Y7.98
X25.682 Y8.312
X25.754 Y8.357
X26.061 Y8.554
X26.153 Y8.619
X26.778 Y9.085
X26.834 Y9.131
X26.982 Y9.254
X27.085 Y9.341
X27.194 Y9.438
X27.65 Y9.847
X27.699 Y9.895
X27.801 Y9.997
X27.855 Y10.052
X28.422 Y10.666
X28.51 Y10.768
X28.589 Y10.871
X28.977 Y11.383
X29.029 Y11.453
X29.192 Y11.69
X29.234 Y11.751
X29.26 Y11.792
X29.337 Y11.916
X29.644 Y12.416
X29.698 Y12.509
X29.85 Y12.816
X29.951 Y13.021
X30 Y13.123
X30.053 Y13.234
X30.155 Y13.454
X30.19 Y13.532
X30.23 Y13.635
X30.419 Y14.146
X30.462 Y14.268
X30.525 Y14.453
X30.565 Y14.576
X30.588 Y14.658
X30.721 Y15.17
X30.747 Y15.272
X30.771 Y15.375
X30.815 Y15.579
X30.835 Y15.682
X30.867 Y15.886
X30.93 Y16.296
X30.943 Y16.398
X30.965 Y16.603
X30.974 Y16.705
X30.981 Y16.808
X31.007 Y17.319
X31.01 Y17.422
X31.013 Y17.627
X31.014 Y17.729
X31.012 Y17.831
X31.001 Y18.138
X30.997 Y18.241
X30.99 Y18.343
X30.981 Y18.445
X30.97 Y18.548
X30.948 Y18.753
X30.935 Y18.855
X30.909 Y19.06
X30.894 Y19.162
X30.872 Y19.29
X30.839 Y19.469
X30.8 Y19.674
X30.77 Y19.827
X30.757 Y19.878
X30.732 Y19.981
X30.652 Y20.288
X30.597 Y20.493
X30.565 Y20.599
X30.531 Y20.697
X30.319 Y21.311
X30.28 Y21.414
X30.258 Y21.467
X30.146 Y21.721
X29.963 Y22.13
X29.951 Y22.157
X29.914 Y22.233
X29.861 Y22.335
X29.805 Y22.437
X29.521 Y22.949
X29.46 Y23.052
X29.258 Y23.359
X29.029 Y23.699
X28.981 Y23.768
X28.907 Y23.87
X28.825 Y23.977
X28.518 Y24.361
X28.501 Y24.382
X28.414 Y24.485
X28.211 Y24.718
X28.143 Y24.792
X27.853 Y25.099
X27.699 Y25.259
X27.654 Y25.304
X27.596 Y25.356
X27.187 Y25.726
X27.085 Y25.816
X26.963 Y25.918
X26.838 Y26.02
X26.778 Y26.069
X26.368 Y26.383
X26.266 Y26.461
X26.163 Y26.534
X26.01 Y26.634
X25.447 Y26.998
X25.374 Y27.044
X24.833 Y27.336
X24.73 Y27.391
X24.608 Y27.453
X24.526 Y27.494
X24.401 Y27.555
X24.321 Y27.592
X23.707 Y27.863
X23.604 Y27.907
X23.443 Y27.965
X22.99 Y28.125
X22.86 Y28.17
X22.683 Y28.229
X22.581 Y28.261
X22.544 Y28.272
X21.967 Y28.428
X21.864 Y28.455
X21.557 Y28.527
X21.455 Y28.547
X20.943 Y28.646
X20.841 Y28.664
X20.725 Y28.681
X20.534 Y28.709
X20.431 Y28.722
X19.895 Y28.784
X19.817 Y28.791
X19.715 Y28.799
X19.51 Y28.812
X19.408 Y28.817
X18.896 Y28.836
X18.794 Y28.84
X18.691 Y28.839
X18.486 Y28.832
X18.384 Y28.828
X17.77 Y28.8
X17.668 Y28.794
X17.463 Y28.779
X17.361 Y28.77
X17.258 Y28.758
X16.337 Y28.628
X16.235 Y28.612
X16.132 Y28.592
X15.416 Y28.427
X15.313 Y28.403
X15.205 Y28.374
X15.006 Y28.316
X14.861 Y28.272
X14.29 Y28.092
X14.218 Y28.067
X14.085 Y28.016
X13.88 Y27.934
X13.573 Y27.809
X13.369 Y27.724
X13.21 Y27.658
X13.164 Y27.636
X13.061 Y27.586
X12.397 Y27.248
X12.345 Y27.221
X12.243 Y27.163
X12.14 Y27.102
X11.526 Y26.724
X11.424 Y26.658
X11.388 Y26.634
X11.321 Y26.586
X11.219 Y26.512
X10.81 Y26.211
X10.707 Y26.133
X10.567 Y26.02
X10.4 Y25.884
X10.298 Y25.796
X9.968 Y25.508
X9.888 Y25.436
X9.751 Y25.304
X9.684 Y25.238
X9.581 Y25.133
X9.251 Y24.792
X9.172 Y24.704
X9.07 Y24.587
X8.967 Y24.467
X8.897 Y24.382
X8.731 Y24.178
X8.649 Y24.075
X8.571 Y23.973
X8.419 Y23.768
X8.353 Y23.676
X8.14 Y23.359
X8.003 Y23.154
X7.938 Y23.052
X7.878 Y22.949
X7.597 Y22.437
X7.534 Y22.32
X7.491 Y22.233
X7.395 Y22.028
X7.348 Y21.926
X7.227 Y21.65
X7.17 Y21.516
X7.084 Y21.311
X7.046 Y21.209
X6.874 Y20.697
X6.841 Y20.595
X6.818 Y20.521
X6.752 Y20.288
X6.725 Y20.186
X6.715 Y20.145
X6.58 Y19.571
X6.559 Y19.469
X6.527 Y19.264
X6.498 Y19.06
X6.469 Y18.855
X6.455 Y18.753
X6.43 Y18.548
X6.42 Y18.445
X6.413 Y18.343
X6.389 Y17.831
X6.386 Y17.729
X6.384 Y17.627
Y17.524
Y17.422
X6.386 Y17.319
X6.393 Y17.115
X6.398 Y17.012
X6.411 Y16.808
X6.419 Y16.705
X6.429 Y16.603
X6.451 Y16.398
X6.464 Y16.296
X6.491 Y16.091
X6.507 Y15.989
X6.511 Y15.966
X6.525 Y15.886
X6.626 Y15.375
X6.648 Y15.272
X6.672 Y15.17
X6.715 Y14.991
X6.722 Y14.965
X6.75 Y14.863
X6.92 Y14.294
X6.935 Y14.249
X6.971 Y14.146
X7.047 Y13.942
X7.087 Y13.839
X7.295 Y13.327
X7.337 Y13.225
X7.386 Y13.123
X7.653 Y12.611
X7.707 Y12.509
X7.739 Y12.451
X7.883 Y12.202
X7.945 Y12.099
X8.077 Y11.894
X8.353 Y11.47
X8.417 Y11.383
X8.66 Y11.071
X8.898 Y10.768
X8.967 Y10.684
X8.982 Y10.666
X9.072 Y10.564
X9.172 Y10.454
X9.274 Y10.343
X9.646 Y9.95
X9.684 Y9.911
X9.751 Y9.847
X9.888 Y9.718
X9.991 Y9.626
X10.318 Y9.335
X10.4 Y9.265
X10.605 Y9.098
X10.707 Y9.016
X10.81 Y8.938
X11.219 Y8.636
X11.383 Y8.517
X11.424 Y8.488
X11.526 Y8.423
X12.243 Y7.986
X12.345 Y7.928
X12.393 Y7.902
X12.447 Y7.874
X12.596 Y7.8
X13.061 Y7.569
X13.164 Y7.52
X13.221 Y7.493
X13.471 Y7.385
X13.573 Y7.342
X14.085 Y7.141
X14.233 Y7.084
X14.495 Y6.997
X14.543 Y6.981
X14.699 Y6.933
X15.222 Y6.776
X15.313 Y6.752
X15.518 Y6.702
X15.636 Y6.674
X15.723 Y6.655
X16.235 Y6.547
X16.337 Y6.526
X16.542 Y6.492
X16.682 Y6.469
X16.746 Y6.461
X17.258 Y6.396
X17.361 Y6.384
X17.463 Y6.373
X17.668 Y6.354
X17.77 Y6.347
X18.36 Y6.322
G3 X18.671 Y6.618 I0.002 J0.31
G1 X18.672 Y6.632
X18.658 Y6.684 Z-1.725
X18.645 Y6.735 Z-1.708
X18.633 Y6.781 Z-1.683
X18.602 Y6.817 Z-1.644
X18.576 Y6.846 Z-1.597
X18.556 Y6.867 Z-1.543
X18.544 Y6.881 Z-1.484
X18.54 Y6.885 Z-1.424
G0 Z-0.913
X18.136 Y8.366
G1 Z-1.223 F1000
Y8.358 Z-1.292
X18.135 Y8.335 Z-1.358
X18.134 Y8.298 Z-1.416
X18.133 Y8.249 Z-1.466
X18.131 Y8.19 Z-1.502
X18.129 Y8.125 Z-1.525
X18.127 Y8.056 Z-1.533
X18.123 Y7.813
Y7.812
G3 X18.258 Y6.356 I7.914 J0
G1 X18.266 Y6.322
X18.289 Y6.296
X18.322 Y6.286
X18.384 Y6.283
X18.486 Y6.28
X18.691 Y6.275
X18.794 Y6.274
X18.896 Y6.277
X19.408 Y6.293
X19.51 Y6.3
X19.817 Y6.33
X20.431 Y6.395
X20.534 Y6.408
X20.738 Y6.438
X20.841 Y6.455
X20.924 Y6.469
X21.455 Y6.573
X21.557 Y6.594
X21.762 Y6.637
X21.864 Y6.66
X21.924 Y6.674
X22.786 Y6.922
X22.888 Y6.952
X22.977 Y6.981
X23.093 Y7.025
X23.912 Y7.342
X24.014 Y7.385
X24.116 Y7.433
X24.321 Y7.533
X24.935 Y7.837
X25.037 Y7.891
X25.059 Y7.902
X25.14 Y7.95
X25.652 Y8.263
X25.754 Y8.327
X25.959 Y8.458
X26.061 Y8.525
X26.163 Y8.597
X26.675 Y8.978
X26.742 Y9.028
X26.778 Y9.056
X26.88 Y9.139
X27.113 Y9.335
X27.187 Y9.401
X27.596 Y9.768
X27.681 Y9.847
X27.801 Y9.966
X27.884 Y10.052
X28.357 Y10.564
X28.449 Y10.666
X28.518 Y10.746
X28.536 Y10.768
X28.62 Y10.878
X29.029 Y11.417
X29.077 Y11.485
X29.217 Y11.69
X29.234 Y11.715
X29.283 Y11.792
X29.66 Y12.406
X29.719 Y12.509
X29.746 Y12.56
X29.921 Y12.918
X30.053 Y13.19
X30.164 Y13.43
X30.21 Y13.532
X30.249 Y13.635
X30.438 Y14.146
X30.462 Y14.213
X30.509 Y14.351
X30.576 Y14.556
X30.606 Y14.658
X30.739 Y15.17
X30.77 Y15.291
X30.788 Y15.375
X30.832 Y15.579
X30.852 Y15.682
X30.884 Y15.886
X30.947 Y16.296
X30.961 Y16.398
X30.983 Y16.603
X30.992 Y16.705
X30.999 Y16.808
X31.026 Y17.319
X31.029 Y17.422
X31.031 Y17.524
X31.032 Y17.627
X31.033 Y17.729
X31.031 Y17.831
X31.023 Y18.036
X31.018 Y18.138
X31.005 Y18.343
X30.997 Y18.445
X30.987 Y18.548
X30.965 Y18.753
X30.952 Y18.855
X30.926 Y19.06
X30.912 Y19.162
X30.894 Y19.264
X30.856 Y19.469
X30.817 Y19.674
X30.797 Y19.776
X30.775 Y19.878
X30.75 Y19.981
X30.667 Y20.299
X30.643 Y20.39
X30.616 Y20.493
X30.585 Y20.595
X30.55 Y20.697
X30.36 Y21.248
X30.337 Y21.311
X30.3 Y21.414
X30.257 Y21.516
X29.983 Y22.13
X29.951 Y22.201
X29.935 Y22.233
X29.883 Y22.335
X29.541 Y22.952
X29.482 Y23.052
X29.282 Y23.359
X29.076 Y23.666
X29.029 Y23.734
X28.927 Y23.877
X28.854 Y23.973
X28.415 Y24.523
X28.364 Y24.587
X28.172 Y24.792
X27.883 Y25.099
X27.801 Y25.182
X27.571 Y25.406
X27.494 Y25.479
X27.187 Y25.757
X27.121 Y25.815
X26.874 Y26.02
X26.778 Y26.098
X26.675 Y26.177
X26.347 Y26.429
X26.266 Y26.491
X26.209 Y26.532
X26.061 Y26.63
X25.423 Y27.044
X25.345 Y27.089
X24.73 Y27.421
X24.669 Y27.453
X24.471 Y27.555
X24.116 Y27.713
X23.707 Y27.894
X23.604 Y27.935
X23.4 Y28.01
X23.195 Y28.083
X22.786 Y28.228
X22.683 Y28.262
X22.653 Y28.272
X22.581 Y28.293
X22.478 Y28.321
X21.967 Y28.46
X21.904 Y28.477
X21.66 Y28.536
X21.557 Y28.559
X21.455 Y28.58
X20.926 Y28.681
X20.841 Y28.696
X20.738 Y28.713
X20.534 Y28.743
X20.431 Y28.756
X19.92 Y28.815
X19.817 Y28.826
X19.715 Y28.834
X19.51 Y28.847
X19.408 Y28.852
X18.896 Y28.872
X18.794 Y28.875
X18.691
X18.486 Y28.869
X18.384 Y28.866
X17.77 Y28.837
X17.668 Y28.832
X17.463 Y28.819
X17.361 Y28.81
X17.258 Y28.798
X16.432 Y28.681
X16.337 Y28.667
X16.235 Y28.649
X16.03 Y28.61
X15.928 Y28.588
X15.416 Y28.47
X15.313 Y28.447
X15.211 Y28.42
X15.006 Y28.362
X14.904 Y28.332
X14.699 Y28.267
X14.29 Y28.138
X14.187 Y28.103
X13.983 Y28.024
X13.831 Y27.965
X13.266 Y27.734
X13.164 Y27.69
X13.098 Y27.658
X12.857 Y27.536
X12.492 Y27.351
X12.294 Y27.248
X12.243 Y27.221
X12.14 Y27.162
X11.526 Y26.784
X11.452 Y26.737
X11.424 Y26.718
X11.303 Y26.634
X11.158 Y26.532
X11.117 Y26.502
X10.878 Y26.327
X10.707 Y26.201
X10.605 Y26.122
X10.4 Y25.956
X10.354 Y25.918
X9.885 Y25.508
X9.786 Y25.418
X9.684 Y25.318
X9.569 Y25.201
X9.272 Y24.894
X9.172 Y24.79
X9.07 Y24.678
X8.99 Y24.587
X8.967 Y24.56
X8.905 Y24.485
X8.656 Y24.178
X8.558 Y24.053
X8.497 Y23.973
X8.346 Y23.768
X8.274 Y23.666
X7.998 Y23.256
X7.944 Y23.173
X7.868 Y23.052
X7.841 Y23.008
X7.808 Y22.949
X7.527 Y22.437
X7.472 Y22.335
X7.432 Y22.255
X7.326 Y22.028
X7.28 Y21.926
X7.19 Y21.721
X7.125 Y21.569
X7.017 Y21.311
X6.979 Y21.209
X6.774 Y20.595
X6.743 Y20.493
X6.686 Y20.288
X6.659 Y20.186
X6.511 Y19.558
X6.493 Y19.469
X6.478 Y19.367
X6.447 Y19.162
X6.403 Y18.855
X6.39 Y18.753
X6.365 Y18.548
X6.355 Y18.445
X6.348 Y18.343
X6.324 Y17.831
X6.321 Y17.729
X6.32 Y17.627
X6.319 Y17.524
Y17.422
X6.321 Y17.319
X6.328 Y17.115
X6.333 Y17.012
X6.346 Y16.808
X6.354 Y16.705
X6.364 Y16.603
X6.386 Y16.398
X6.398 Y16.296
X6.426 Y16.091
X6.441 Y15.989
X6.46 Y15.886
X6.56 Y15.375
X6.582 Y15.272
X6.613 Y15.141
X6.655 Y14.965
X6.684 Y14.863
X6.867 Y14.249
X6.903 Y14.146
X6.98 Y13.942
X7.022 Y13.832
X7.269 Y13.225
X7.318 Y13.123
X7.534 Y12.706
X7.584 Y12.611
X7.638 Y12.509
X7.695 Y12.406
X7.841 Y12.15
X7.939 Y11.997
X8.272 Y11.485
X8.345 Y11.383
X8.583 Y11.076
X8.865 Y10.717
X8.906 Y10.666
X8.967 Y10.591
X8.991 Y10.564
X9.07 Y10.477
X9.581 Y9.936
X9.667 Y9.847
X9.684 Y9.831
X9.786 Y9.735
X9.889 Y9.643
X10.351 Y9.233
X10.4 Y9.192
X10.503 Y9.109
X10.605 Y9.027
X10.707 Y8.948
X11.014 Y8.721
X11.155 Y8.619
X11.321 Y8.5
X11.424 Y8.43
X11.447 Y8.414
X11.526 Y8.364
X12.14 Y7.989
X12.243 Y7.93
X12.293 Y7.902
X12.488 Y7.8
X13.107 Y7.493
X13.164 Y7.466
X13.266 Y7.421
X13.471 Y7.335
X13.585 Y7.288
X14.105 Y7.084
X14.187 Y7.051
X14.29 Y7.016
X14.495 Y6.951
X14.597 Y6.919
X15.211 Y6.734
X15.313 Y6.706
X15.518 Y6.658
X15.62 Y6.635
X15.723 Y6.613
X16.235 Y6.504
X16.337 Y6.484
X16.439 Y6.467
X16.644 Y6.435
X16.746 Y6.421
X17.258 Y6.356
X17.361 Y6.344
X17.463 Y6.334
X17.668 Y6.316
X17.77 Y6.309
X18.322 Y6.286
G3 X18.634 Y6.583 I0.002 J0.31
G1 Y6.596
X18.62 Y6.648 Z-1.525
X18.607 Y6.699 Z-1.509
X18.595 Y6.746 Z-1.483
X18.564 Y6.781 Z-1.444
X18.538 Y6.81 Z-1.397
X18.518 Y6.832 Z-1.343
X18.506 Y6.845 Z-1.285
X18.502 Y6.849 Z-1.224
G0 Z-0.713
X18.111 Y8.332
G1 Z-1.023 F1000
X18.11 Y8.324 Z-1.092
Y8.301 Z-1.158
X18.109 Y8.264 Z-1.216
X18.107 Y8.215 Z-1.266
X18.105 Y8.157 Z-1.302
X18.103 Y8.091 Z-1.325
X18.101 Y8.022 Z-1.333
G3 X18.233 Y6.322 I7.911 J-0.243
G1 X18.24 Y6.288
X18.264 Y6.263
X18.297 Y6.252
X18.384 Y6.249
X18.486 Y6.246
X18.691 Y6.241
X18.794
X18.998 Y6.247
X19.408 Y6.26
X19.488 Y6.265
X19.817 Y6.298
X20.466 Y6.367
X20.534 Y6.376
X20.636 Y6.392
X20.841 Y6.424
X20.943 Y6.443
X21.455 Y6.543
X21.597 Y6.572
X21.864 Y6.631
X21.967 Y6.657
X22.786 Y6.893
X22.888 Y6.923
X22.99 Y6.958
X23.093 Y6.997
X23.912 Y7.314
X24.014 Y7.356
X24.116 Y7.405
X24.423 Y7.556
X24.935 Y7.81
X25.037 Y7.862
X25.107 Y7.902
X25.652 Y8.236
X25.774 Y8.312
X25.959 Y8.431
X26.09 Y8.517
X26.163 Y8.569
X26.675 Y8.95
X26.779 Y9.028
X26.911 Y9.131
X26.982 Y9.189
X27.494 Y9.648
X27.598 Y9.745
X27.801 Y9.938
X27.813 Y9.95
X27.911 Y10.052
X28.313 Y10.487
X28.383 Y10.564
X28.518 Y10.716
X28.56 Y10.768
X28.825 Y11.116
X29.029 Y11.386
X29.101 Y11.485
X29.171 Y11.587
X29.24 Y11.69
X29.305 Y11.792
X29.681 Y12.406
X29.739 Y12.509
X29.791 Y12.611
X30.053 Y13.15
X30.088 Y13.225
X30.182 Y13.43
X30.227 Y13.532
X30.258 Y13.609
X30.462 Y14.164
X30.492 Y14.249
X30.527 Y14.351
X30.593 Y14.556
X30.623 Y14.658
X30.77 Y15.223
X30.782 Y15.272
X30.805 Y15.375
X30.848 Y15.579
X30.868 Y15.682
X30.9 Y15.886
X30.979 Y16.398
X30.993 Y16.501
X31.002 Y16.603
X31.008 Y16.705
X31.019 Y16.91
X31.029 Y17.115
X31.038 Y17.319
X31.042 Y17.422
X31.045 Y17.627
Y17.729
X31.044 Y17.831
X31.038 Y18.036
X31.033 Y18.138
X31.02 Y18.343
X31.013 Y18.445
X31.003 Y18.548
X30.974 Y18.806
X30.942 Y19.06
X30.928 Y19.162
X30.91 Y19.264
X30.872 Y19.472
X30.814 Y19.776
X30.792 Y19.878
X30.766 Y19.981
X30.66 Y20.39
X30.633 Y20.493
X30.603 Y20.595
X30.391 Y21.209
X30.354 Y21.311
X30.316 Y21.414
X30.275 Y21.516
X30.23 Y21.619
X30.002 Y22.13
X29.951 Y22.242
X29.903 Y22.335
X29.541 Y22.988
X29.502 Y23.052
X29.337 Y23.308
X29.304 Y23.359
X29.167 Y23.563
X29.098 Y23.666
X29.027 Y23.768
X28.927 Y23.907
X28.879 Y23.973
X28.47 Y24.485
X28.415 Y24.552
X28.386 Y24.587
X28.313 Y24.669
X28.199 Y24.792
X27.903 Y25.106
X27.811 Y25.201
X27.596 Y25.411
X27.493 Y25.508
X27.153 Y25.815
X27.085 Y25.873
X26.88 Y26.043
X26.778 Y26.125
X26.649 Y26.225
X26.368 Y26.441
X26.266 Y26.517
X26.163 Y26.589
X26.097 Y26.634
X25.94 Y26.737
X25.447 Y27.056
X25.345 Y27.117
X24.628 Y27.504
X24.526 Y27.556
X24.423 Y27.604
X24.219 Y27.695
X23.707 Y27.922
X23.6 Y27.965
X23.32 Y28.067
X23.032 Y28.17
X22.888 Y28.22
X22.738 Y28.272
X22.683 Y28.29
X22.581 Y28.323
X21.967 Y28.489
X21.864 Y28.516
X21.604 Y28.579
X21.557 Y28.589
X21.455 Y28.61
X20.943 Y28.709
X20.841 Y28.727
X20.636 Y28.759
X20.534 Y28.774
X20.465 Y28.784
X19.92 Y28.846
X19.817 Y28.857
X19.715 Y28.866
X19.51 Y28.88
X19.408 Y28.885
X18.896 Y28.905
X18.794 Y28.908
X18.691
X18.486 Y28.904
X18.384 Y28.901
X18.065 Y28.886
X17.77 Y28.872
X17.565 Y28.861
X17.463 Y28.856
X17.361 Y28.848
X17.258 Y28.835
X16.439 Y28.72
X16.337 Y28.705
X16.235 Y28.687
X16.03 Y28.649
X15.928 Y28.628
X15.313 Y28.487
X15.27 Y28.477
X15.006 Y28.404
X14.904 Y28.374
X14.802 Y28.343
X14.254 Y28.17
X14.187 Y28.146
X13.977 Y28.067
X13.88 Y28.03
X13.778 Y27.99
X13.216 Y27.76
X13.164 Y27.736
X13.061 Y27.687
X12.795 Y27.555
X12.55 Y27.431
X12.447 Y27.378
X12.202 Y27.248
X12.14 Y27.215
X12.025 Y27.146
X11.526 Y26.839
X11.424 Y26.774
X11.321 Y26.704
X11.074 Y26.532
X10.605 Y26.187
X10.522 Y26.122
X10.397 Y26.02
X10.298 Y25.936
X9.786 Y25.489
X9.697 Y25.406
X9.684 Y25.393
X9.581 Y25.29
X9.172 Y24.866
X9.07 Y24.759
X9.005 Y24.689
X8.967 Y24.646
X8.865 Y24.52
X8.504 Y24.075
X8.455 Y24.011
X8.351 Y23.87
X8.277 Y23.768
X8.251 Y23.73
X8 Y23.359
X7.933 Y23.256
X7.868 Y23.154
X7.803 Y23.052
X7.739 Y22.941
X7.432 Y22.381
X7.408 Y22.335
X7.357 Y22.233
X7.263 Y22.028
X7.217 Y21.926
X7.082 Y21.619
X6.955 Y21.311
X6.92 Y21.218
X6.746 Y20.697
X6.712 Y20.595
X6.681 Y20.493
X6.613 Y20.243
X6.598 Y20.186
X6.574 Y20.083
X6.453 Y19.571
X6.432 Y19.469
X6.408 Y19.309
X6.372 Y19.06
X6.343 Y18.855
X6.33 Y18.753
X6.305 Y18.548
X6.295 Y18.445
X6.288 Y18.343
X6.264 Y17.831
X6.261 Y17.729
X6.259 Y17.627
Y17.524
X6.258 Y17.422
X6.261 Y17.319
X6.268 Y17.115
X6.273 Y17.012
X6.286 Y16.808
X6.293 Y16.705
X6.303 Y16.603
X6.326 Y16.398
X6.338 Y16.296
X6.365 Y16.091
X6.38 Y15.989
X6.399 Y15.886
X6.52 Y15.272
X6.543 Y15.17
X6.568 Y15.068
X6.594 Y14.965
X6.613 Y14.895
X6.775 Y14.351
X6.818 Y14.214
X6.84 Y14.146
X6.875 Y14.044
X6.92 Y13.93
X7.206 Y13.225
X7.227 Y13.174
X7.306 Y13.02
X7.573 Y12.509
X7.636 Y12.395
X7.745 Y12.202
X7.807 Y12.099
X8.205 Y11.485
X8.251 Y11.417
X8.275 Y11.383
X8.353 Y11.279
X8.675 Y10.871
X8.762 Y10.76
X8.839 Y10.666
X8.967 Y10.512
X9.013 Y10.461
X9.399 Y10.052
X9.596 Y9.847
X9.684 Y9.76
X9.7 Y9.745
X9.786 Y9.666
X10.298 Y9.213
X10.4 Y9.125
X10.521 Y9.028
X10.605 Y8.963
X11.071 Y8.619
X11.364 Y8.414
X11.424 Y8.373
X11.526 Y8.309
X12.038 Y7.997
X12.14 Y7.936
X12.202 Y7.902
X12.447 Y7.772
X12.55 Y7.719
X13.061 Y7.466
X13.164 Y7.416
X13.22 Y7.391
X13.471 Y7.288
X13.573 Y7.247
X14.085 Y7.046
X14.187 Y7.006
X14.255 Y6.981
X14.495 Y6.907
X14.699 Y6.845
X15.211 Y6.692
X15.271 Y6.674
X15.416 Y6.641
X15.62 Y6.595
X15.928 Y6.53
X16.235 Y6.465
X16.337 Y6.445
X16.439 Y6.429
X16.644 Y6.398
X16.746 Y6.384
X17.258 Y6.319
X17.361 Y6.307
X17.463 Y6.298
X17.668 Y6.281
X17.77 Y6.274
X18.297 Y6.252
G3 X18.609 Y6.549 I0.001 J0.31
G1 Y6.562
X18.595 Y6.615 Z-1.325
X18.582 Y6.665 Z-1.309
X18.57 Y6.712 Z-1.283
X18.539 Y6.747 Z-1.244
X18.512 Y6.776 Z-1.197
X18.493 Y6.798 Z-1.143
X18.481 Y6.811 Z-1.085
X18.477 Y6.816 Z-1.024
G0 Z-0.513
X18.093 Y8.297
G1 Z-0.823 F1000
Y8.289 Z-0.892
X18.092 Y8.267 Z-0.958
X18.091 Y8.23 Z-1.016
X18.09 Y8.181 Z-1.066
X18.088 Y8.122 Z-1.102
X18.086 Y8.056 Z-1.125
X18.084 Y7.987 Z-1.133
G3 X18.214 Y6.287 I7.91 J-0.247
G1 X18.222 Y6.254
X18.245 Y6.229
X18.278 Y6.219
X18.384 Y6.214
X18.486 Y6.212
X18.691 Y6.208
X18.794 Y6.209
X18.998 Y6.214
X19.408 Y6.227
X19.51 Y6.234
X20.431 Y6.332
X20.534 Y6.345
X20.675 Y6.367
X20.841 Y6.394
X20.943 Y6.413
X21.557 Y6.533
X21.66 Y6.554
X21.762 Y6.577
X21.864 Y6.601
X21.967 Y6.628
X22.838 Y6.879
X22.888 Y6.894
X22.99 Y6.929
X23.919 Y7.288
X24.014 Y7.328
X24.143 Y7.391
X24.628 Y7.63
X24.971 Y7.8
X25.037 Y7.835
X25.152 Y7.902
X25.754 Y8.271
X25.819 Y8.312
X26.061 Y8.469
X26.129 Y8.517
X26.679 Y8.926
X26.778 Y9
X26.815 Y9.028
X26.88 Y9.079
X26.945 Y9.131
X26.982 Y9.162
X27.085 Y9.252
X27.519 Y9.643
X27.596 Y9.713
X27.801 Y9.909
X27.843 Y9.95
X27.938 Y10.052
X28.222 Y10.359
X28.315 Y10.461
X28.5 Y10.666
X28.518 Y10.686
X28.584 Y10.768
X29.05 Y11.383
X29.125 Y11.485
X29.234 Y11.645
X29.262 Y11.69
X29.388 Y11.894
X29.577 Y12.202
X29.701 Y12.406
X29.746 Y12.484
X29.759 Y12.509
X29.81 Y12.611
X30.059 Y13.123
X30.107 Y13.225
X30.2 Y13.43
X30.244 Y13.532
X30.258 Y13.564
X30.285 Y13.635
X30.473 Y14.146
X30.511 Y14.249
X30.61 Y14.556
X30.639 Y14.658
X30.772 Y15.17
X30.798 Y15.272
X30.821 Y15.375
X30.872 Y15.617
X30.883 Y15.682
X30.915 Y15.886
X30.979 Y16.296
X30.993 Y16.398
X31.004 Y16.501
X31.013 Y16.603
X31.021 Y16.705
X31.027 Y16.808
X31.05 Y17.319
X31.053 Y17.422
X31.056 Y17.627
X31.057 Y17.729
X31.055 Y17.831
X31.05 Y18.036
X31.046 Y18.138
X31.035 Y18.343
X31.028 Y18.445
X31.018 Y18.548
X30.996 Y18.753
X30.984 Y18.855
X30.958 Y19.06
X30.943 Y19.162
X30.926 Y19.264
X30.869 Y19.571
X30.83 Y19.776
X30.808 Y19.878
X30.77 Y20.031
X30.65 Y20.493
X30.62 Y20.595
X30.443 Y21.107
X30.408 Y21.209
X30.371 Y21.311
X30.332 Y21.414
X30.292 Y21.516
X30.258 Y21.597
X30.111 Y21.926
X29.951 Y22.282
X29.922 Y22.335
X29.848 Y22.47
X29.583 Y22.949
X29.541 Y23.021
X29.439 Y23.182
X29.337 Y23.341
X29.234 Y23.496
X29.12 Y23.666
X29.049 Y23.768
X28.927 Y23.937
X28.901 Y23.973
X28.821 Y24.075
X28.576 Y24.382
X28.518 Y24.454
X28.313 Y24.694
X28.227 Y24.792
X27.903 Y25.135
X27.841 Y25.201
X27.699 Y25.341
X27.596 Y25.441
X27.524 Y25.508
X27.184 Y25.815
X27.085 Y25.901
X26.816 Y26.122
X26.778 Y26.153
X26.675 Y26.233
X26.368 Y26.468
X26.282 Y26.532
X26.136 Y26.634
X26.061 Y26.685
X25.447 Y27.083
X25.341 Y27.146
X25.14 Y27.255
X24.628 Y27.531
X24.582 Y27.555
X24.423 Y27.63
X24.365 Y27.658
X24.219 Y27.723
X23.672 Y27.965
X23.604 Y27.991
X23.398 Y28.067
X23.297 Y28.104
X22.99 Y28.213
X22.82 Y28.272
X22.683 Y28.319
X22.581 Y28.351
X22.478 Y28.38
X21.742 Y28.579
X21.66 Y28.599
X21.557 Y28.621
X20.943 Y28.738
X20.841 Y28.757
X20.674 Y28.784
X20.534 Y28.805
X20.431 Y28.819
X19.92 Y28.877
X19.817 Y28.888
X19.715 Y28.897
X19.51 Y28.912
X19.408 Y28.918
X18.896 Y28.937
X18.794 Y28.941
X18.691
X18.486 Y28.938
X18.384 Y28.935
X17.463 Y28.892
X17.377 Y28.886
X17.361 Y28.884
X17.258 Y28.872
X16.439 Y28.757
X16.337 Y28.742
X16.235 Y28.725
X15.991 Y28.681
X15.928 Y28.668
X15.313 Y28.527
X15.211 Y28.501
X15.006 Y28.446
X14.904 Y28.417
X14.29 Y28.224
X14.187 Y28.189
X13.983 Y28.114
X13.858 Y28.067
X13.778 Y28.035
X13.266 Y27.827
X13.164 Y27.782
X13.115 Y27.76
X12.857 Y27.635
X12.754 Y27.585
X12.447 Y27.428
X12.243 Y27.323
X12.14 Y27.268
X12.104 Y27.248
X12.038 Y27.208
X11.526 Y26.893
X11.44 Y26.839
X11.321 Y26.76
X11.117 Y26.621
X11.014 Y26.548
X10.503 Y26.171
X10.441 Y26.122
X10.4 Y26.09
X10.298 Y26.002
X9.732 Y25.508
X9.684 Y25.466
X9.624 Y25.406
X9.479 Y25.258
X9.028 Y24.792
X8.967 Y24.725
X8.684 Y24.382
X8.455 Y24.1
X8.436 Y24.075
X8.353 Y23.968
X8.28 Y23.87
X8.251 Y23.828
X8.003 Y23.461
X7.935 Y23.359
X7.841 Y23.212
X7.739 Y23.05
X7.68 Y22.949
X7.399 Y22.437
X7.329 Y22.308
X7.293 Y22.233
X7.227 Y22.092
X7.065 Y21.721
X7.02 Y21.619
X6.977 Y21.516
X6.92 Y21.379
X6.893 Y21.311
X6.856 Y21.209
X6.685 Y20.697
X6.651 Y20.595
X6.62 Y20.493
X6.565 Y20.288
X6.538 Y20.186
X6.511 Y20.071
X6.392 Y19.571
X6.372 Y19.469
X6.357 Y19.367
X6.312 Y19.06
X6.283 Y18.855
X6.27 Y18.753
X6.245 Y18.548
X6.235 Y18.445
X6.229 Y18.343
X6.203 Y17.806
X6.201 Y17.729
X6.2 Y17.627
X6.199 Y17.524
Y17.422
X6.201 Y17.319
X6.209 Y17.115
X6.214 Y17.012
X6.226 Y16.808
X6.234 Y16.705
X6.244 Y16.603
X6.266 Y16.398
X6.278 Y16.296
X6.306 Y16.087
X6.321 Y15.989
X6.339 Y15.886
X6.44 Y15.375
X6.461 Y15.272
X6.511 Y15.055
X6.533 Y14.965
X6.562 Y14.863
X6.715 Y14.347
X6.746 Y14.249
X6.781 Y14.146
X6.856 Y13.942
X6.895 Y13.839
X7.125 Y13.273
X7.145 Y13.225
X7.192 Y13.123
X7.243 Y13.02
X7.329 Y12.854
X7.563 Y12.406
X7.62 Y12.304
X7.679 Y12.202
X7.742 Y12.099
X7.874 Y11.894
X8.148 Y11.472
X8.21 Y11.383
X8.251 Y11.327
X8.285 Y11.28
X8.365 Y11.178
X8.687 Y10.768
X8.772 Y10.666
X8.967 Y10.436
X9.038 Y10.359
X9.479 Y9.892
X9.523 Y9.847
X9.628 Y9.745
X9.684 Y9.69
X9.786 Y9.599
X10.315 Y9.131
X10.4 Y9.058
X10.438 Y9.028
X10.503 Y8.979
X11.014 Y8.601
X11.117 Y8.528
X11.321 Y8.388
X11.436 Y8.312
X11.526 Y8.255
X12.038 Y7.943
X12.105 Y7.902
X12.14 Y7.883
X12.243 Y7.828
X12.494 Y7.698
X13.113 Y7.391
X13.164 Y7.367
X13.266 Y7.323
X13.614 Y7.186
X14.134 Y6.981
X14.187 Y6.961
X14.29 Y6.926
X15.211 Y6.65
X15.313 Y6.622
X15.62 Y6.556
X16.235 Y6.426
X16.337 Y6.406
X16.439 Y6.39
X16.644 Y6.361
X16.746 Y6.347
X17.258 Y6.283
X17.361 Y6.271
X17.425 Y6.265
X17.668 Y6.246
X17.77 Y6.24
X18.278 Y6.219
G3 X18.589 Y6.515 I0.002 J0.31
G1 X18.59 Y6.529
X18.576 Y6.581 Z-1.125
X18.563 Y6.632 Z-1.108
X18.551 Y6.678 Z-1.082
X18.52 Y6.714 Z-1.044
X18.494 Y6.742 Z-0.997
X18.475 Y6.764 Z-0.943
X18.463 Y6.777 Z-0.884
X18.459 Y6.782 Z-0.824
G0 Z2.5
X19.701 Y18.851
Z0.567
S5000
G3 X18.233 Y16.298 Z0.405 I-0.734 J-1.277 F333.3
X19.701 Y18.851 Z0.244 I0.734 J1.277
X18.233 Y16.298 Z0.082 I-0.734 J-1.277
X19.701 Y18.851 Z-0.079 I0.734 J1.277
X18.233 Y16.298 Z-0.241 I-0.734 J-1.277
X19.701 Y18.851 Z-0.402 I0.734 J1.277
X18.233 Y16.298 Z-0.564 I-0.734 J-1.277
X19.701 Y18.851 Z-0.726 I0.734 J1.277
X18.233 Y16.298 Z-0.887 I-0.734 J-1.277
X19.701 Y18.851 Z-1.049 I0.734 J1.277
X18.233 Y16.298 Z-1.21 I-0.734 J-1.277
X19.701 Y18.851 Z-1.372 I0.734 J1.277
X18.233 Y16.298 Z-1.533 I-0.734 J-1.277
X19.701 Y18.851 Z-1.695 I0.734 J1.277
X18.233 Y16.298 Z-1.856 I-0.734 J-1.277
X19.701 Y18.851 Z-2.018 I0.734 J1.277
X18.233 Y16.298 Z-2.179 I-0.734 J-1.277
X19.701 Y18.851 Z-2.341 I0.734 J1.277
X18.233 Y16.298 Z-2.503 I-0.734 J-1.277
X19.701 Y18.851 Z-2.664 I0.734 J1.277
X18.233 Y16.298 Z-2.826 I-0.734 J-1.277
X20.44 Y17.574 Z-2.933 I0.734 J1.277
X17.495 Y17.574 I-1.472 J0
X20.44 Y17.574 I1.472 J0
S10000
G1 X20.445 Y17.8 F1000
X20.571 Y18.157
X20.59 Y18.229
X20.602 Y18.304
X20.607 Y18.378
X20.606 Y18.458
X20.598 Y18.542
X20.582 Y18.632
X20.558 Y18.725
X20.524 Y18.821
X20.481 Y18.92
X20.427 Y19.019
X20.363 Y19.119
X20.287 Y19.217
X20.2 Y19.312
X20.103 Y19.404
X19.995 Y19.49
X19.876 Y19.57
X19.748 Y19.642
X19.611 Y19.706
X19.465 Y19.759
X19.313 Y19.802
X19.154 Y19.832
X18.991 Y19.851
X18.824 Y19.856
X18.655 Y19.847
X18.484 Y19.825
X18.314 Y19.789
X18.146 Y19.739
X17.981 Y19.674
X17.82 Y19.596
X17.665 Y19.505
X17.517 Y19.401
X17.377 Y19.285
X17.246 Y19.157
X17.125 Y19.019
X17.016 Y18.871
X16.918 Y18.714
X16.833 Y18.549
X16.761 Y18.377
X16.703 Y18.2
X16.659 Y18.018
X16.63 Y17.833
X16.616 Y17.646
X16.617 Y17.459
X16.633 Y17.272
X16.664 Y17.086
X16.71 Y16.903
X16.771 Y16.725
X16.845 Y16.552
X16.934 Y16.385
X17.035 Y16.226
X17.149 Y16.076
X17.275 Y15.935
X17.411 Y15.804
X17.558 Y15.685
X17.714 Y15.578
X17.878 Y15.484
X18.049 Y15.403
X18.226 Y15.337
X18.408 Y15.284
X18.594 Y15.247
X18.781 Y15.224
X18.971 Y15.217
X19.16 Y15.225
X19.348 Y15.248
X19.533 Y15.286
X19.715 Y15.338
X19.892 Y15.406
X20.063 Y15.487
X20.227 Y15.581
X20.383 Y15.689
X20.53 Y15.809
X20.666 Y15.94
X20.792 Y16.081
X20.906 Y16.232
X21.063 Y16.481
X21.259 Y16.851
X21.378 Y17.13
X21.462 Y17.38
X21.519 Y17.611
X21.556 Y17.834
X21.574 Y18.05
X21.575 Y18.261
X21.559 Y18.467
X21.527 Y18.67
X21.479 Y18.868
X21.415 Y19.062
X21.335 Y19.25
X21.24 Y19.433
X21.13 Y19.61
X21.005 Y19.778
X20.865 Y19.938
X20.711 Y20.087
X20.543 Y20.225
X20.362 Y20.352
X20.169 Y20.465
X19.964 Y20.563
X19.75 Y20.646
X19.527 Y20.712
X19.296 Y20.761
X19.059 Y20.791
X18.819 Y20.803
X18.575 Y20.794
X18.331 Y20.767
X18.088 Y20.719
X17.848 Y20.651
X17.612 Y20.564
X17.383 Y20.458
X17.161 Y20.332
X16.949 Y20.189
X16.749 Y20.028
X16.561 Y19.85
X16.387 Y19.657
X16.228 Y19.451
X16.086 Y19.231
X15.962 Y19
X15.856 Y18.759
X15.77 Y18.509
X15.704 Y18.253
X15.659 Y17.992
X15.635 Y17.728
X15.632 Y17.462
X15.65 Y17.197
X15.69 Y16.933
X15.751 Y16.673
X15.832 Y16.419
X15.934 Y16.172
X16.055 Y15.934
X16.195 Y15.706
X16.353 Y15.489
X16.528 Y15.287
X16.719 Y15.098
X16.925 Y14.926
X17.143 Y14.771
X17.374 Y14.633
X17.614 Y14.515
X17.864 Y14.416
X18.121 Y14.338
X18.383 Y14.28
X18.649 Y14.244
X18.917 Y14.229
X19.186 Y14.236
X19.453 Y14.264
X19.717 Y14.313
X19.976 Y14.384
X20.229 Y14.475
X20.473 Y14.586
X20.708 Y14.717
X20.932 Y14.866
X21.159 Y15.045
X21.399 Y15.267
X21.625 Y15.514
X21.837 Y15.786
X22.027 Y16.074
X22.189 Y16.37
X22.324 Y16.671
X22.431 Y16.974
X22.512 Y17.277
X22.567 Y17.581
X22.598 Y17.883
X22.603 Y18.183
X22.585 Y18.48
X22.544 Y18.773
X22.479 Y19.06
X22.391 Y19.341
X22.282 Y19.613
X22.151 Y19.876
X21.998 Y20.129
X21.825 Y20.37
X21.632 Y20.597
X21.42 Y20.809
X21.19 Y21.006
X20.943 Y21.184
X20.681 Y21.344
X20.404 Y21.483
X20.114 Y21.6
X19.813 Y21.695
X19.504 Y21.765
X19.187 Y21.811
X18.865 Y21.832
X18.541 Y21.826
X18.216 Y21.795
X17.892 Y21.737
X17.572 Y21.652
X17.258 Y21.542
X16.952 Y21.406
X16.657 Y21.245
X16.374 Y21.06
X16.106 Y20.852
X15.854 Y20.622
X15.62 Y20.372
X15.407 Y20.103
X15.215 Y19.817
X15.047 Y19.515
X14.903 Y19.2
X14.784 Y18.874
X14.691 Y18.538
X14.626 Y18.196
X14.589 Y17.849
X14.579 Y17.499
X14.597 Y17.15
X14.644 Y16.802
X14.718 Y16.459
X14.82 Y16.123
X14.948 Y15.796
X15.103 Y15.48
X15.282 Y15.177
X15.485 Y14.89
X15.711 Y14.619
X15.958 Y14.367
X16.224 Y14.136
X16.508 Y13.927
X16.808 Y13.742
X17.122 Y13.581
X17.448 Y13.446
X17.784 Y13.337
X18.128 Y13.256
X18.477 Y13.202
X18.829 Y13.177
X19.182 Y13.18
X19.534 Y13.211
X19.882 Y13.27
X20.225 Y13.358
X20.559 Y13.472
X20.888 Y13.615
X21.215 Y13.79
X21.538 Y13.997
X21.852 Y14.236
X22.152 Y14.506
X22.433 Y14.802
X22.691 Y15.122
X22.922 Y15.461
X23.124 Y15.815
X23.295 Y16.182
X23.435 Y16.558
X23.544 Y16.941
X23.621 Y17.328
X23.667 Y17.717
X23.681 Y18.106
X23.663 Y18.492
X23.615 Y18.874
X23.537 Y19.25
X23.429 Y19.618
X23.292 Y19.975
X23.127 Y20.321
X22.934 Y20.653
X22.714 Y20.969
X22.469 Y21.268
X22.2 Y21.547
X21.907 Y21.805
X21.593 Y22.04
X21.26 Y22.25
X20.908 Y22.434
X20.54 Y22.59
X20.159 Y22.717
X19.767 Y22.813
X19.366 Y22.878
X18.959 Y22.911
X18.548
X18.136 Y22.878
X17.726 Y22.811
X17.321 Y22.711
X16.924 Y22.579
X16.536 Y22.414
X16.161 Y22.218
X15.802 Y21.991
X15.461 Y21.736
X15.141 Y21.453
X14.843 Y21.144
X14.57 Y20.811
X14.324 Y20.457
X14.107 Y20.083
X13.92 Y19.692
X13.765 Y19.286
X13.642 Y18.868
X13.554 Y18.441
X13.499 Y18.008
X13.48 Y17.571
X13.496 Y17.133
X13.547 Y16.698
X13.633 Y16.268
X13.753 Y15.846
X13.907 Y15.434
X14.094 Y15.036
X14.312 Y14.653
X14.56 Y14.29
X14.836 Y13.947
X15.14 Y13.627
X15.468 Y13.333
X15.819 Y13.066
X16.19 Y12.828
X16.579 Y12.62
X16.984 Y12.445
X17.401 Y12.302
X17.829 Y12.193
X18.264 Y12.119
X18.704 Y12.08
X19.146 Y12.076
X19.586 Y12.108
X20.024 Y12.176
X20.457 Y12.278
X20.885 Y12.417
X21.301 Y12.59
X21.702 Y12.795
X22.086 Y13.031
X22.451 Y13.296
X22.794 Y13.587
X23.116 Y13.903
X23.413 Y14.241
X23.685 Y14.6
X23.93 Y14.978
X24.147 Y15.373
X24.335 Y15.782
X24.492 Y16.204
X24.616 Y16.637
X24.708 Y17.078
X24.767 Y17.525
X24.791 Y17.975
X24.782 Y18.425
X24.738 Y18.873
X24.66 Y19.317
X24.549 Y19.753
X24.404 Y20.18
X24.228 Y20.595
X24.02 Y20.994
X23.783 Y21.377
X23.517 Y21.741
X23.225 Y22.084
X22.908 Y22.403
X22.567 Y22.698
X22.206 Y22.967
X21.825 Y23.208
X21.427 Y23.419
X21.015 Y23.6
X20.59 Y23.749
X20.155 Y23.867
X19.713 Y23.953
X19.266 Y24.007
X18.816 Y24.028
X18.365 Y24.016
X17.917 Y23.973
X17.473 Y23.898
X17.035 Y23.791
X16.607 Y23.652
X16.189 Y23.483
X15.785 Y23.285
X15.395 Y23.059
X15.022 Y22.807
X14.667 Y22.529
X14.332 Y22.228
X14.02 Y21.903
X13.732 Y21.557
X13.468 Y21.192
X13.23 Y20.809
X13.019 Y20.411
X12.836 Y20
X12.681 Y19.577
X12.556 Y19.144
X12.462 Y18.704
X12.398 Y18.258
X12.366 Y17.809
X12.363 Y17.358
X12.391 Y16.909
X12.449 Y16.462
X12.539 Y16.02
X12.659 Y15.586
X12.809 Y15.161
X12.987 Y14.748
X13.192 Y14.347
X13.424 Y13.96
X13.681 Y13.591
X13.964 Y13.24
X14.271 Y12.91
X14.599 Y12.602
X14.947 Y12.316
X15.313 Y12.054
X15.697 Y11.817
X16.095 Y11.608
X16.508 Y11.426
X16.932 Y11.274
X17.365 Y11.15
X17.805 Y11.056
X18.251 Y10.991
X18.7 Y10.957
X19.151 Y10.954
X19.6 Y10.982
X20.047 Y11.041
X20.488 Y11.129
X20.923 Y11.246
X21.35 Y11.392
X21.765 Y11.566
X22.168 Y11.768
X22.556 Y11.995
X22.93 Y12.247
X23.287 Y12.522
X23.626 Y12.818
X23.946 Y13.135
X24.245 Y13.472
X24.522 Y13.827
X24.777 Y14.199
X25.009 Y14.585
X25.217 Y14.984
X25.4 Y15.396
X25.556 Y15.819
X25.684 Y16.251
X25.785 Y16.69
X25.858 Y17.134
X25.904 Y17.582
X25.921 Y18.032
X25.91 Y18.482
X25.868 Y18.931
X25.799 Y19.376
X25.701 Y19.816
X25.576 Y20.248
X25.424 Y20.672
X25.244 Y21.086
X25.038 Y21.486
X24.807 Y21.873
X24.552 Y22.244
X24.274 Y22.598
X23.974 Y22.935
X23.654 Y23.252
X23.314 Y23.547
X22.956 Y23.82
X22.581 Y24.07
X22.191 Y24.296
X21.788 Y24.497
X21.374 Y24.673
X20.948 Y24.822
X20.515 Y24.944
X20.074 Y25.039
X19.629 Y25.106
X19.18 Y25.147
X18.73 Y25.161
X18.28 Y25.147
X17.832 Y25.105
X17.386 Y25.036
X16.947 Y24.939
X16.513 Y24.816
X16.088 Y24.668
X15.672 Y24.495
X15.268 Y24.296
X14.876 Y24.073
X14.499 Y23.828
X14.136 Y23.56
X13.79 Y23.272
X13.462 Y22.963
X13.152 Y22.636
X12.863 Y22.291
X12.596 Y21.928
X12.35 Y21.551
X12.126 Y21.16
X11.925 Y20.757
X11.748 Y20.342
X11.596 Y19.918
X11.47 Y19.486
X11.37 Y19.047
X11.296 Y18.603
X11.248 Y18.155
X11.225 Y17.705
X11.228 Y17.254
X11.257 Y16.805
X11.314 Y16.358
X11.397 Y15.915
X11.506 Y15.478
X11.64 Y15.048
X11.798 Y14.626
X11.98 Y14.214
X12.185 Y13.813
X12.415 Y13.426
X12.667 Y13.052
X12.94 Y12.694
X13.233 Y12.352
X13.545 Y12.028
X13.876 Y11.721
X14.224 Y11.435
X14.588 Y11.17
X14.967 Y10.927
X15.359 Y10.706
X15.764 Y10.508
X16.179 Y10.334
X16.604 Y10.183
X17.037 Y10.058
X17.476 Y9.959
X17.921 Y9.886
X18.368 Y9.838
X18.818 Y9.816
X19.269 Y9.82
X19.718 Y9.85
X20.165 Y9.906
X20.608 Y9.988
X21.045 Y10.096
X21.476 Y10.228
X21.899 Y10.384
X22.312 Y10.564
X22.714 Y10.766
X23.104 Y10.991
X23.481 Y11.238
X23.844 Y11.504
X24.192 Y11.79
X24.524 Y12.095
X24.84 Y12.417
X25.137 Y12.755
X25.416 Y13.109
X25.675 Y13.477
X25.913 Y13.859
X26.131 Y14.253
X26.328 Y14.659
X26.503 Y15.074
X26.655 Y15.498
X26.783 Y15.93
X26.888 Y16.368
X26.968 Y16.811
X27.024 Y17.258
X27.056 Y17.707
X27.064 Y18.158
X27.047 Y18.608
X27.005 Y19.056
X26.938 Y19.502
X26.847 Y19.943
X26.732 Y20.378
X26.593 Y20.807
X26.431 Y21.227
X26.247 Y21.638
X26.04 Y22.038
X25.811 Y22.426
X25.56 Y22.801
X25.29 Y23.161
X25.001 Y23.506
X24.693 Y23.835
X24.369 Y24.148
X24.027 Y24.441
X23.67 Y24.716
X23.298 Y24.97
X22.913 Y25.204
X22.516 Y25.416
X22.108 Y25.607
X21.69 Y25.776
X21.264 Y25.923
X20.831 Y26.045
X20.392 Y26.144
X19.948 Y26.22
X19.5 Y26.272
X19.051 Y26.301
X18.6 Y26.306
X18.15 Y26.287
X17.702 Y26.245
X17.256 Y26.178
X16.815 Y26.087
X16.379 Y25.974
X15.95 Y25.838
X15.528 Y25.68
X15.114 Y25.501
X14.711 Y25.3
X14.319 Y25.079
X13.939 Y24.837
X13.572 Y24.575
X13.219 Y24.295
X12.881 Y23.998
X12.559 Y23.683
X12.253 Y23.352
X11.965 Y23.006
X11.695 Y22.646
X11.444 Y22.271
X11.213 Y21.885
X11.001 Y21.487
X10.81 Y21.079
X10.64 Y20.662
X10.492 Y20.237
X10.365 Y19.804
X10.262 Y19.366
X10.181 Y18.923
X10.123 Y18.476
X10.087 Y18.027
X10.073 Y17.577
X10.082 Y17.127
X10.115 Y16.677
X10.17 Y16.23
X10.249 Y15.787
X10.35 Y15.348
X10.473 Y14.915
X10.618 Y14.488
X10.784 Y14.069
X10.97 Y13.659
X11.177 Y13.259
X11.405 Y12.871
X11.653 Y12.494
X11.919 Y12.131
X12.203 Y11.781
X12.504 Y11.446
X12.822 Y11.127
X13.155 Y10.824
X13.503 Y10.538
X13.866 Y10.271
X14.242 Y10.022
X14.629 Y9.793
X15.028 Y9.584
X15.437 Y9.395
X15.855 Y9.226
X16.28 Y9.079
X16.713 Y8.954
X17.152 Y8.851
X17.595 Y8.771
X18.042 Y8.713
X18.491 Y8.677
X18.941 Y8.664
X19.391 Y8.673
X19.841 Y8.705
X20.288 Y8.76
X20.731 Y8.838
X21.17 Y8.938
X21.604 Y9.06
X22.031 Y9.202
