(1001)
(Wasbak)
(T1  D=3.1 CR=0 - ZMIN=-17.487 - flat end mill)
G90 G94
G17
G21
G28 G91 Z0
G90

(Adaptive2)
S5000 M3
G54
G0 X22.196 Y21.063
Z2
G3 X22.846 Y23.935 Z1.838 I0.325 J1.436 F333.3
X22.196 Y21.063 Z1.677 I-0.325 J-1.436
X22.846 Y23.935 Z1.515 I0.325 J1.436
X22.196 Y21.063 Z1.354 I-0.325 J-1.436
X22.846 Y23.935 Z1.192 I0.325 J1.436
X22.196 Y21.063 Z1.031 I-0.325 J-1.436
X22.846 Y23.935 Z0.869 I0.325 J1.436
X22.196 Y21.063 Z0.708 I-0.325 J-1.436
X22.846 Y23.935 Z0.546 I0.325 J1.436
X22.196 Y21.063 Z0.385 I-0.325 J-1.436
X22.846 Y23.935 Z0.223 I0.325 J1.436
X22.196 Y21.063 Z0.061 I-0.325 J-1.436
X22.846 Y23.935 Z-0.1 I0.325 J1.436
X22.196 Y21.063 Z-0.262 I-0.325 J-1.436
X22.846 Y23.935 Z-0.423 I0.325 J1.436
X22.196 Y21.063 Z-0.585 I-0.325 J-1.436
X22.846 Y23.935 Z-0.746 I0.325 J1.436
X22.196 Y21.063 Z-0.908 I-0.325 J-1.436
X23.993 Y22.499 Z-1 I0.325 J1.436
X21.048 Y22.499 I-1.472 J0
X23.993 Y22.499 I1.472 J0
S10000
G1 X23.999 Y22.724 F1000
X24.125 Y23.081
X24.144 Y23.154
X24.156 Y23.228
X24.161 Y23.303
X24.16 Y23.382
X24.152 Y23.467
X24.136 Y23.556
X24.112 Y23.649
X24.078 Y23.746
X24.035 Y23.844
X23.981 Y23.944
X23.916 Y24.043
X23.841 Y24.141
X23.754 Y24.237
X23.657 Y24.328
X23.548 Y24.415
X23.43 Y24.495
X23.302 Y24.567
X23.165 Y24.63
X23.019 Y24.684
X22.867 Y24.726
X22.708 Y24.757
X22.545 Y24.775
X22.378 Y24.78
X22.209 Y24.772
X22.038 Y24.75
X21.868 Y24.713
X21.7 Y24.663
X21.535 Y24.599
X21.374 Y24.521
X21.219 Y24.43
X21.071 Y24.326
X20.931 Y24.21
X20.8 Y24.082
X20.679 Y23.943
X20.569 Y23.795
X20.472 Y23.638
X20.386 Y23.473
X20.315 Y23.302
X20.257 Y23.124
X20.213 Y22.943
X20.184 Y22.758
X20.17 Y22.571
X20.171 Y22.383
X20.187 Y22.196
X20.218 Y22.01
X20.264 Y21.828
X20.324 Y21.649
X20.399 Y21.476
X20.487 Y21.31
X20.589 Y21.151
X20.703 Y21
X20.829 Y20.859
X20.965 Y20.729
X21.112 Y20.609
X21.268 Y20.503
X21.432 Y20.408
X21.603 Y20.328
X21.78 Y20.261
X21.962 Y20.209
X22.147 Y20.171
X22.335 Y20.149
X22.524 Y20.141
X22.714 Y20.149
X22.901 Y20.172
X23.087 Y20.21
X23.269 Y20.263
X23.446 Y20.33
X23.617 Y20.411
X23.781 Y20.506
X23.937 Y20.613
X24.083 Y20.733
X24.22 Y20.864
X24.346 Y21.006
X24.46 Y21.157
X24.617 Y21.405
X24.813 Y21.776
X24.932 Y22.055
X25.016 Y22.305
X25.073 Y22.535
X25.11 Y22.758
X25.128 Y22.975
X25.129 Y23.186
X25.113 Y23.392
X25.081 Y23.594
X25.033 Y23.792
X24.969 Y23.986
X24.889 Y24.175
X24.794 Y24.358
X24.684 Y24.534
X24.558 Y24.702
X24.418 Y24.862
X24.264 Y25.011
X24.097 Y25.15
X23.916 Y25.276
X23.723 Y25.389
X23.518 Y25.488
X23.304 Y25.57
X23.08 Y25.637
X22.85 Y25.685
X22.613 Y25.716
X22.373 Y25.727
X22.129 Y25.719
X21.885 Y25.691
X21.642 Y25.643
X21.402 Y25.576
X21.166 Y25.489
X20.937 Y25.382
X20.715 Y25.257
X20.503 Y25.113
X20.302 Y24.952
X20.114 Y24.775
X19.94 Y24.582
X19.782 Y24.375
X19.64 Y24.155
X19.516 Y23.924
X19.41 Y23.683
X19.324 Y23.434
X19.258 Y23.178
X19.213 Y22.917
X19.188 Y22.652
X19.185 Y22.387
X19.204 Y22.121
X19.244 Y21.858
X19.304 Y21.598
X19.386 Y21.343
X19.488 Y21.096
X19.609 Y20.858
X19.749 Y20.63
X19.907 Y20.414
X20.082 Y20.211
X20.273 Y20.023
X20.478 Y19.851
X20.697 Y19.695
X20.928 Y19.558
X21.168 Y19.439
X21.418 Y19.341
X21.675 Y19.262
X21.937 Y19.205
X22.203 Y19.168
X22.471 Y19.153
X22.74 Y19.16
X23.007 Y19.188
X23.271 Y19.238
X23.53 Y19.309
X23.783 Y19.4
X24.027 Y19.511
X24.262 Y19.641
X24.486 Y19.79
X24.713 Y19.969
X24.953 Y20.192
X25.179 Y20.438
X25.391 Y20.71
X25.581 Y20.998
X25.743 Y21.295
X25.878 Y21.596
X25.985 Y21.898
X26.066 Y22.202
X26.121 Y22.505
X26.151 Y22.807
X26.157 Y23.108
X26.139 Y23.405
X26.097 Y23.698
X26.033 Y23.985
X25.945 Y24.265
X25.836 Y24.538
X25.704 Y24.801
X25.552 Y25.053
X25.379 Y25.294
X25.186 Y25.521
X24.974 Y25.734
X24.744 Y25.93
X24.497 Y26.109
X24.235 Y26.268
X23.958 Y26.407
X23.668 Y26.525
X23.367 Y26.619
X23.058 Y26.69
X22.741 Y26.736
X22.419 Y26.756
X22.095 Y26.751
X21.769 Y26.719
X21.446 Y26.661
X21.126 Y26.577
X20.812 Y26.466
X20.506 Y26.33
X20.211 Y26.17
X19.928 Y25.985
X19.659 Y25.777
X19.408 Y25.547
X19.174 Y25.297
X18.961 Y25.027
X18.769 Y24.741
X18.601 Y24.44
X18.456 Y24.125
X18.338 Y23.798
X18.245 Y23.463
X18.18 Y23.12
X18.142 Y22.773
X18.133 Y22.424
X18.151 Y22.074
X18.198 Y21.727
X18.272 Y21.384
X18.374 Y21.048
X18.502 Y20.72
X18.657 Y20.404
X18.836 Y20.102
X19.039 Y19.814
X19.265 Y19.544
X19.512 Y19.292
X19.778 Y19.061
X20.062 Y18.852
X20.362 Y18.666
X20.676 Y18.505
X21.002 Y18.37
X21.338 Y18.261
X21.682 Y18.18
X22.031 Y18.127
X22.383 Y18.101
X22.736 Y18.104
X23.088 Y18.135
X23.436 Y18.195
X23.779 Y18.282
X24.113 Y18.397
X24.442 Y18.54
X24.769 Y18.714
X25.091 Y18.921
X25.405 Y19.161
X25.706 Y19.43
X25.987 Y19.727
X26.245 Y20.046
X26.475 Y20.385
X26.677 Y20.74
X26.849 Y21.106
X26.989 Y21.482
X27.098 Y21.865
X27.175 Y22.252
X27.221 Y22.641
X27.234 Y23.03
X27.217 Y23.417
X27.169 Y23.799
X27.091 Y24.175
X26.983 Y24.542
X26.846 Y24.9
X26.681 Y25.245
X26.488 Y25.577
X26.268 Y25.894
X26.023 Y26.192
X25.754 Y26.472
X25.461 Y26.73
X25.147 Y26.965
X24.813 Y27.175
X24.462 Y27.359
X24.094 Y27.515
X23.713 Y27.641
X23.321 Y27.738
X22.92 Y27.803
X22.513 Y27.835
X22.102
X21.69 Y27.802
X21.28 Y27.735
X20.875 Y27.636
X20.477 Y27.503
X20.09 Y27.339
X19.715 Y27.142
X19.356 Y26.916
X19.015 Y26.66
X18.694 Y26.377
X18.397 Y26.068
X18.124 Y25.736
X17.878 Y25.381
X17.661 Y25.007
X17.474 Y24.616
X17.318 Y24.21
X17.196 Y23.793
X17.107 Y23.366
X17.053 Y22.932
X17.034 Y22.495
X17.05 Y22.058
X17.101 Y21.623
X17.187 Y21.192
X17.307 Y20.77
X17.461 Y20.358
X17.647 Y19.96
X17.865 Y19.578
X18.113 Y19.214
X18.39 Y18.871
X18.693 Y18.552
X19.022 Y18.258
X19.372 Y17.991
X19.744 Y17.752
X20.133 Y17.545
X20.538 Y17.369
X20.955 Y17.226
X21.383 Y17.117
X21.818 Y17.043
X22.258 Y17.004
X22.7 Y17.001
X23.14 Y17.033
X23.577 Y17.1
X24.011 Y17.203
X24.439 Y17.342
X24.855 Y17.515
X25.256 Y17.72
X25.64 Y17.956
X26.004 Y18.22
X26.348 Y18.511
X26.67 Y18.827
X26.967 Y19.165
X27.239 Y19.524
X27.484 Y19.902
X27.701 Y20.297
X27.889 Y20.707
X28.045 Y21.129
X28.17 Y21.562
X28.262 Y22.003
X28.321 Y22.449
X28.345 Y22.899
X28.335 Y23.349
X28.292 Y23.798
X28.214 Y24.241
X28.102 Y24.678
X27.958 Y25.104
X27.782 Y25.519
X27.574 Y25.919
X27.337 Y26.302
X27.071 Y26.665
X26.779 Y27.008
X26.461 Y27.328
X26.121 Y27.623
X25.759 Y27.891
X25.379 Y28.132
X24.981 Y28.343
X24.568 Y28.524
X24.144 Y28.674
X23.709 Y28.792
X23.267 Y28.878
X22.819 Y28.931
X22.369 Y28.952
X21.919 Y28.941
X21.471 Y28.898
X21.027 Y28.823
X20.589 Y28.715
X20.16 Y28.577
X19.743 Y28.408
X19.338 Y28.21
X18.949 Y27.984
X18.576 Y27.731
X18.221 Y27.454
X17.886 Y27.152
X17.574 Y26.828
X17.285 Y26.482
X17.022 Y26.116
X16.784 Y25.734
X16.573 Y25.336
X16.39 Y24.924
X16.235 Y24.501
X16.11 Y24.069
X16.016 Y23.628
X15.952 Y23.182
X15.919 Y22.733
X15.917 Y22.283
X15.945 Y21.833
X16.003 Y21.386
X16.093 Y20.945
X16.213 Y20.511
X16.362 Y20.086
X16.54 Y19.672
X16.746 Y19.271
X16.978 Y18.885
X17.235 Y18.515
X17.518 Y18.165
X17.824 Y17.835
X18.153 Y17.526
X18.501 Y17.24
X18.867 Y16.978
X19.251 Y16.742
X19.649 Y16.532
X20.062 Y16.351
X20.485 Y16.198
X20.919 Y16.075
X21.359 Y15.98
X21.805 Y15.916
X22.254 Y15.881
X22.704 Y15.878
X23.154 Y15.907
X23.601 Y15.965
X24.042 Y16.053
X24.477 Y16.171
X24.903 Y16.316
X25.319 Y16.491
X25.722 Y16.692
X26.11 Y16.92
X26.484 Y17.172
X26.841 Y17.446
X27.18 Y17.743
X27.5 Y18.06
X27.799 Y18.397
X28.076 Y18.752
X28.331 Y19.123
X28.563 Y19.509
X28.771 Y19.909
X28.954 Y20.321
X29.109 Y20.743
X29.238 Y21.175
X29.339 Y21.614
X29.412 Y22.058
X29.458 Y22.507
X29.475 Y22.957
X29.463 Y23.407
X29.422 Y23.855
X29.352 Y24.3
X29.255 Y24.74
X29.129 Y25.173
X28.977 Y25.597
X28.798 Y26.01
X28.592 Y26.411
X28.361 Y26.797
X28.106 Y27.168
X27.828 Y27.523
X27.528 Y27.859
X27.208 Y28.176
X26.868 Y28.471
X26.509 Y28.744
X26.135 Y28.994
X25.745 Y29.22
X25.342 Y29.421
X24.927 Y29.597
X24.502 Y29.746
X24.069 Y29.868
X23.628 Y29.963
X23.183 Y30.031
X22.734 Y30.071
X22.284 Y30.085
X21.834 Y30.072
X21.385 Y30.03
X20.94 Y29.96
X20.5 Y29.864
X20.067 Y29.741
X19.642 Y29.592
X19.226 Y29.419
X18.822 Y29.221
X18.43 Y28.998
X18.052 Y28.752
X17.69 Y28.485
X17.344 Y28.196
X17.016 Y27.888
X16.706 Y27.561
X16.417 Y27.215
X16.149 Y26.853
X15.904 Y26.475
X15.68 Y26.084
X15.479 Y25.681
X15.302 Y25.267
X15.15 Y24.843
X15.024 Y24.41
X14.924 Y23.971
X14.85 Y23.527
X14.802 Y23.079
X14.779 Y22.629
X14.782 Y22.179
X14.811 Y21.729
X14.868 Y21.282
X14.951 Y20.84
X15.06 Y20.403
X15.194 Y19.972
X15.352 Y19.551
X15.533 Y19.139
X15.739 Y18.738
X15.969 Y18.35
X16.22 Y17.977
X16.494 Y17.619
X16.787 Y17.277
X17.099 Y16.952
X17.43 Y16.646
X17.777 Y16.36
X18.142 Y16.095
X18.521 Y15.851
X18.913 Y15.63
X19.318 Y15.433
X19.733 Y15.258
X20.158 Y15.108
X20.591 Y14.983
X21.03 Y14.884
X21.474 Y14.81
X21.922 Y14.762
X22.372 Y14.74
X22.823 Y14.744
X23.272 Y14.774
X23.719 Y14.831
X24.162 Y14.913
X24.599 Y15.02
X25.03 Y15.152
X25.452 Y15.309
X25.866 Y15.488
X26.268 Y15.691
X26.658 Y15.916
X27.035 Y16.162
X27.398 Y16.429
X27.746 Y16.715
X28.078 Y17.019
X28.393 Y17.341
X28.691 Y17.679
X28.97 Y18.033
X29.228 Y18.402
X29.467 Y18.784
X29.685 Y19.178
X29.882 Y19.583
X30.057 Y19.998
X30.209 Y20.422
X30.337 Y20.854
X30.441 Y21.292
X30.522 Y21.736
X30.578 Y22.182
X30.61 Y22.632
X30.618 Y23.082
X30.601 Y23.532
X30.559 Y23.981
X30.492 Y24.426
X30.401 Y24.867
X30.286 Y25.303
X30.147 Y25.731
X29.985 Y26.152
X29.801 Y26.563
X29.594 Y26.963
X29.364 Y27.35
X29.114 Y27.725
X28.844 Y28.085
X28.555 Y28.431
X28.247 Y28.76
X27.922 Y29.072
X27.581 Y29.366
X27.224 Y29.64
X26.852 Y29.894
X26.467 Y30.128
X26.07 Y30.341
X25.662 Y30.532
X25.244 Y30.701
X24.818 Y30.847
X24.385 Y30.97
X23.945 Y31.069
X23.501 Y31.145
X23.054 Y31.197
X22.604 Y31.225
X22.154 Y31.23
X21.704 Y31.212
X21.256 Y31.169
X20.81 Y31.102
X20.369 Y31.012
X19.933 Y30.898
X19.503 Y30.763
X19.081 Y30.605
X18.668 Y30.425
X18.265 Y30.225
X17.873 Y30.003
X17.493 Y29.761
X17.126 Y29.5
X16.773 Y29.22
X16.435 Y28.922
X16.113 Y28.607
X15.807 Y28.277
X15.518 Y27.931
X15.249 Y27.57
X14.998 Y27.196
X14.767 Y26.809
X14.555 Y26.412
X14.364 Y26.004
X14.194 Y25.586
X14.045 Y25.161
X13.919 Y24.729
X13.816 Y24.29
X13.735 Y23.847
X13.676 Y23.401
X13.64 Y22.952
X13.627 Y22.501
X13.636 Y22.051
X13.668 Y21.602
X13.724 Y21.155
X13.803 Y20.711
X13.904 Y20.272
X14.027 Y19.839
X14.172 Y19.412
X14.337 Y18.994
X14.524 Y18.584
X14.731 Y18.184
X14.959 Y17.795
X15.207 Y17.419
X15.473 Y17.055
X15.757 Y16.706
X16.058 Y16.371
X16.376 Y16.051
X16.709 Y15.748
X17.057 Y15.462
X17.42 Y15.195
X17.795 Y14.947
X18.183 Y14.718
X18.582 Y14.508
X18.991 Y14.319
X19.409 Y14.151
X19.834 Y14.003
X20.267 Y13.878
X20.705 Y13.775
X21.149 Y13.695
X21.595 Y13.637
X22.044 Y13.602
X22.495 Y13.588
X22.945 Y13.598
X23.394 Y13.63
X23.841 Y13.685
X24.285 Y13.763
X24.724 Y13.863
X25.158 Y13.984
X25.585 Y14.127
X26.005 Y14.29
X26.416 Y14.474
X26.818 Y14.677
X27.209 Y14.901
X27.589 Y15.143
X27.957 Y15.404
X28.311 Y15.681
X28.652 Y15.975
X28.979 Y16.285
X29.291 Y16.61
X29.587 Y16.95
X29.867 Y17.303
X30.129 Y17.669
X30.373 Y18.048
X30.6 Y18.437
X30.807 Y18.837
X30.996 Y19.246
X31.166 Y19.663
X31.315 Y20.088
X31.444 Y20.52
X31.551 Y20.957
X31.638 Y21.399
X31.703 Y21.845
X31.747 Y22.293
X31.77 Y22.743
X31.771 Y23.193
X31.751 Y23.643
X31.709 Y24.092
X31.645 Y24.538
X31.559 Y24.98
X31.453 Y25.418
X31.325 Y25.85
X31.177 Y26.275
X31.01 Y26.693
X30.822 Y27.103
X30.615 Y27.503
X30.388 Y27.892
X30.142 Y28.269
X29.879 Y28.635
X29.599 Y28.988
X29.302 Y29.327
X28.99 Y29.651
X28.662 Y29.96
X28.32 Y30.254
X27.964 Y30.53
X27.595 Y30.788
X27.215 Y31.029
X26.823 Y31.251
X26.421 Y31.455
X26.01 Y31.64
X25.591 Y31.805
X25.165 Y31.95
X24.732 Y32.075
X24.294 Y32.178
X23.851 Y32.261
X23.405 Y32.323
X22.956 Y32.365
X22.506 Y32.386
X22.056
X21.606 Y32.365
X21.157 Y32.323
X20.711 Y32.259
X20.269 Y32.175
X19.831 Y32.071
X19.398 Y31.946
X18.971 Y31.802
X18.551 Y31.639
X18.139 Y31.457
X17.736 Y31.256
X17.343 Y31.036
X16.96 Y30.798
X16.589 Y30.543
X16.23 Y30.271
X15.883 Y29.983
X15.55 Y29.68
X15.231 Y29.363
X14.926 Y29.031
X14.637 Y28.685
X14.365 Y28.327
X14.109 Y27.956
X13.87 Y27.574
X13.649 Y27.182
X13.445 Y26.78
X13.259 Y26.37
X13.092 Y25.951
X12.944 Y25.526
X12.816 Y25.094
X12.709 Y24.657
X12.62 Y24.215
X12.552 Y23.77
X12.504 Y23.322
X12.475 Y22.872
X12.467 Y22.422
X12.478 Y21.971
X12.511 Y21.522
X12.564 Y21.075
X12.637 Y20.63
X12.73 Y20.19
X12.843 Y19.754
X12.975 Y19.323
X13.125 Y18.898
X13.295 Y18.481
X13.482 Y18.072
X13.689 Y17.671
X13.914 Y17.281
X14.156 Y16.901
X14.415 Y16.532
X14.689 Y16.175
X14.98 Y15.831
X15.285 Y15.5
X15.605 Y15.182
X15.938 Y14.88
X16.285 Y14.593
X16.645 Y14.322
X17.017 Y14.068
X17.4 Y13.83
X17.793 Y13.61
X18.195 Y13.407
X18.606 Y13.222
X19.024 Y13.055
X19.45 Y12.907
X19.882 Y12.78
X20.319 Y12.672
X20.761 Y12.584
X21.206 Y12.515
X21.654 Y12.466
X22.103 Y12.437
X22.553 Y12.427
X23.004 Y12.438
X23.453 Y12.469
X23.901 Y12.521
X24.345 Y12.592
X24.786 Y12.684
X25.223 Y12.794
X25.655 Y12.923
X26.08 Y13.071
X26.499 Y13.237
X26.91 Y13.421
X27.313 Y13.623
X27.706 Y13.843
X28.089 Y14.08
X28.462 Y14.333
X28.823 Y14.602
X29.173 Y14.885
X29.511 Y15.183
X29.836 Y15.495
X30.147 Y15.82
X30.445 Y16.159
X30.727 Y16.51
X30.994 Y16.873
X31.245 Y17.247
X31.481 Y17.631
X31.7 Y18.024
X31.903 Y18.426
X32.089 Y18.837
X32.257 Y19.254
X32.407 Y19.679
X32.539 Y20.11
X32.652 Y20.546
X32.746 Y20.986
X32.821 Y21.43
X32.878 Y21.877
X32.916 Y22.326
X32.935 Y22.776
Y23.227
X32.916 Y23.677
X32.877 Y24.125
X32.818 Y24.572
X32.74 Y25.016
X32.644 Y25.456
X32.529 Y25.891
X32.395 Y26.321
X32.244 Y26.746
X32.075 Y27.163
X31.888 Y27.573
X31.683 Y27.974
X31.461 Y28.366
X31.222 Y28.748
X30.967 Y29.119
X30.697 Y29.48
X30.412 Y29.829
X30.112 Y30.165
X29.799 Y30.489
X29.472 Y30.798
X29.132 Y31.093
X28.779 Y31.374
X28.415 Y31.638
X28.039 Y31.887
X27.654 Y32.121
X27.259 Y32.338
X26.856 Y32.538
X26.444 Y32.721
X26.025 Y32.887
X25.6 Y33.034
X25.168 Y33.163
X24.731 Y33.274
X24.291 Y33.366
X23.846 Y33.44
X23.399 Y33.496
X22.95 Y33.533
X22.5 Y33.552
X22.05
X21.6 Y33.533
X21.151 Y33.495
X20.704 Y33.438
X20.26 Y33.363
X19.819 Y33.269
X19.383 Y33.157
X18.952 Y33.028
X18.526 Y32.882
X18.106 Y32.718
X17.694 Y32.537
X17.289 Y32.339
X16.893 Y32.123
X16.507 Y31.892
X16.13 Y31.646
X15.763 Y31.384
X15.408 Y31.107
X15.063 Y30.817
X14.731 Y30.513
X14.411 Y30.196
X14.105 Y29.865
X13.813 Y29.522
X13.535 Y29.168
X13.272 Y28.802
X13.024 Y28.426
X12.791 Y28.041
X12.573 Y27.646
X12.372 Y27.243
X12.186 Y26.833
X12.018 Y26.415
X11.868 Y25.99
X11.735 Y25.56
X11.619 Y25.125
X11.521 Y24.685
X11.441 Y24.242
X11.379 Y23.796
X11.334 Y23.347
X11.307 Y22.898
X11.298 Y22.447
X11.308 Y21.997
X11.336 Y21.548
X11.383 Y21.1
X11.447 Y20.654
X11.53 Y20.211
X11.63 Y19.772
X11.747 Y19.337
X11.881 Y18.907
X12.033 Y18.483
X12.201 Y18.065
X12.386 Y17.654
X12.589 Y17.252
X12.807 Y16.858
X13.041 Y16.473
X13.29 Y16.098
X13.554 Y15.732
X13.832 Y15.378
X14.124 Y15.035
X14.429 Y14.703
X14.747 Y14.385
X15.078 Y14.08
X15.422 Y13.788
X15.777 Y13.511
X16.143 Y13.248
X16.519 Y13
X16.904 Y12.767
X17.298 Y12.549
X17.701 Y12.347
X18.111 Y12.161
X18.529 Y11.992
X18.953 Y11.841
X19.383 Y11.707
X19.818 Y11.59
X20.258 Y11.491
X20.7 Y11.409
X21.146 Y11.345
X21.594 Y11.298
X22.044 Y11.269
X22.494 Y11.258
X22.945 Y11.266
X23.394 Y11.292
X23.843 Y11.336
X24.289 Y11.398
X24.732 Y11.477
X25.172 Y11.574
X25.608 Y11.687
X26.039 Y11.818
X26.465 Y11.965
X26.884 Y12.129
X27.297 Y12.31
X27.702 Y12.507
X28.099 Y12.72
X28.487 Y12.948
X28.866 Y13.191
X29.236 Y13.448
X29.596 Y13.719
X29.945 Y14.004
X30.284 Y14.301
X30.61 Y14.612
X30.924 Y14.935
X31.225 Y15.269
X31.514 Y15.616
X31.788 Y15.973
X32.049 Y16.34
X32.296 Y16.716
X32.529 Y17.102
X32.747 Y17.496
X32.95 Y17.898
X33.138 Y18.308
X33.309 Y18.724
X33.464 Y19.147
X33.603 Y19.576
X33.725 Y20.01
X33.83 Y20.448
X33.919 Y20.889
X33.991 Y21.334
X34.046 Y21.781
X34.085 Y22.23
X34.106 Y22.68
X34.109 Y23.13
X34.094 Y23.58
X34.063 Y24.03
X34.013 Y24.477
X33.947 Y24.923
X33.864 Y25.365
X33.764 Y25.805
X33.647 Y26.24
X33.515 Y26.67
X33.365 Y27.095
X33.199 Y27.514
X33.016 Y27.926
X32.818 Y28.33
X32.604 Y28.727
X32.376 Y29.115
X32.132 Y29.494
X31.875 Y29.863
X31.603 Y30.223
X31.319 Y30.572
X31.021 Y30.91
X30.71 Y31.235
X30.386 Y31.549
X30.051 Y31.849
X29.704 Y32.137
X29.346 Y32.411
X28.979 Y32.671
X28.602 Y32.918
X28.216 Y33.15
X27.821 Y33.367
X27.418 Y33.569
X27.008 Y33.755
X26.591 Y33.926
X26.168 Y34.08
X25.739 Y34.218
X25.305 Y34.339
X24.867 Y34.444
X24.426 Y34.533
X23.981 Y34.606
X23.534 Y34.662
X23.086 Y34.701
X22.636 Y34.723
X22.185 Y34.727
X21.735 Y34.715
X21.285 Y34.685
X20.837 Y34.639
X20.391 Y34.576
X19.948 Y34.496
X19.508 Y34.401
X19.071 Y34.289
X18.639 Y34.162
X18.213 Y34.018
X17.792 Y33.857
X17.377 Y33.682
X16.969 Y33.49
X16.569 Y33.284
X16.176 Y33.063
X15.792 Y32.828
X15.416 Y32.579
X15.05 Y32.317
X14.694 Y32.041
X14.348 Y31.753
X14.014 Y31.451
X13.69 Y31.137
X13.379 Y30.812
X13.08 Y30.475
X12.794 Y30.127
X12.52 Y29.769
X12.26 Y29.402
X12.013 Y29.025
X11.78 Y28.64
X11.561 Y28.246
X11.357 Y27.844
X11.167 Y27.435
X10.994 Y27.02
X10.836 Y26.598
X10.693 Y26.171
X10.566 Y25.739
X10.455 Y25.302
X10.359 Y24.862
X10.279 Y24.419
X10.216 Y23.973
X10.169 Y23.525
X10.138 Y23.075
X10.124 Y22.625
X10.127 Y22.175
X10.146 Y21.725
X10.182 Y21.276
X10.234 Y20.828
X10.302 Y20.383
X10.386 Y19.94
X10.486 Y19.501
X10.601 Y19.066
X10.733 Y18.635
X10.88 Y18.209
X11.043 Y17.789
X11.221 Y17.376
X11.415 Y16.969
X11.623 Y16.569
X11.845 Y16.177
X12.081 Y15.794
X12.331 Y15.419
X12.594 Y15.053
X12.87 Y14.697
X13.159 Y14.352
X13.46 Y14.017
X13.774 Y13.694
X14.099 Y13.382
X14.436 Y13.083
X14.783 Y12.796
X15.14 Y12.521
X15.507 Y12.26
X15.882 Y12.011
X16.267 Y11.777
X16.66 Y11.556
X17.061 Y11.351
X17.469 Y11.16
X17.883 Y10.984
X18.304 Y10.824
X18.731 Y10.678
X19.162 Y10.549
X19.598 Y10.435
X20.037 Y10.336
X20.48 Y10.254
X20.926 Y10.187
X21.373 Y10.137
X21.823 Y10.103
X22.273 Y10.086
X22.723 Y10.085
X23.173 Y10.101
X23.623 Y10.132
X24.07 Y10.18
X24.516 Y10.244
X24.96 Y10.323
X25.4 Y10.418
X25.837 Y10.529
X26.269 Y10.656
X26.696 Y10.799
X27.118 Y10.956
X27.534 Y11.129
X27.944 Y11.316
X28.347 Y11.518
X28.742 Y11.733
X29.13 Y11.962
X29.51 Y12.205
X29.88 Y12.461
X30.242 Y12.729
X30.594 Y13.01
X30.936 Y13.304
X31.267 Y13.609
X31.587 Y13.926
X31.897 Y14.253
X32.194 Y14.591
X32.48 Y14.94
X32.754 Y15.297
X33.015 Y15.664
X33.263 Y16.04
X33.499 Y16.424
X33.72 Y16.816
X33.928 Y17.216
X34.122 Y17.623
X34.301 Y18.036
X34.466 Y18.455
X34.616 Y18.88
X34.751 Y19.309
X34.872 Y19.743
X34.978 Y20.181
X35.068 Y20.622
X35.143 Y21.067
X35.203 Y21.513
X35.246 Y21.962
X35.274 Y22.411
X35.286 Y22.861
X35.282 Y23.312
X35.263 Y23.762
X35.227 Y24.211
X35.177 Y24.659
X35.111 Y25.104
X35.029 Y25.547
X34.932 Y25.987
X34.82 Y26.423
X34.692 Y26.855
X34.549 Y27.282
X34.391 Y27.704
X34.219 Y28.12
X34.032 Y28.53
X33.831 Y28.933
X33.616 Y29.329
X33.388 Y29.717
X33.146 Y30.097
X32.891 Y30.469
X32.623 Y30.831
X32.342 Y31.183
X32.05 Y31.526
X31.745 Y31.858
X31.429 Y32.179
X31.103 Y32.489
X30.765 Y32.787
X30.418 Y33.074
X30.06 Y33.348
X29.694 Y33.61
X29.319 Y33.859
X28.935 Y34.095
X28.543 Y34.317
X28.143 Y34.525
X27.737 Y34.72
X27.324 Y34.9
X26.905 Y35.065
X26.481 Y35.217
X26.052 Y35.353
X25.618 Y35.476
X25.181 Y35.583
X24.74 Y35.675
X24.296 Y35.751
X23.85 Y35.812
X23.402 Y35.858
X22.952 Y35.889
X22.502 Y35.904
X22.052 Y35.903
X21.601 Y35.887
X21.152 Y35.856
X20.704 Y35.81
X20.258 Y35.749
X19.814 Y35.672
X19.373 Y35.581
X18.935 Y35.474
X18.501 Y35.352
X18.072 Y35.216
X17.648 Y35.065
X17.229 Y34.9
X16.815 Y34.721
X16.408 Y34.528
X16.008 Y34.322
X15.615 Y34.102
X15.229 Y33.869
X14.852 Y33.623
X14.483 Y33.364
X14.123 Y33.094
X13.772 Y32.811
X13.432 Y32.516
X13.101 Y32.21
X12.781 Y31.894
X12.471 Y31.566
X12.173 Y31.229
X11.886 Y30.882
X11.611 Y30.525
X11.348 Y30.159
X11.097 Y29.785
X10.859 Y29.402
X10.634 Y29.012
X10.423 Y28.615
X10.224 Y28.21
X10.04 Y27.799
X9.869 Y27.382
X9.712 Y26.96
X9.57 Y26.533
X9.441 Y26.101
X9.327 Y25.665
X9.228 Y25.226
X9.143 Y24.783
X9.074 Y24.338
X9.019 Y23.891
X8.979 Y23.443
X8.954 Y22.993
X8.944 Y22.543
X8.949 Y22.092
X8.969 Y21.642
X9.004 Y21.193
X9.054 Y20.745
X9.118 Y20.3
X9.198 Y19.856
X9.292 Y19.416
X9.401 Y18.979
X9.524 Y18.545
X9.662 Y18.117
X9.814 Y17.692
X9.98 Y17.274
X10.159 Y16.861
X10.353 Y16.454
X10.559 Y16.053
X10.779 Y15.66
X11.012 Y15.274
X11.257 Y14.897
X11.515 Y14.527
X11.785 Y14.167
X12.067 Y13.815
X12.36 Y13.474
X12.664 Y13.142
X12.98 Y12.82
X13.305 Y12.509
X13.641 Y12.209
X13.987 Y11.92
X14.342 Y11.643
X14.706 Y11.377
X15.079 Y11.124
X15.46 Y10.884
X15.848 Y10.656
X16.244 Y10.441
X16.647 Y10.24
X17.057 Y10.052
X17.472 Y9.878
X17.893 Y9.717
X18.319 Y9.57
X18.749 Y9.438
X19.184 Y9.32
X19.622 Y9.217
X20.064 Y9.128
X20.508 Y9.054
X20.955 Y8.994
X21.403 Y8.95
X21.852 Y8.92
X22.303 Y8.905
X22.753
X23.203 Y8.92
X23.653 Y8.949
X24.101 Y8.994
X24.548 Y9.053
X24.992 Y9.127
X25.434 Y9.215
X25.872 Y9.318
X26.307 Y9.435
X26.738 Y9.567
X27.164 Y9.712
X27.586 Y9.871
X28.002 Y10.044
X28.412 Y10.23
X28.816 Y10.429
X29.213 Y10.641
X29.603 Y10.866
X29.986 Y11.104
X30.361 Y11.354
X30.728 Y11.615
X31.086 Y11.889
X31.435 Y12.173
X31.775 Y12.469
X32.105 Y12.775
X32.426 Y13.091
X32.736 Y13.418
X33.035 Y13.754
X33.324 Y14.1
X33.602 Y14.455
X33.868 Y14.819
X34.122 Y15.19
X34.364 Y15.57
X34.595 Y15.957
X34.812 Y16.352
X35.018 Y16.753
X35.21 Y17.16
X35.389 Y17.573
X35.556 Y17.992
X35.708 Y18.415
X35.847 Y18.844
X35.972 Y19.277
X36.084 Y19.713
X36.181 Y20.153
X36.265 Y20.595
X36.334 Y21.041
X36.389 Y21.488
X36.43 Y21.936
X36.456 Y22.386
X36.468 Y22.836
X36.466 Y23.287
X36.449 Y23.737
X36.418 Y24.186
X36.372 Y24.634
X36.312 Y25.081
X36.238 Y25.525
X36.149 Y25.967
X36.047 Y26.405
X35.93 Y26.84
X35.8 Y27.272
X35.656 Y27.698
X35.498 Y28.12
X35.327 Y28.537
X35.143 Y28.948
X34.945 Y29.353
X34.735 Y29.751
X34.512 Y30.143
X34.277 Y30.527
X34.029 Y30.903
X33.77 Y31.271
X33.498 Y31.631
X33.216 Y31.982
X32.923 Y32.323
X32.618 Y32.656
X32.304 Y32.978
X31.979 Y33.29
X31.644 Y33.591
X31.3 Y33.882
X30.947 Y34.161
X30.585 Y34.43
X30.214 Y34.686
X29.836 Y34.93
X29.45 Y35.163
X29.057 Y35.383
X28.657 Y35.591
X28.251 Y35.785
X27.839 Y35.967
X27.421 Y36.136
X26.998 Y36.291
X26.571 Y36.432
X26.139 Y36.56
X25.703 Y36.675
X25.264 Y36.775
X24.822 Y36.862
X24.378 Y36.935
X23.931 Y36.994
X23.483 Y37.039
X23.034 Y37.07
X22.583 Y37.086
X22.133 Y37.089
X21.683 Y37.077
X21.233 Y37.051
X20.784 Y37.011
X20.337 Y36.957
X19.892 Y36.889
X19.449 Y36.807
X19.009 Y36.711
X18.572 Y36.602
X18.138 Y36.479
X17.709 Y36.343
X17.284 Y36.194
X16.864 Y36.031
X16.449 Y35.855
X16.04 Y35.667
X15.637 Y35.465
X15.241 Y35.252
X14.851 Y35.026
X14.468 Y34.788
X14.093 Y34.539
X13.726 Y34.278
X13.367 Y34.006
X13.017 Y33.722
X12.675 Y33.429
X12.343 Y33.125
X12.02 Y32.81
X11.708 Y32.486
X11.405 Y32.152
X11.113 Y31.809
X10.832 Y31.457
X10.561 Y31.097
X10.302 Y30.729
X10.054 Y30.353
X9.818 Y29.969
X9.594 Y29.578
X9.382 Y29.181
X9.182 Y28.777
X8.995 Y28.368
X8.82 Y27.952
X8.659 Y27.532
X8.51 Y27.107
X8.375 Y26.677
X8.252 Y26.244
X8.143 Y25.807
X8.048 Y25.366
X7.966 Y24.923
X7.897 Y24.478
X7.842 Y24.031
X7.801 Y23.583
X7.773 Y23.133
X7.76 Y22.683
X7.761 Y22.232
X7.775 Y21.782
X7.803 Y21.332
X7.845 Y20.884
X7.9 Y20.437
X7.969 Y19.992
X8.051 Y19.549
X8.147 Y19.109
X8.257 Y18.672
X8.379 Y18.238
X8.515 Y17.809
X8.664 Y17.384
X8.826 Y16.964
X9.001 Y16.548
X9.188 Y16.139
X9.388 Y15.735
X9.6 Y15.338
X9.824 Y14.947
X10.06 Y14.563
X10.307 Y14.187
X10.566 Y13.818
X10.835 Y13.457
X11.116 Y13.105
X11.407 Y12.761
X11.709 Y12.427
X12.021 Y12.102
X12.343 Y11.787
X12.674 Y11.481
X13.014 Y11.186
X13.363 Y10.901
X13.721 Y10.628
X14.087 Y10.365
X14.46 Y10.113
X14.841 Y9.873
X15.23 Y9.644
X15.625 Y9.428
X16.026 Y9.223
X16.434 Y9.032
X16.847 Y8.852
X17.265 Y8.686
X17.689 Y8.532
X18.117 Y8.391
X18.549 Y8.264
X18.984 Y8.149
X19.423 Y8.048
X19.865 Y7.96
X20.309 Y7.885
X20.755 Y7.824
X21.203 Y7.777
X21.653 Y7.743
X22.103 Y7.724
X22.553 Y7.718
X23.003 Y7.725
X23.453 Y7.747
X23.902 Y7.782
X24.35 Y7.83
X24.796 Y7.892
X25.241 Y7.967
X25.682 Y8.056
X26.121 Y8.158
X26.557 Y8.273
X26.988 Y8.401
X27.416 Y8.543
X27.839 Y8.697
X28.258 Y8.864
X28.671 Y9.043
X29.079 Y9.234
X29.48 Y9.438
X29.876 Y9.653
X30.265 Y9.88
X30.647 Y10.119
X31.022 Y10.368
X31.39 Y10.629
X31.749 Y10.9
X32.101 Y11.182
X32.443 Y11.474
X32.777 Y11.777
X33.102 Y12.089
X33.418 Y12.41
X33.724 Y12.741
X34.02 Y13.08
X34.306 Y13.428
X34.582 Y13.784
X34.847 Y14.148
X35.102 Y14.52
X35.345 Y14.899
X35.578 Y15.285
X35.798 Y15.677
X36.007 Y16.076
X36.205 Y16.481
X36.39 Y16.892
X36.563 Y17.308
X36.724 Y17.728
X36.872 Y18.154
X37.008 Y18.583
X37.131 Y19.016
X37.242 Y19.453
X37.34 Y19.893
X37.425 Y20.335
X37.496 Y20.78
X37.555 Y21.227
X37.6 Y21.675
X37.632 Y22.124
X37.65 Y22.574
X37.656 Y23.024
X37.648 Y23.475
X37.627 Y23.925
X37.592 Y24.374
X37.545 Y24.822
X37.484 Y25.268
X37.41 Y25.713
X37.323 Y26.155
X37.223 Y26.594
X37.11 Y27.03
X36.984 Y27.462
X36.846 Y27.891
X36.694 Y28.315
X36.531 Y28.735
X36.355 Y29.149
X36.166 Y29.559
X35.966 Y29.962
X35.754 Y30.36
X35.531 Y30.751
X35.296 Y31.135
X35.05 Y31.513
X34.793 Y31.882
X34.525 Y32.244
X34.246 Y32.598
X33.957 Y32.944
X33.658 Y33.28
X33.349 Y33.608
X33.031 Y33.927
X32.703 Y34.236
X32.367 Y34.535
X32.021 Y34.825
X31.668 Y35.104
X31.306 Y35.373
X30.937 Y35.631
X30.56 Y35.878
X30.177 Y36.114
X29.786 Y36.338
X29.389 Y36.551
X28.986 Y36.752
X28.577 Y36.941
X28.163 Y37.118
X27.744 Y37.283
X27.32 Y37.435
X26.892 Y37.576
X26.46 Y37.704
X26.025 Y37.819
X25.586 Y37.922
X25.144 Y38.011
X24.701 Y38.088
X24.255 Y38.151
X23.807 Y38.202
X23.358 Y38.24
X22.908 Y38.264
X22.458 Y38.276
X22.008 Y38.274
X21.557 Y38.26
X21.108 Y38.232
X20.659 Y38.192
X20.212 Y38.139
X19.766 Y38.073
X19.323 Y37.993
X18.882 Y37.901
X18.444 Y37.797
X18.009 Y37.679
X17.578 Y37.55
X17.15 Y37.408
X16.727 Y37.253
X16.308 Y37.087
X15.895 Y36.908
X15.486 Y36.718
X15.084 Y36.517
X14.687 Y36.304
X14.296 Y36.079
X13.912 Y35.844
X13.535 Y35.597
X13.166 Y35.34
X12.803 Y35.072
X12.449 Y34.794
X12.103 Y34.506
X11.765 Y34.208
X11.435 Y33.901
X11.115 Y33.584
X10.804 Y33.258
X10.502 Y32.924
X10.209 Y32.581
X9.927 Y32.231
X9.655 Y31.872
X9.393 Y31.505
X9.142 Y31.131
X8.901 Y30.751
X8.672 Y30.363
X8.453 Y29.969
X8.246 Y29.569
X8.05 Y29.163
X7.866 Y28.752
X7.694 Y28.336
X7.533 Y27.915
X7.385 Y27.49
X7.248 Y27.061
X7.124 Y26.628
X7.012 Y26.191
X6.913 Y25.752
X6.826 Y25.31
X6.752 Y24.866
X6.69 Y24.419
X6.641 Y23.972
X6.605 Y23.523
X6.582 Y23.073
X6.571 Y22.632
Y22.602
X6.593 Y22.152
X6.602 Y21.702
X6.626 Y21.252
X6.664 Y20.803
X6.715 Y20.356
X6.78 Y19.91
X6.858 Y19.466
X6.948 Y19.025
X7.051 Y18.587
X7.167 Y18.151
X7.295 Y17.72
X7.436 Y17.291
X7.588 Y16.868
X7.752 Y16.448
X7.929 Y16.034
X8.116 Y15.624
X8.315 Y15.22
X8.526 Y14.822
X8.748 Y14.43
X8.981 Y14.044
X9.224 Y13.665
X9.479 Y13.294
X9.743 Y12.929
X10.018 Y12.572
X10.303 Y12.223
X10.598 Y11.883
X10.902 Y11.55
X11.215 Y11.227
X11.537 Y10.912
X11.868 Y10.606
X12.208 Y10.31
X12.555 Y10.024
X12.911 Y9.748
X13.275 Y9.482
X13.645 Y9.226
X14.023 Y8.981
X14.408 Y8.746
X14.799 Y8.523
X15.196 Y8.31
X15.599 Y8.109
X16.008 Y7.92
X16.422 Y7.742
X16.84 Y7.575
X17.263 Y7.421
X17.691 Y7.278
X18.122 Y7.148
X18.557 Y7.03
X18.994 Y6.924
X19.435 Y6.831
X19.878 Y6.75
X20.323 Y6.681
X20.77 Y6.626
X21.219 Y6.583
X21.671 Y6.552
X21.698 Y6.551
X22.602 Y6.55
X23.052 Y6.572
X23.503 Y6.582
X23.952 Y6.608
X24.401 Y6.649
X24.848 Y6.705
X25.293 Y6.774
X25.736 Y6.856
X26.176 Y6.951
X26.614 Y7.058
X27.048 Y7.178
X27.478 Y7.311
X27.905 Y7.455
X28.328 Y7.611
X28.746 Y7.779
X29.159 Y7.958
X29.567 Y8.149
X29.97 Y8.35
X30.367 Y8.563
X30.757 Y8.787
X31.142 Y9.022
X31.52 Y9.267
X31.891 Y9.523
X32.255 Y9.788
X32.611 Y10.064
X32.96 Y10.349
X33.3 Y10.644
X33.633 Y10.947
X33.957 Y11.26
X34.273 Y11.582
X34.58 Y11.911
X34.877 Y12.249
X35.166 Y12.596
X35.444 Y12.949
X35.713 Y13.311
X35.972 Y13.679
X36.221 Y14.055
X36.459 Y14.437
X36.687 Y14.826
X36.904 Y15.22
X37.111 Y15.621
X37.306 Y16.027
X37.491 Y16.437
X37.664 Y16.853
X37.826 Y17.274
X37.976 Y17.698
X38.115 Y18.127
X38.242 Y18.559
X38.356 Y18.995
X38.451 Y19.397
X38.462 Y19.451
X38.468 Y19.506
X38.47 Y19.562
Y25.262
X38.448 Y25.712
X38.417 Y26.161
X38.359 Y26.608
X38.277 Y27.051
X38.176 Y27.49
X38.058 Y27.924
X37.924 Y28.355
X37.777 Y28.78
X37.616 Y29.201
X37.443 Y29.617
X37.257 Y30.027
X37.06 Y30.432
X36.852 Y30.832
X36.632 Y31.225
X36.401 Y31.612
X36.16 Y31.992
X35.908 Y32.366
X35.646 Y32.732
X35.374 Y33.091
X35.093 Y33.443
X34.802 Y33.786
X34.501 Y34.122
X34.192 Y34.449
X33.874 Y34.768
X33.547 Y35.078
X33.212 Y35.379
X32.869 Y35.671
X32.517 Y35.953
X32.159 Y36.226
X31.793 Y36.488
X31.419 Y36.74
X31.04 Y36.982
X30.653 Y37.214
X30.261 Y37.435
X29.863 Y37.646
X29.459 Y37.845
X29.05 Y38.034
X28.636 Y38.211
X28.217 Y38.378
X28.166 Y38.396
X28.086 Y38.42
X28.003 Y38.435
X27.919 Y38.44
X21.682 Y38.449
X17.795
X17.345 Y38.426
X17.121 Y38.399
X16.677 Y38.326
X16.24 Y38.217
X15.81 Y38.082
X15.388 Y37.925
X14.973 Y37.75
X14.565 Y37.559
X14.163 Y37.355
X13.769 Y37.137
X13.382 Y36.907
X13.001 Y36.666
X12.628 Y36.414
X12.262 Y36.152
X11.903 Y35.88
X11.551 Y35.598
X11.208 Y35.306
X10.872 Y35.006
X10.545 Y34.697
X10.226 Y34.379
X9.915 Y34.053
X9.613 Y33.718
X9.32 Y33.376
X9.036 Y33.027
X8.762 Y32.669
X8.497 Y32.305
X8.242 Y31.933
X7.997 Y31.555
X7.763 Y31.171
X7.538 Y30.78
X7.324 Y30.384
X7.121 Y29.982
X6.928 Y29.575
X6.745 Y29.163
X6.634 Y28.893
X6.604 Y28.804
X6.586 Y28.713
X6.58 Y28.619
X6.571 Y22.632
Y22.631
G3 X7.177 Y22.538 I0.31 J0
G1 X7.355 Y23.103
G3 X6.794 Y23.356 I-0.296 J0.093
X6.571 Y22.602 I1.359 J-0.811
G1 X6.57 Y21.579
Y17.795
Y17.488
X6.593 Y17.038
X6.64 Y16.662
X6.732 Y16.221
X6.857 Y15.788
X7.008 Y15.364
X7.179 Y14.947
X7.368 Y14.539
X7.573 Y14.137
X7.79 Y13.743
X8.021 Y13.356
X8.262 Y12.975
X8.515 Y12.602
X8.777 Y12.237
X9.05 Y11.878
X9.333 Y11.527
X9.625 Y11.184
X9.926 Y10.849
X10.236 Y10.522
X10.554 Y10.204
X10.881 Y9.893
X11.215 Y9.592
X11.558 Y9.299
X11.908 Y9.016
X12.265 Y8.742
X12.63 Y8.477
X13.001 Y8.222
X13.379 Y7.977
X13.763 Y7.742
X14.153 Y7.517
X14.549 Y7.302
X14.951 Y7.098
X15.358 Y6.905
X15.77 Y6.722
X16.032 Y6.614
X16.121 Y6.584
X16.213 Y6.565
X16.307 Y6.559
X21.698 Y6.551
X21.699
G3 X21.699 Y7.171 I0 J0.31
X21.699 Y6.551 I0 J-0.31
X21.853 Y6.592 I0 J0.31
G1 X22.162 Y6.77
G3 X22.318 Y7.038 I-0.154 J0.269
G1 Y7.039
G3 X21.698 Y7.039 I-0.31 J0
X21.849 Y6.772 I0.31 J0
X22.602 Y6.55 I0.811 J1.359
G1 X23.625 Y6.549
X27.205
X27.614 Y6.55
X28.061 Y6.572
X28.445 Y6.623
X28.885 Y6.717
X29.317 Y6.844
X29.741 Y6.996
X30.158 Y7.168
X30.566 Y7.358
X30.968 Y7.562
X31.362 Y7.78
X31.75 Y8.009
X32.13 Y8.25
X32.504 Y8.502
X32.871 Y8.763
X33.23 Y9.035
X33.582 Y9.316
X33.926 Y9.606
X34.263 Y9.905
X34.592 Y10.213
X34.913 Y10.529
X35.226 Y10.853
X35.531 Y11.185
X35.827 Y11.524
X36.115 Y11.871
X36.393 Y12.225
X36.662 Y12.586
X36.922 Y12.954
X37.173 Y13.328
X37.414 Y13.709
X37.645 Y14.095
X37.866 Y14.488
X38.077 Y14.886
X38.278 Y15.289
X38.401 Y15.552
X38.438 Y15.65
X38.461 Y15.753
X38.469 Y15.857
X38.47 Y17.283
Y19.562
G3 X38.366 Y19.794 I-0.31 J0
G2 X38.262 Y20.021 I0.206 J0.232
G1 X38.258 Y20.287
X38.205 Y24.346
X38.21 Y24.402
X38.224 Y24.457
X38.249 Y24.508
G3 X38.47 Y25.262 I-1.36 J0.809
G1 Y28.126
X38.469 Y28.535
X38.467 Y28.944
X38.444 Y29.37
X38.399 Y29.707
X38.31 Y30.116
X38.179 Y30.547
X38.019 Y30.968
X37.836 Y31.38
X37.634 Y31.782
X37.417 Y32.177
X37.185 Y32.563
X36.942 Y32.942
X36.686 Y33.313
X36.421 Y33.677
X36.145 Y34.033
X35.859 Y34.381
X35.565 Y34.722
X35.261 Y35.055
X34.949 Y35.38
X34.629 Y35.697
X34.301 Y36.006
X33.965 Y36.306
X33.621 Y36.597
X33.271 Y36.879
X32.913 Y37.153
X32.548 Y37.417
X32.176 Y37.672
X31.798 Y37.917
X31.414 Y38.152
X31.111 Y38.327
X31.006 Y38.377
X30.894 Y38.41
X30.779 Y38.424
X30.581 Y38.432
X30.479 Y38.435
X30.172 Y38.437
X27.919 Y38.44
X27.133 Y38.441
X18.58 Y38.448
X17.795 Y38.449
X16.976 Y38.448
X15.544 Y38.445
X15.238 Y38.443
X15.135 Y38.441
X14.931 Y38.436
X14.543 Y38.408
X14.26 Y38.363
X13.916 Y38.281
X13.5 Y38.145
X13.084 Y37.972
X12.681 Y37.772
X12.288 Y37.55
X11.906 Y37.312
X11.533 Y37.06
X11.169 Y36.794
X10.813 Y36.518
X10.466 Y36.231
X10.127 Y35.934
X9.796 Y35.628
X9.474 Y35.314
X9.159 Y34.991
X8.853 Y34.661
X8.556 Y34.322
X8.267 Y33.977
X7.987 Y33.624
X7.716 Y33.264
X7.454 Y32.898
X7.201 Y32.525
X6.958 Y32.146
X6.719 Y31.753
X6.67 Y31.649
X6.638 Y31.538
X6.623 Y31.424
X6.588 Y30.581
X6.585 Y30.479
X6.582 Y30.172
X6.58 Y28.619
G3 X7.15 Y28.461 I0.31 J0.01
G1 X7.188 Y28.519 Z-0.992
X7.223 Y28.574 Z-0.969
X7.255 Y28.623 Z-0.932
X7.282 Y28.664 Z-0.883
X7.302 Y28.695 Z-0.825
X7.314 Y28.715 Z-0.759
X7.319 Y28.721 Z-0.69
G0 Z2.5
X6.95 Y18.508
Z-0.38
G1 Z-0.69 F1000
X6.946 Y18.501 Z-0.759
X6.934 Y18.482 Z-0.825
X6.915 Y18.45 Z-0.883
X6.89 Y18.408 Z-0.932
X6.86 Y18.357 Z-0.969
X6.827 Y18.301 Z-0.992
X6.792 Y18.242 Z-1
G3 X6.57 Y17.488 I1.361 J-0.808
G1 X6.571 Y16.67
X6.574 Y15.544
X6.577 Y15.238
X6.578 Y15.135
X6.587 Y14.726
X6.615 Y14.358
X6.658 Y14.076
X6.737 Y13.748
X6.867 Y13.351
X7.04 Y12.935
X7.242 Y12.532
X7.465 Y12.141
X7.706 Y11.761
X7.962 Y11.39
X8.23 Y11.028
X8.51 Y10.675
X8.8 Y10.331
X9.1 Y9.995
X9.409 Y9.667
X9.726 Y9.347
X10.052 Y9.036
X10.385 Y8.733
X10.726 Y8.438
X11.074 Y8.152
X11.429 Y7.875
X11.791 Y7.607
X12.16 Y7.348
X12.534 Y7.098
X12.915 Y6.858
X13.165 Y6.708
X13.273 Y6.656
X13.387 Y6.621
X13.506 Y6.606
X14.419 Y6.567
X14.521 Y6.564
X14.828 Y6.561
X16.307 Y6.559
G3 X16.465 Y7.129 I-0.01 J0.31
G1 X16.407 Y7.167 Z-0.992
X16.352 Y7.202 Z-0.969
X16.302 Y7.234 Z-0.932
X16.261 Y7.261 Z-0.883
X16.23 Y7.281 Z-0.825
X16.211 Y7.294 Z-0.759
X16.204 Y7.298 Z-0.69
G0 Z2.5
X26.594 Y6.929
Z-0.38
G1 Z-0.69 F1000
X26.601 Y6.925 Z-0.759
X26.621 Y6.913 Z-0.825
X26.652 Y6.894 Z-0.883
X26.695 Y6.869 Z-0.932
X26.745 Y6.839 Z-0.969
X26.801 Y6.806 Z-0.992
X26.861 Y6.771 Z-1
G3 X27.614 Y6.55 I0.808 J1.361
G1 X28.535 Y6.551
X29.456 Y6.553
X29.762 Y6.555
X29.865 Y6.557
X30.274 Y6.566
X30.376 Y6.568
X30.732 Y6.595
X31.016 Y6.639
X31.346 Y6.718
X31.749 Y6.849
X32.164 Y7.023
X32.567 Y7.224
X32.959 Y7.447
X33.34 Y7.686
X33.712 Y7.941
X34.074 Y8.208
X34.429 Y8.486
X34.775 Y8.775
X35.113 Y9.072
X35.443 Y9.379
X35.765 Y9.694
X36.079 Y10.017
X36.385 Y10.347
X36.683 Y10.685
X36.973 Y11.03
X37.254 Y11.382
X37.526 Y11.741
X37.79 Y12.106
X38.045 Y12.477
X38.296 Y12.863
X38.352 Y12.974
X38.389 Y13.094
X38.404 Y13.217
X38.45 Y14.521
X38.46 Y14.828
X38.468 Y15.544
X38.469 Y15.857
G3 X37.925 Y16.05 I-0.31 J-0.01
G1 X37.896 Y16.017
X30.198 Y7.142
X30.145 Y7.081
G3 X30.376 Y6.568 I0.234 J-0.203
G1 X31.195 Y6.588
X31.501 Y6.597
X31.808 Y6.608
X31.911 Y6.613
X32.217 Y6.631
X32.32 Y6.638
X32.524 Y6.653
X32.627 Y6.661
X32.831 Y6.679
X33.174 Y6.728
X33.428 Y6.786
X33.723 Y6.878
X34.076 Y7.02
X34.478 Y7.222
X34.865 Y7.453
X35.237 Y7.707
X35.596 Y7.979
X35.944 Y8.265
X36.281 Y8.564
X36.609 Y8.873
X36.928 Y9.191
X37.238 Y9.518
X37.539 Y9.853
X37.832 Y10.195
X37.991 Y10.391
X38.055 Y10.482
X38.103 Y10.582
X38.136 Y10.689
G3 X37.646 Y10.994 I-0.305 J0.057
G1 X37.612 Y10.969
X32.629 Y7.237
G3 X32.831 Y6.679 I0.186 J-0.248
G1 X32.933 Y6.688
X33.24 Y6.72
X33.547 Y6.756
X33.649 Y6.771
X33.854 Y6.805
X33.956 Y6.822
X34.57 Y6.938
X34.672 Y6.958
X34.775 Y6.98
X34.877 Y7.008
X34.979 Y7.037
X35.593 Y7.228
X35.678 Y7.259
X35.798 Y7.307
X35.926 Y7.361
X36.002 Y7.397
X36.309 Y7.556
X36.327 Y7.566
X36.411 Y7.616
X36.497 Y7.668
X36.646 Y7.77
X36.718 Y7.829
X36.923 Y8
X37.008 Y8.077
X37.23 Y8.338
X37.263 Y8.384
X37.335 Y8.486
X37.393 Y8.589
X37.448 Y8.691
X37.659 Y9.1
X37.705 Y9.202
X37.744 Y9.305
X37.782 Y9.407
X37.887 Y9.714
X37.982 Y10.021
X38.008 Y10.123
X38.147 Y10.737
X38.197 Y11.044
X38.212 Y11.146
X38.252 Y11.419
X38.298 Y11.76
X38.328 Y12.067
X38.365 Y12.476
X38.388 Y12.783
X38.404 Y13.217
G0 Z2.5
X38.092 Y27.923
Z-0.38
G1 Z-0.69 F1000
X38.096 Y27.929 Z-0.759
X38.107 Y27.949 Z-0.825
X38.126 Y27.981 Z-0.883
X38.151 Y28.023 Z-0.932
X38.181 Y28.074 Z-0.969
X38.214 Y28.13 Z-0.992
X38.249 Y28.19 Z-1
G3 X38.467 Y28.944 I-1.363 J0.803
G1 X38.464 Y29.762
X38.463 Y29.865
X38.459 Y30.172
X38.433 Y31.195
X38.423 Y31.501
X38.418 Y31.604
X38.378 Y31.989
X38.325 Y32.266
X38.238 Y32.586
X38.098 Y32.973
X37.911 Y33.383
X37.697 Y33.779
X37.46 Y34.162
X37.207 Y34.535
X36.939 Y34.897
X36.658 Y35.249
X36.367 Y35.593
X36.066 Y35.928
X35.755 Y36.254
X35.436 Y36.572
X35.109 Y36.882
X34.775 Y37.183
X34.433 Y37.477
X34.084 Y37.761
X33.727 Y38.037
X33.583 Y38.143
X33.478 Y38.207
X33.364 Y38.253
X33.243 Y38.278
G3 X33.017 Y37.732 I-0.027 J-0.309
G1 X33.07 Y37.688 Z-0.992
X33.121 Y37.646 Z-0.969
X33.166 Y37.608 Z-0.932
X33.203 Y37.576 Z-0.883
X33.232 Y37.553 Z-0.825
X33.249 Y37.538 Z-0.759
X33.255 Y37.533 Z-0.69
G0 Z2.5
X38.088 Y30.567
Z-0.38
G1 Z-0.69 F1000
X38.092 Y30.573 Z-0.759
X38.103 Y30.594 Z-0.825
X38.12 Y30.626 Z-0.883
X38.143 Y30.67 Z-0.932
X38.17 Y30.722 Z-0.969
X38.201 Y30.779 Z-0.992
X38.234 Y30.84 Z-1
G3 X38.418 Y31.604 I-1.398 J0.742
G1 X38.407 Y31.808
X38.401 Y31.911
X38.337 Y32.831
X38.329 Y32.933
X38.292 Y33.24
X38.147 Y34.263
X38.096 Y34.468
X37.972 Y34.88
X37.853 Y35.186
X37.676 Y35.549
X37.447 Y35.937
X37.191 Y36.307
X36.915 Y36.663
X36.622 Y37.005
X36.316 Y37.336
X36.193 Y37.459
X36.138 Y37.509
X36.079 Y37.553
X36.015 Y37.591
G3 X35.622 Y37.141 I-0.134 J-0.28
G1 X37.534 Y34.234
G3 X38.096 Y34.468 I0.259 J0.17
G1 X38.071 Y34.57
X37.993 Y34.877
X37.888 Y35.286
X37.787 Y35.593
X37.749 Y35.695
X37.709 Y35.798
X37.667 Y35.9
X37.639 Y35.96
X37.618 Y36.002
X37.462 Y36.309
X37.434 Y36.353
X37.329 Y36.514
X37.262 Y36.616
X37.23 Y36.663
X37.005 Y36.923
X36.923 Y37.005
X36.653 Y37.23
X36.507 Y37.332
X36.411 Y37.384
X36.002 Y37.598
X35.9 Y37.65
X35.798 Y37.696
X35.286 Y37.874
X34.979 Y37.964
X34.877 Y37.99
X34.57 Y38.062
X34.263 Y38.132
X33.649 Y38.226
X33.547 Y38.241
X33.24 Y38.279
X32.831 Y38.319
X32.627 Y38.338
X32.524 Y38.346
X32.217 Y38.363
X30.779 Y38.424
G3 X30.598 Y37.861 I-0.002 J-0.31
G1 X30.655 Y37.821 Z-0.992
X30.708 Y37.783 Z-0.969
X30.756 Y37.749 Z-0.932
X30.796 Y37.721 Z-0.883
X30.827 Y37.7 Z-0.825
X30.845 Y37.686 Z-0.759
X30.852 Y37.682 Z-0.69
G0 Z2.5
X15.96 Y38.081
Z-0.38
G1 Z-0.69 F1000
X15.953 Y38.085 Z-0.759
X15.933 Y38.096 Z-0.825
X15.901 Y38.115 Z-0.883
X15.858 Y38.139 Z-0.932
X15.807 Y38.167 Z-0.969
X15.749 Y38.2 Z-0.992
X15.689 Y38.233 Z-1
G3 X14.931 Y38.436 I-0.776 J-1.379
G1 X13.703 Y38.407
X13.499 Y38.401
X13.396 Y38.397
X13.192 Y38.388
X13.089 Y38.383
X12.783 Y38.364
X12.476 Y38.343
X12.117 Y38.295
X11.864 Y38.24
X11.568 Y38.15
X11.214 Y38.01
X10.809 Y37.811
X10.421 Y37.583
X10.047 Y37.331
X9.686 Y37.062
X9.337 Y36.777
X8.998 Y36.481
X8.669 Y36.173
X8.349 Y35.856
X8.039 Y35.53
X7.737 Y35.195
X7.444 Y34.853
X7.159 Y34.504
X6.985 Y34.278
X6.919 Y34.176
X6.87 Y34.064
X6.842 Y33.946
G3 X7.339 Y33.664 I0.308 J-0.036
G1 X7.385 Y33.699
X12.671 Y37.785
X12.675 Y37.788
G3 X12.476 Y38.343 I-0.19 J0.245
G1 X12.373 Y38.335
X12.067 Y38.306
X11.76 Y38.275
X11.453 Y38.236
X11.351 Y38.221
X11.146 Y38.19
X11.044 Y38.174
X10.737 Y38.123
X10.328 Y38.033
X10.225 Y38.009
X10.123 Y37.985
X10.021 Y37.958
X9.714 Y37.864
X9.407 Y37.759
X9.357 Y37.741
X9.1 Y37.631
X8.998 Y37.584
X8.691 Y37.419
X8.589 Y37.358
X8.546 Y37.332
X8.384 Y37.216
X8.282 Y37.136
X8.15 Y37.025
X8.077 Y36.96
X8.038 Y36.923
X7.975 Y36.856
X7.859 Y36.718
X7.779 Y36.616
X7.668 Y36.449
X7.646 Y36.411
X7.433 Y36.002
X7.383 Y35.9
X7.335 Y35.798
X7.295 Y35.695
X7.152 Y35.286
X7.054 Y34.961
X7.034 Y34.877
X6.891 Y34.263
X6.796 Y33.649
X6.782 Y33.547
X6.743 Y33.24
X6.712 Y32.933
X6.684 Y32.627
X6.676 Y32.524
X6.657 Y32.217
X6.623 Y31.424
G3 X7.187 Y31.242 I0.31 J-0.002
G1 X7.226 Y31.299 Z-0.992
X7.264 Y31.352 Z-0.969
X7.298 Y31.4 Z-0.932
X7.327 Y31.44 Z-0.883
X7.348 Y31.47 Z-0.825
X7.361 Y31.489 Z-0.759
X7.366 Y31.495 Z-0.69
G0 Z2.5
X6.942 Y15.755
Z-0.38
G1 Z-0.69 F1000
X6.938 Y15.748 Z-0.759
X6.927 Y15.728 Z-0.825
X6.909 Y15.696 Z-0.883
X6.885 Y15.653 Z-0.932
X6.856 Y15.602 Z-0.969
X6.824 Y15.545 Z-0.992
X6.79 Y15.485 Z-1
G3 X6.587 Y14.726 I1.379 J-0.776
G1 X6.609 Y13.805
X6.618 Y13.499
X6.63 Y13.192
X6.635 Y13.089
X6.654 Y12.783
X6.675 Y12.476
X6.684 Y12.373
X6.693 Y12.271
X6.737 Y11.951
X6.793 Y11.702
X6.882 Y11.412
X7.021 Y11.065
X7.221 Y10.661
X7.452 Y10.275
X7.706 Y9.903
X7.978 Y9.544
X8.265 Y9.197
X8.565 Y8.861
X8.875 Y8.534
X9.195 Y8.217
X9.524 Y7.909
X9.861 Y7.61
X10.206 Y7.32
X10.558 Y7.039
X10.627 Y6.986
X10.721 Y6.925
X10.823 Y6.88
X10.931 Y6.851
G3 X11.223 Y7.347 I0.047 J0.306
G1 X11.194 Y7.384
X7.247 Y12.478
G3 X6.693 Y12.271 I-0.245 J-0.19
G1 X6.702 Y12.169
X6.711 Y12.067
X6.743 Y11.76
X6.78 Y11.453
X6.795 Y11.351
X6.842 Y11.044
X6.892 Y10.737
X6.959 Y10.43
X6.982 Y10.328
X7.03 Y10.123
X7.056 Y10.021
X7.149 Y9.714
X7.259 Y9.384
X7.292 Y9.305
X7.379 Y9.1
X7.426 Y8.998
X7.588 Y8.691
X7.648 Y8.589
X7.668 Y8.557
X7.787 Y8.384
X7.866 Y8.282
X7.975 Y8.152
X8.04 Y8.077
X8.077 Y8.035
X8.139 Y7.975
X8.282 Y7.852
X8.385 Y7.77
X8.531 Y7.668
X8.589 Y7.636
X8.793 Y7.528
X8.998 Y7.422
X9.115 Y7.361
X9.202 Y7.317
X9.367 Y7.259
X9.714 Y7.145
X10.021 Y7.05
X10.123 Y7.022
X10.225 Y6.995
X10.328 Y6.97
X10.404 Y6.952
X10.737 Y6.887
X11.044 Y6.83
X11.146 Y6.812
X11.351 Y6.779
X11.453 Y6.763
X11.76 Y6.725
X12.067 Y6.693
X12.373 Y6.664
X12.476 Y6.656
X12.783 Y6.637
X13.506 Y6.606
G3 X13.818 Y6.902 I0.002 J0.31
G1 Y6.916
X13.805 Y6.969 Z-0.992
X13.792 Y7.019 Z-0.975
X13.78 Y7.066 Z-0.949
X13.748 Y7.101 Z-0.911
X13.722 Y7.13 Z-0.863
X13.703 Y7.152 Z-0.81
X13.691 Y7.165 Z-0.751
X13.687 Y7.169 Z-0.69
G0 Z2.5
X35.053 Y7.271
Z-0.28
G1 Z-0.59 F1000
X35.061 Y7.272 Z-0.659
X35.084 Y7.275 Z-0.725
X35.12 Y7.281 Z-0.783
X35.168 Y7.289 Z-0.832
X35.226 Y7.298 Z-0.869
X35.291 Y7.309 Z-0.892
X35.359 Y7.32 Z-0.9
G3 X36.923 Y8 I-0.546 J3.392
G1 X37.008 Y8.077
X37.23 Y8.338
X37.263 Y8.384
X37.335 Y8.486
X37.393 Y8.589
G3 X37.265 Y9 I-0.277 J0.139
G1 X37.213 Y9.013 Z-0.895
X37.163 Y9.026 Z-0.881
X37.116 Y9.038 Z-0.858
X37.066 Y9.025 Z-0.82
X37.024 Y9.015 Z-0.771
X36.993 Y9.007 Z-0.716
X36.974 Y9.002 Z-0.654
X36.968 Y9.001 Z-0.59
G0 Z2.5
X35.053 Y7.271
Z-0.18
G1 Z-0.49 F1000
X35.061 Y7.272 Z-0.559
X35.084 Y7.275 Z-0.625
X35.12 Y7.281 Z-0.683
X35.168 Y7.289 Z-0.732
X35.226 Y7.298 Z-0.769
X35.291 Y7.309 Z-0.792
X35.359 Y7.32 Z-0.8
G3 X36.923 Y8 I-0.546 J3.392
G1 X37.009 Y8.077
X37.23 Y8.338
X37.263 Y8.384
X37.336 Y8.486
X37.393 Y8.589
G3 X37.265 Y9 I-0.277 J0.139
G1 X37.213 Y9.013 Z-0.795
X37.163 Y9.026 Z-0.781
X37.116 Y9.038 Z-0.758
X37.066 Y9.025 Z-0.72
X37.024 Y9.015 Z-0.672
X36.993 Y9.007 Z-0.616
X36.974 Y9.002 Z-0.554
X36.968 Y9 Z-0.49
G0 Z2.5
X7.714 Y8.798
Z-0.08
G1 Z-0.39 F1000
X7.718 Y8.791 Z-0.459
X7.73 Y8.772 Z-0.525
X7.75 Y8.741 Z-0.583
X7.776 Y8.699 Z-0.632
X7.807 Y8.649 Z-0.669
X7.842 Y8.594 Z-0.692
X7.879 Y8.535 Z-0.7
G3 X9.115 Y7.361 I2.91 J1.827
G1 X9.202 Y7.317
X9.305 Y7.281
G3 X9.643 Y7.766 I0.093 J0.296
G1 X9.601 Y7.821 Z-0.692
X9.561 Y7.873 Z-0.669
X9.525 Y7.919 Z-0.632
X9.495 Y7.958 Z-0.583
X9.472 Y7.987 Z-0.525
X9.458 Y8.005 Z-0.459
X9.453 Y8.011 Z-0.39
G0 Z2.5
X35.053 Y7.271
Z-0.08
G1 Z-0.39 F1000
X35.061 Y7.272 Z-0.459
X35.084 Y7.275 Z-0.525
X35.12 Y7.281 Z-0.583
X35.168 Y7.289 Z-0.632
X35.226 Y7.298 Z-0.669
X35.291 Y7.309 Z-0.692
X35.359 Y7.32 Z-0.7
G3 X36.923 Y8 I-0.546 J3.392
G1 X37.009 Y8.077
X37.23 Y8.338
X37.263 Y8.384
X37.336 Y8.486
X37.393 Y8.589
G3 X37.265 Y8.999 I-0.277 J0.139
G1 X37.213 Y9.013 Z-0.695
X37.163 Y9.026 Z-0.681
X37.116 Y9.038 Z-0.658
X37.066 Y9.025 Z-0.62
X37.024 Y9.014 Z-0.572
X36.993 Y9.007 Z-0.516
X36.974 Y9.002 Z-0.454
X36.968 Y9 Z-0.39
G0 Z2.5
X7.296 Y9.315
Z0.02
G1 Z-0.29 F1000
X7.299 Y9.308 Z-0.359
X7.309 Y9.287 Z-0.425
X7.324 Y9.253 Z-0.483
X7.344 Y9.208 Z-0.532
X7.368 Y9.155 Z-0.569
X7.395 Y9.095 Z-0.592
X7.423 Y9.032 Z-0.6
G3 X8.486 Y7.699 I3.134 J1.409
G1 X8.531 Y7.668
X8.589 Y7.635
X8.691 Y7.582
G3 X8.979 Y8.131 I0.144 J0.275
X8.844 Y8.166 I-0.144 J-0.275
G1 X8.799 Y8.162
X8.756 Y8.147
X8.718 Y8.123
X8.687 Y8.09
X8.665 Y8.05
G3 X8.689 Y7.769 I0.287 J-0.118
X9.114 Y7.361 I1.008 J0.627
G1 X9.202 Y7.316
X9.367 Y7.259
X9.714 Y7.142
X10.021 Y7.047
X10.123 Y7.02
X10.328 Y6.97
X10.404 Y6.952
X10.737 Y6.885
X11.044 Y6.827
X11.146 Y6.81
X11.248 Y6.794
G3 X11.491 Y7.334 I0.037 J0.308
G1 X11.439 Y7.379 Z-0.592
X11.39 Y7.423 Z-0.569
X11.346 Y7.462 Z-0.532
X11.309 Y7.495 Z-0.483
X11.282 Y7.519 Z-0.425
X11.265 Y7.534 Z-0.359
X11.259 Y7.539 Z-0.29
G0 Z2.5
X35.053 Y7.271
Z0.02
G1 Z-0.29 F1000
X35.061 Y7.272 Z-0.359
X35.084 Y7.275 Z-0.425
X35.12 Y7.281 Z-0.483
X35.168 Y7.289 Z-0.532
X35.226 Y7.298 Z-0.569
X35.291 Y7.309 Z-0.592
X35.359 Y7.32 Z-0.6
G3 X36.923 Y8 I-0.546 J3.392
G1 X37.009 Y8.077
X37.23 Y8.338
X37.264 Y8.384
X37.336 Y8.486
X37.393 Y8.589
G0 Z2.5
X37.479 Y35.889
Z0.02
G1 Z-0.29 F1000
X37.477 Y35.896 Z-0.359
X37.471 Y35.919 Z-0.425
X37.462 Y35.954 Z-0.483
X37.45 Y36.002 Z-0.532
X37.435 Y36.059 Z-0.569
X37.419 Y36.122 Z-0.592
X37.402 Y36.189 Z-0.6
G3 X36.991 Y36.936 I-1.664 J-0.428
G1 X36.923 Y37.005
X36.898 Y37.025
G3 X36.471 Y36.98 I-0.19 J-0.245
G1 X36.447 Y36.931 Z-0.595
X36.425 Y36.885 Z-0.581
X36.404 Y36.841 Z-0.558
X36.401 Y36.809 Z-0.537
X36.398 Y36.78 Z-0.512
X36.404 Y36.741 Z-0.464
X36.408 Y36.712 Z-0.41
X36.411 Y36.695 Z-0.351
X36.412 Y36.688 Z-0.29
G0 Z2.5
X7.298 Y9.316
Z0.12
G1 Z-0.19 F1000
X7.301 Y9.309 Z-0.259
X7.311 Y9.288 Z-0.325
X7.326 Y9.254 Z-0.383
X7.346 Y9.209 Z-0.432
X7.37 Y9.156 Z-0.469
X7.397 Y9.096 Z-0.492
X7.425 Y9.033 Z-0.5
G3 X8.486 Y7.699 I3.135 J1.405
G1 X8.53 Y7.668
X8.589 Y7.635
G3 X8.945 Y8.131 I0.134 J0.28
G1 X8.908 Y8.159
X8.864 Y8.176
X8.818 Y8.179
X8.772 Y8.169
X8.732 Y8.146
X8.7 Y8.112
G3 X8.689 Y7.769 I0.253 J-0.18
X9.114 Y7.361 I1.008 J0.626
G1 X9.202 Y7.316
X9.407 Y7.245
X9.714 Y7.14
X10.021 Y7.045
X10.123 Y7.018
X10.328 Y6.97
X10.404 Y6.952
X10.737 Y6.883
X10.839 Y6.864
G3 X11.097 Y7.397 I0.045 J0.307
G1 X11.046 Y7.444 Z-0.492
X10.999 Y7.489 Z-0.469
X10.956 Y7.529 Z-0.432
X10.92 Y7.562 Z-0.383
X10.893 Y7.588 Z-0.325
X10.876 Y7.603 Z-0.259
X10.871 Y7.609 Z-0.19
G0 Z2.5
X32.677 Y7.173
Z0.12
G1 Z-0.19 F1000
X32.685 Y7.17 Z-0.259
X32.706 Y7.163 Z-0.325
X32.741 Y7.151 Z-0.383
X32.788 Y7.136 Z-0.432
X32.844 Y7.117 Z-0.469
X32.906 Y7.097 Z-0.492
X32.971 Y7.075 Z-0.5
G3 X34.672 Y6.957 I1.082 J3.261
G1 X34.775 Y6.979
X34.877 Y7.006
X34.979 Y7.034
X35.593 Y7.225
X35.684 Y7.259
X35.695 Y7.264
X35.725 Y7.279
X36.25 Y7.594
X36.892 Y7.979
X36.923 Y8
X37.009 Y8.077
X37.23 Y8.338
X37.264 Y8.384
X37.291 Y8.437
X37.309 Y8.495
X37.315 Y8.554
G3 X37.184 Y8.807 I-0.31 J0
G1 X37.134 Y8.826 Z-0.495
X37.086 Y8.845 Z-0.481
X37.04 Y8.862 Z-0.458
X37.005 Y8.864 Z-0.433
X36.956 Y8.855 Z-0.384
X36.92 Y8.848 Z-0.325
X36.897 Y8.844 Z-0.26
X36.889 Y8.842 Z-0.19
G0 Z2.5
X31.582 Y7.163
Z0.22
G1 Z-0.09 F1000
X31.589 Y7.16 Z-0.159
X31.61 Y7.151 Z-0.225
X31.644 Y7.136 Z-0.283
X31.689 Y7.116 Z-0.332
X31.743 Y7.092 Z-0.369
X31.802 Y7.066 Z-0.392
X31.866 Y7.038 Z-0.4
G3 X33.547 Y6.756 I1.39 J3.142
G1 X33.649 Y6.771
X33.854 Y6.802
X33.956 Y6.818
X34.263 Y6.873
X34.57 Y6.935
X34.672 Y6.957
X34.775 Y6.979
X34.877 Y7.005
X34.979 Y7.033
X35.593 Y7.223
X35.687 Y7.259
X35.695 Y7.263
X35.723 Y7.277
X36.251 Y7.594
X36.892 Y7.979
X36.923 Y8
X37.009 Y8.077
X37.23 Y8.338
X37.264 Y8.384
X37.291 Y8.437
X37.309 Y8.495
X37.315 Y8.554
G3 X37.184 Y8.807 I-0.31 J0
G1 X37.134 Y8.826 Z-0.395
X37.086 Y8.845 Z-0.381
X37.04 Y8.862 Z-0.358
X37.005 Y8.864 Z-0.333
X36.956 Y8.855 Z-0.284
X36.92 Y8.848 Z-0.225
X36.897 Y8.844 Z-0.16
X36.889 Y8.842 Z-0.09
G0 Z2.5
X8.71 Y7.98
Z0.32
G1 Z0.01 F1000
X8.716 Y7.975 Z-0.059
X8.732 Y7.959 Z-0.125
X8.759 Y7.934 Z-0.183
X8.795 Y7.9 Z-0.232
X8.838 Y7.86 Z-0.269
X8.886 Y7.815 Z-0.292
X8.936 Y7.768 Z-0.3
G3 X10.43 Y6.946 I2.351 J2.505
G1 X10.737 Y6.879
X10.941 Y6.844
G3 X11.193 Y7.379 I0.042 J0.307
G1 X11.142 Y7.426 Z-0.292
X11.093 Y7.47 Z-0.269
X11.05 Y7.51 Z-0.232
X11.014 Y7.543 Z-0.183
X10.987 Y7.568 Z-0.125
X10.97 Y7.583 Z-0.059
X10.964 Y7.589 Z0.01
G0 Z2.5
X35.053 Y7.271
Z0.32
G1 Z0.01 F1000
X35.061 Y7.272 Z-0.059
X35.084 Y7.275 Z-0.125
X35.12 Y7.281 Z-0.183
X35.168 Y7.289 Z-0.232
X35.226 Y7.298 Z-0.269
X35.291 Y7.309 Z-0.292
X35.359 Y7.32 Z-0.3
G3 X36.923 Y8 I-0.546 J3.392
G1 X37.009 Y8.077
X37.23 Y8.338
X37.264 Y8.384
G0 Z2.5
X37.477 Y35.888
Z0.32
G1 Z0.01 F1000
X37.475 Y35.896 Z-0.059
X37.47 Y35.918 Z-0.125
X37.461 Y35.954 Z-0.183
X37.448 Y36.001 Z-0.232
X37.434 Y36.058 Z-0.269
X37.418 Y36.122 Z-0.292
X37.401 Y36.189 Z-0.3
G3 X36.991 Y36.936 I-1.664 J-0.425
G1 X36.923 Y37.005
X36.899 Y37.025
G3 X36.471 Y36.98 I-0.19 J-0.245
G1 X36.448 Y36.931 Z-0.295
X36.425 Y36.884 Z-0.281
X36.404 Y36.84 Z-0.258
X36.401 Y36.809 Z-0.237
X36.398 Y36.78 Z-0.212
X36.404 Y36.741 Z-0.165
X36.409 Y36.712 Z-0.11
X36.411 Y36.694 Z-0.052
X36.412 Y36.688 Z0.01
G0 Z2.5
X8.818 Y7.967
Z0.42
G1 Z0.11 F1000
X8.824 Y7.961 Z0.041
X8.841 Y7.946 Z-0.025
X8.867 Y7.92 Z-0.083
X8.903 Y7.886 Z-0.132
X8.946 Y7.846 Z-0.169
X8.993 Y7.801 Z-0.192
X9.043 Y7.753 Z-0.2
G3 X10.532 Y6.923 I2.366 J2.491
G1 X10.737 Y6.876
X10.839 Y6.86
G3 X11.087 Y7.397 I0.04 J0.307
G1 X11.036 Y7.443 Z-0.192
X10.987 Y7.487 Z-0.169
X10.944 Y7.527 Z-0.132
X10.908 Y7.559 Z-0.083
X10.88 Y7.584 Z-0.025
X10.863 Y7.6 Z0.041
X10.857 Y7.605 Z0.11
G0 Z2.5
X31.978 Y7.154
Z0.42
G1 Z0.11 F1000
X31.985 Y7.152 Z0.041
X32.006 Y7.143 Z-0.025
X32.041 Y7.129 Z-0.083
X32.086 Y7.111 Z-0.132
X32.141 Y7.089 Z-0.169
X32.202 Y7.065 Z-0.192
X32.266 Y7.039 Z-0.2
G3 X33.956 Y6.818 I1.277 J3.189
G1 X34.263 Y6.869
X34.652 Y6.952
X34.775 Y6.979
X34.877 Y7.004
X34.979 Y7.03
X35.286 Y7.125
X35.593 Y7.223
X35.687 Y7.259
X35.714 Y7.274
X36.25 Y7.595
X36.892 Y7.979
X36.923 Y8
X37.009 Y8.077
X37.23 Y8.338
X37.264 Y8.384
G0 Z2.5
X37.476 Y35.888
Z0.42
G1 Z0.11 F1000
X37.474 Y35.895 Z0.041
X37.469 Y35.917 Z-0.025
X37.46 Y35.953 Z-0.083
X37.447 Y36.001 Z-0.132
X37.433 Y36.058 Z-0.169
X37.417 Y36.121 Z-0.192
X37.4 Y36.188 Z-0.2
G3 X36.991 Y36.936 I-1.665 J-0.423
G1 X36.923 Y37.005
X36.899 Y37.025
G3 X36.471 Y36.979 I-0.19 J-0.245
G1 X36.448 Y36.931 Z-0.195
X36.426 Y36.884 Z-0.181
X36.404 Y36.84 Z-0.158
X36.401 Y36.809 Z-0.137
X36.399 Y36.78 Z-0.112
X36.405 Y36.741 Z-0.065
X36.409 Y36.712 Z-0.011
X36.412 Y36.694 Z0.048
X36.413 Y36.688 Z0.11
G0 Z2.5
X8.824 Y7.976
Z0.52
G1 Z0.21 F1000
X8.83 Y7.97 Z0.141
X8.847 Y7.955 Z0.075
X8.873 Y7.929 Z0.017
X8.909 Y7.895 Z-0.032
X8.951 Y7.854 Z-0.069
X8.998 Y7.809 Z-0.092
X9.048 Y7.761 Z-0.1
G3 X10.532 Y6.922 I2.38 J2.478
G1 X10.737 Y6.874
X10.941 Y6.842
G3 X11.186 Y7.38 I0.038 J0.308
G1 X11.135 Y7.426 Z-0.092
X11.086 Y7.47 Z-0.069
X11.042 Y7.509 Z-0.032
X11.006 Y7.542 Z0.017
X10.978 Y7.567 Z0.075
X10.961 Y7.582 Z0.141
X10.955 Y7.587 Z0.21
G0 Z2.5
X32.079 Y7.164
Z0.52
G1 Z0.21 F1000
X32.086 Y7.162 Z0.141
X32.108 Y7.153 Z0.075
X32.142 Y7.139 Z0.017
X32.188 Y7.121 Z-0.032
X32.242 Y7.1 Z-0.069
X32.303 Y7.076 Z-0.092
X32.367 Y7.05 Z-0.1
G3 X33.634 Y6.808 I1.267 J3.193
X34.059 Y6.834 I0 J3.436
G1 X34.263 Y6.867
X34.365 Y6.889
X34.411 Y6.905
X35.088 Y7.197
X36.206 Y7.68
X36.855 Y7.96
X36.89 Y7.978
X36.923 Y8
X37.009 Y8.077
X37.23 Y8.338
X37.264 Y8.384
G0 Z2.5
X37.475 Y35.887
Z0.52
G1 Z0.21 F1000
X37.473 Y35.895 Z0.141
X37.468 Y35.917 Z0.075
X37.459 Y35.953 Z0.017
X37.446 Y36 Z-0.032
X37.432 Y36.057 Z-0.069
X37.416 Y36.121 Z-0.092
X37.399 Y36.188 Z-0.1
G3 X36.991 Y36.936 I-1.665 J-0.421
G1 X36.923 Y37.005
X36.899 Y37.025
G3 X36.471 Y36.979 I-0.19 J-0.245
G1 X36.448 Y36.931 Z-0.095
X36.426 Y36.884 Z-0.081
X36.405 Y36.84 Z-0.058
X36.402 Y36.809 Z-0.037
X36.399 Y36.78 Z-0.012
X36.405 Y36.741 Z0.035
X36.409 Y36.712 Z0.089
X36.412 Y36.694 Z0.148
X36.413 Y36.688 Z0.21
G0 Z2.5
X23.254 Y23.776
Z1.5
S5000
G3 X21.787 Y21.222 Z1.338 I-0.734 J-1.277 F333.3
X23.254 Y23.776 Z1.177 I0.734 J1.277
X21.787 Y21.222 Z1.015 I-0.734 J-1.277
X23.254 Y23.776 Z0.854 I0.734 J1.277
X21.787 Y21.222 Z0.692 I-0.734 J-1.277
X23.254 Y23.776 Z0.531 I0.734 J1.277
X21.787 Y21.222 Z0.369 I-0.734 J-1.277
X23.254 Y23.776 Z0.208 I0.734 J1.277
X21.787 Y21.222 Z0.046 I-0.734 J-1.277
X23.254 Y23.776 Z-0.115 I0.734 J1.277
X21.787 Y21.222 Z-0.277 I-0.734 J-1.277
X23.254 Y23.776 Z-0.439 I0.734 J1.277
X21.787 Y21.222 Z-0.6 I-0.734 J-1.277
X23.254 Y23.776 Z-0.762 I0.734 J1.277
X21.787 Y21.222 Z-0.923 I-0.734 J-1.277
X23.254 Y23.776 Z-1.085 I0.734 J1.277
X21.787 Y21.222 Z-1.246 I-0.734 J-1.277
X23.254 Y23.776 Z-1.408 I0.734 J1.277
X21.787 Y21.222 Z-1.569 I-0.734 J-1.277
X23.254 Y23.776 Z-1.731 I0.734 J1.277
X21.787 Y21.222 Z-1.892 I-0.734 J-1.277
X23.993 Y22.499 Z-2 I0.734 J1.277
X21.048 Y22.499 I-1.472 J0
X23.993 Y22.499 I1.472 J0
S10000
G1 X23.999 Y22.724 F1000
X24.125 Y23.081
X24.144 Y23.154
X24.156 Y23.228
X24.161 Y23.303
X24.16 Y23.382
X24.152 Y23.467
X24.136 Y23.556
X24.112 Y23.649
X24.078 Y23.746
X24.035 Y23.844
X23.981 Y23.944
X23.916 Y24.043
X23.841 Y24.141
X23.754 Y24.237
X23.657 Y24.328
X23.548 Y24.415
X23.43 Y24.495
X23.302 Y24.567
X23.164 Y24.63
X23.019 Y24.684
X22.867 Y24.726
X22.708 Y24.757
X22.545 Y24.775
X22.378 Y24.78
X22.208 Y24.772
X22.038 Y24.75
X21.868 Y24.713
X21.7 Y24.663
X21.535 Y24.599
X21.374 Y24.521
X21.219 Y24.43
X21.071 Y24.326
X20.931 Y24.21
X20.8 Y24.082
X20.679 Y23.943
X20.569 Y23.795
X20.471 Y23.638
X20.386 Y23.473
X20.314 Y23.302
X20.256 Y23.124
X20.213 Y22.943
X20.184 Y22.758
X20.17 Y22.571
X20.171 Y22.383
X20.187 Y22.196
X20.218 Y22.01
X20.264 Y21.828
X20.324 Y21.649
X20.399 Y21.476
X20.487 Y21.31
X20.589 Y21.151
X20.703 Y21
X20.829 Y20.859
X20.965 Y20.729
X21.112 Y20.609
X21.268 Y20.503
X21.432 Y20.408
X21.603 Y20.328
X21.78 Y20.261
X21.962 Y20.209
X22.147 Y20.171
X22.335 Y20.149
X22.524 Y20.141
X22.713 Y20.149
X22.901 Y20.172
X23.087 Y20.21
X23.269 Y20.263
X23.446 Y20.33
X23.617 Y20.411
X23.781 Y20.506
X23.937 Y20.613
X24.083 Y20.733
X24.22 Y20.864
X24.346 Y21.006
X24.46 Y21.157
X24.617 Y21.405
X24.812 Y21.776
X24.932 Y22.055
X25.016 Y22.305
X25.073 Y22.535
X25.11 Y22.758
X25.128 Y22.975
X25.129 Y23.186
X25.113 Y23.392
X25.081 Y23.594
X25.032 Y23.792
X24.969 Y23.986
X24.889 Y24.175
X24.794 Y24.358
X24.684 Y24.534
X24.558 Y24.702
X24.418 Y24.862
X24.264 Y25.011
X24.097 Y25.15
X23.916 Y25.276
X23.723 Y25.389
X23.518 Y25.488
X23.304 Y25.57
X23.08 Y25.637
X22.85 Y25.685
X22.613 Y25.716
X22.372 Y25.727
X22.129 Y25.719
X21.885 Y25.691
X21.642 Y25.643
X21.402 Y25.576
X21.166 Y25.489
X20.936 Y25.382
X20.715 Y25.257
X20.503 Y25.113
X20.302 Y24.952
X20.114 Y24.775
X19.94 Y24.582
X19.782 Y24.375
X19.64 Y24.155
X19.516 Y23.924
X19.41 Y23.683
X19.324 Y23.434
X19.258 Y23.178
X19.213 Y22.917
X19.188 Y22.652
X19.185 Y22.387
X19.204 Y22.121
X19.243 Y21.858
X19.304 Y21.598
X19.386 Y21.343
X19.488 Y21.096
X19.609 Y20.858
X19.749 Y20.63
X19.907 Y20.414
X20.082 Y20.211
X20.273 Y20.023
X20.478 Y19.851
X20.697 Y19.695
X20.927 Y19.558
X21.168 Y19.439
X21.418 Y19.341
X21.675 Y19.262
X21.937 Y19.205
X22.203 Y19.168
X22.471 Y19.153
X22.739 Y19.16
X23.007 Y19.188
X23.271 Y19.238
X23.53 Y19.309
X23.783 Y19.4
X24.027 Y19.511
X24.262 Y19.641
X24.486 Y19.79
X24.713 Y19.969
X24.953 Y20.192
X25.179 Y20.438
X25.391 Y20.71
X25.58 Y20.998
X25.743 Y21.295
X25.878 Y21.596
X25.985 Y21.898
X26.066 Y22.202
X26.121 Y22.505
X26.151 Y22.807
X26.157 Y23.108
X26.139 Y23.405
X26.097 Y23.698
X26.033 Y23.985
X25.945 Y24.265
X25.836 Y24.538
X25.704 Y24.801
X25.552 Y25.053
X25.379 Y25.294
X25.186 Y25.521
X24.974 Y25.734
X24.744 Y25.93
X24.497 Y26.109
X24.235 Y26.268
X23.958 Y26.407
X23.668 Y26.525
X23.367 Y26.619
X23.057 Y26.69
X22.741 Y26.736
X22.419 Y26.756
X22.094 Y26.751
X21.769 Y26.719
X21.446 Y26.661
X21.126 Y26.577
X20.812 Y26.466
X20.506 Y26.33
X20.21 Y26.17
X19.928 Y25.985
X19.659 Y25.777
X19.407 Y25.547
X19.174 Y25.297
X18.961 Y25.027
X18.769 Y24.741
X18.6 Y24.44
X18.456 Y24.125
X18.338 Y23.798
X18.245 Y23.463
X18.18 Y23.12
X18.142 Y22.773
X18.133 Y22.424
X18.151 Y22.074
X18.198 Y21.727
X18.272 Y21.384
X18.374 Y21.048
X18.502 Y20.72
X18.657 Y20.404
X18.836 Y20.102
X19.039 Y19.814
X19.265 Y19.544
X19.512 Y19.292
X19.778 Y19.061
X20.062 Y18.852
X20.362 Y18.666
X20.676 Y18.505
X21.002 Y18.37
X21.338 Y18.261
X21.682 Y18.18
X22.031 Y18.127
X22.383 Y18.101
X22.736 Y18.104
X23.088 Y18.135
X23.436 Y18.195
X23.779 Y18.282
X24.113 Y18.397
X24.441 Y18.54
X24.769 Y18.714
X25.091 Y18.921
X25.405 Y19.161
X25.706 Y19.43
X25.987 Y19.727
X26.244 Y20.046
X26.475 Y20.385
X26.677 Y20.74
X26.849 Y21.106
X26.989 Y21.482
X27.098 Y21.865
X27.175 Y22.252
X27.22 Y22.641
X27.234 Y23.03
X27.217 Y23.417
X27.169 Y23.799
X27.091 Y24.175
X26.983 Y24.542
X26.846 Y24.9
X26.681 Y25.245
X26.488 Y25.577
X26.268 Y25.894
X26.023 Y26.192
X25.753 Y26.472
X25.461 Y26.73
X25.147 Y26.965
X24.813 Y27.175
X24.462 Y27.359
X24.094 Y27.515
X23.713 Y27.641
X23.321 Y27.738
X22.92 Y27.803
X22.513 Y27.835
X22.102
X21.69 Y27.802
X21.28 Y27.735
X20.875 Y27.636
X20.477 Y27.503
X20.09 Y27.339
X19.715 Y27.142
X19.356 Y26.916
X19.015 Y26.66
X18.694 Y26.377
X18.396 Y26.068
X18.124 Y25.736
X17.878 Y25.381
X17.661 Y25.007
X17.474 Y24.616
X17.318 Y24.21
X17.196 Y23.793
X17.107 Y23.366
X17.053 Y22.932
X17.034 Y22.495
X17.05 Y22.058
X17.101 Y21.623
X17.187 Y21.192
X17.307 Y20.77
X17.461 Y20.358
X17.647 Y19.96
X17.865 Y19.578
X18.113 Y19.214
X18.39 Y18.871
X18.693 Y18.552
X19.022 Y18.258
X19.372 Y17.991
X19.744 Y17.752
X20.133 Y17.545
X20.538 Y17.369
X20.955 Y17.226
X21.383 Y17.117
X21.818 Y17.043
X22.258 Y17.004
X22.7 Y17.001
X23.14 Y17.033
X23.577 Y17.1
X24.011 Y17.203
X24.439 Y17.342
X24.855 Y17.515
X25.256 Y17.72
X25.64 Y17.956
X26.004 Y18.22
X26.348 Y18.511
X26.669 Y18.827
X26.967 Y19.165
X27.239 Y19.524
X27.484 Y19.902
X27.701 Y20.297
X27.889 Y20.707
X28.045 Y21.129
X28.17 Y21.562
X28.262 Y22.003
X28.321 Y22.449
X28.345 Y22.899
X28.335 Y23.349
X28.291 Y23.798
X28.214 Y24.241
X28.102 Y24.678
X27.958 Y25.104
X27.782 Y25.519
X27.574 Y25.919
X27.337 Y26.302
X27.071 Y26.665
X26.779 Y27.008
X26.461 Y27.328
X26.121 Y27.623
X25.759 Y27.891
X25.379 Y28.132
X24.981 Y28.343
X24.568 Y28.524
X24.143 Y28.674
X23.709 Y28.792
X23.267 Y28.878
X22.819 Y28.931
X22.369 Y28.952
X21.919 Y28.941
X21.471 Y28.898
X21.026 Y28.823
X20.589 Y28.715
X20.16 Y28.577
X19.743 Y28.408
X19.338 Y28.21
X18.949 Y27.984
X18.576 Y27.731
X18.221 Y27.454
X17.886 Y27.152
X17.574 Y26.828
X17.285 Y26.482
X17.022 Y26.116
X16.784 Y25.734
X16.573 Y25.336
X16.39 Y24.924
X16.235 Y24.501
X16.11 Y24.069
X16.016 Y23.628
X15.952 Y23.182
X15.919 Y22.733
X15.917 Y22.283
X15.945 Y21.833
X16.003 Y21.386
X16.093 Y20.945
X16.213 Y20.511
X16.362 Y20.086
X16.54 Y19.672
X16.746 Y19.271
X16.977 Y18.885
X17.235 Y18.515
X17.518 Y18.165
X17.824 Y17.835
X18.152 Y17.526
X18.501 Y17.24
X18.867 Y16.978
X19.25 Y16.742
X19.649 Y16.532
X20.062 Y16.351
X20.485 Y16.198
X20.918 Y16.075
X21.359 Y15.98
X21.805 Y15.916
X22.254 Y15.881
X22.704 Y15.878
X23.154 Y15.907
X23.6 Y15.965
X24.042 Y16.053
X24.477 Y16.171
X24.903 Y16.316
X25.319 Y16.491
X25.721 Y16.692
X26.11 Y16.92
X26.484 Y17.172
X26.841 Y17.446
X27.18 Y17.743
X27.5 Y18.06
X27.799 Y18.397
X28.076 Y18.752
X28.331 Y19.123
X28.563 Y19.509
X28.771 Y19.909
X28.953 Y20.321
X29.109 Y20.743
X29.238 Y21.175
X29.339 Y21.614
X29.412 Y22.058
X29.458 Y22.507
X29.475 Y22.957
X29.463 Y23.407
X29.422 Y23.855
X29.352 Y24.3
X29.255 Y24.74
X29.129 Y25.173
X28.977 Y25.597
X28.798 Y26.01
X28.592 Y26.411
X28.361 Y26.797
X28.105 Y27.168
X27.828 Y27.523
X27.528 Y27.859
X27.208 Y28.176
X26.868 Y28.471
X26.509 Y28.744
X26.135 Y28.994
X25.745 Y29.22
X25.342 Y29.421
X24.927 Y29.597
X24.502 Y29.746
X24.069 Y29.868
X23.628 Y29.963
X23.183 Y30.031
X22.734 Y30.071
X22.284 Y30.085
X21.834 Y30.072
X21.385 Y30.03
X20.94 Y29.96
X20.5 Y29.864
X20.067 Y29.741
X19.642 Y29.592
X19.226 Y29.419
X18.821 Y29.221
X18.43 Y28.998
X18.052 Y28.752
X17.69 Y28.485
X17.344 Y28.196
X17.015 Y27.888
X16.706 Y27.561
X16.417 Y27.215
X16.149 Y26.853
X15.903 Y26.475
X15.68 Y26.084
X15.479 Y25.681
X15.302 Y25.267
X15.15 Y24.843
X15.024 Y24.41
X14.924 Y23.971
X14.85 Y23.527
X14.801 Y23.079
X14.779 Y22.629
X14.781 Y22.179
X14.811 Y21.729
X14.868 Y21.282
X14.951 Y20.84
X15.06 Y20.403
X15.194 Y19.972
X15.351 Y19.551
X15.533 Y19.139
X15.739 Y18.738
X15.969 Y18.35
X16.22 Y17.977
X16.493 Y17.619
X16.787 Y17.277
X17.099 Y16.952
X17.429 Y16.646
X17.777 Y16.36
X18.142 Y16.095
X18.521 Y15.851
X18.913 Y15.63
X19.318 Y15.433
X19.733 Y15.258
X20.158 Y15.108
X20.591 Y14.983
X21.03 Y14.884
X21.474 Y14.81
X21.922 Y14.762
X22.372 Y14.74
X22.823 Y14.744
X23.272 Y14.774
X23.719 Y14.831
X24.162 Y14.913
X24.599 Y15.02
X25.03 Y15.152
X25.452 Y15.309
X25.865 Y15.488
X26.268 Y15.691
X26.658 Y15.916
X27.035 Y16.162
X27.398 Y16.429
X27.746 Y16.715
X28.078 Y17.019
X28.393 Y17.341
X28.691 Y17.679
X28.969 Y18.033
X29.228 Y18.402
X29.467 Y18.784
X29.685 Y19.178
X29.882 Y19.583
X30.056 Y19.998
X30.209 Y20.422
X30.337 Y20.854
X30.441 Y21.292
X30.522 Y21.736
X30.578 Y22.182
X30.61 Y22.632
X30.618 Y23.082
X30.601 Y23.532
X30.559 Y23.981
X30.492 Y24.426
X30.401 Y24.867
X30.286 Y25.303
X30.147 Y25.731
X29.985 Y26.152
X29.8 Y26.563
X29.593 Y26.963
X29.364 Y27.35
X29.114 Y27.725
X28.844 Y28.085
X28.555 Y28.431
X28.247 Y28.76
X27.922 Y29.072
X27.581 Y29.366
X27.224 Y29.64
X26.852 Y29.894
X26.467 Y30.128
X26.07 Y30.341
X25.662 Y30.532
X25.244 Y30.701
X24.818 Y30.847
X24.385 Y30.97
X23.945 Y31.069
X23.501 Y31.145
X23.054 Y31.197
X22.604 Y31.225
X22.154 Y31.23
X21.704 Y31.212
X21.255 Y31.169
X20.81 Y31.102
X20.369 Y31.012
X19.933 Y30.898
X19.503 Y30.763
X19.081 Y30.605
X18.668 Y30.425
X18.265 Y30.225
X17.873 Y30.003
X17.493 Y29.761
X17.126 Y29.5
X16.773 Y29.22
X16.435 Y28.922
X16.113 Y28.607
X15.807 Y28.277
X15.518 Y27.931
X15.249 Y27.57
X14.998 Y27.196
X14.767 Y26.809
X14.555 Y26.412
X14.364 Y26.004
X14.194 Y25.586
X14.045 Y25.161
X13.919 Y24.729
X13.816 Y24.29
X13.735 Y23.847
X13.676 Y23.401
X13.64 Y22.952
X13.627 Y22.501
X13.636 Y22.051
X13.668 Y21.602
X13.724 Y21.155
X13.803 Y20.711
X13.904 Y20.272
X14.027 Y19.839
X14.172 Y19.412
X14.337 Y18.994
X14.524 Y18.584
X14.731 Y18.184
X14.959 Y17.795
X15.206 Y17.419
X15.473 Y17.055
X15.757 Y16.706
X16.058 Y16.371
X16.375 Y16.051
X16.709 Y15.748
X17.057 Y15.462
X17.419 Y15.195
X17.795 Y14.947
X18.183 Y14.718
X18.582 Y14.508
X18.991 Y14.319
X19.408 Y14.151
X19.834 Y14.003
X20.267 Y13.878
X20.705 Y13.775
X21.149 Y13.695
X21.595 Y13.637
X22.044 Y13.602
X22.495 Y13.588
X22.945 Y13.598
X23.394 Y13.63
X23.841 Y13.685
X24.285 Y13.763
X24.724 Y13.863
X25.158 Y13.984
X25.585 Y14.127
X26.005 Y14.29
X26.416 Y14.474
X26.818 Y14.677
X27.209 Y14.901
X27.589 Y15.143
X27.956 Y15.404
X28.311 Y15.681
X28.652 Y15.975
X28.979 Y16.285
X29.291 Y16.61
X29.587 Y16.95
X29.867 Y17.303
X30.129 Y17.669
X30.373 Y18.048
X30.6 Y18.437
X30.807 Y18.837
X30.996 Y19.246
X31.166 Y19.663
X31.315 Y20.088
X31.444 Y20.52
X31.551 Y20.957
X31.638 Y21.399
X31.703 Y21.845
X31.747 Y22.293
X31.77 Y22.743
X31.771 Y23.193
X31.751 Y23.643
X31.709 Y24.092
X31.645 Y24.538
X31.559 Y24.98
X31.453 Y25.418
X31.325 Y25.85
X31.177 Y26.275
X31.009 Y26.693
X30.822 Y27.103
X30.614 Y27.503
X30.388 Y27.892
X30.142 Y28.269
X29.879 Y28.635
X29.599 Y28.988
X29.302 Y29.327
X28.99 Y29.651
X28.662 Y29.96
X28.32 Y30.254
X27.964 Y30.53
X27.595 Y30.788
X27.214 Y31.029
X26.823 Y31.251
X26.421 Y31.455
X26.01 Y31.64
X25.591 Y31.805
X25.165 Y31.95
X24.732 Y32.075
X24.293 Y32.178
X23.851 Y32.261
X23.405 Y32.323
X22.956 Y32.365
X22.506 Y32.386
X22.056
X21.606 Y32.365
X21.157 Y32.323
X20.711 Y32.259
X20.269 Y32.175
X19.831 Y32.071
X19.398 Y31.946
X18.971 Y31.802
X18.551 Y31.639
X18.139 Y31.457
X17.736 Y31.256
X17.343 Y31.036
X16.96 Y30.798
X16.589 Y30.543
X16.23 Y30.271
X15.883 Y29.983
X15.55 Y29.68
X15.231 Y29.363
X14.926 Y29.031
X14.637 Y28.685
X14.365 Y28.327
X14.109 Y27.956
X13.87 Y27.574
X13.648 Y27.182
X13.445 Y26.78
X13.259 Y26.37
X13.092 Y25.951
X12.944 Y25.526
X12.816 Y25.094
X12.708 Y24.657
X12.62 Y24.215
X12.552 Y23.77
X12.504 Y23.322
X12.475 Y22.872
X12.467 Y22.422
X12.478 Y21.971
X12.511 Y21.522
X12.564 Y21.075
X12.637 Y20.63
X12.73 Y20.19
X12.843 Y19.754
X12.974 Y19.323
X13.125 Y18.898
X13.294 Y18.481
X13.482 Y18.072
X13.689 Y17.671
X13.914 Y17.281
X14.156 Y16.901
X14.414 Y16.532
X14.689 Y16.175
X14.98 Y15.831
X15.285 Y15.5
X15.605 Y15.182
X15.938 Y14.88
X16.285 Y14.593
X16.645 Y14.322
X17.017 Y14.068
X17.4 Y13.83
X17.793 Y13.61
X18.195 Y13.407
X18.605 Y13.222
X19.024 Y13.055
X19.45 Y12.907
X19.881 Y12.78
X20.319 Y12.672
X20.761 Y12.584
X21.206 Y12.515
X21.654 Y12.466
X22.103 Y12.437
X22.553 Y12.427
X23.004 Y12.438
X23.453 Y12.469
X23.901 Y12.521
X24.345 Y12.592
X24.786 Y12.684
X25.223 Y12.794
X25.655 Y12.923
X26.08 Y13.071
X26.499 Y13.237
X26.91 Y13.421
X27.312 Y13.623
X27.706 Y13.843
X28.089 Y14.08
X28.461 Y14.333
X28.823 Y14.602
X29.173 Y14.885
X29.511 Y15.183
X29.836 Y15.495
X30.147 Y15.82
X30.445 Y16.159
X30.727 Y16.51
X30.994 Y16.873
X31.245 Y17.247
X31.481 Y17.631
X31.7 Y18.024
X31.903 Y18.426
X32.088 Y18.837
X32.257 Y19.254
X32.407 Y19.679
X32.539 Y20.11
X32.651 Y20.546
X32.746 Y20.986
X32.821 Y21.43
X32.878 Y21.877
X32.916 Y22.326
X32.935 Y22.776
Y23.227
X32.916 Y23.677
X32.877 Y24.125
X32.818 Y24.572
X32.74 Y25.016
X32.644 Y25.456
X32.528 Y25.891
X32.395 Y26.321
X32.244 Y26.746
X32.075 Y27.163
X31.888 Y27.573
X31.683 Y27.974
X31.461 Y28.366
X31.222 Y28.748
X30.967 Y29.119
X30.697 Y29.48
X30.412 Y29.829
X30.112 Y30.165
X29.799 Y30.489
X29.472 Y30.798
X29.132 Y31.093
X28.779 Y31.374
X28.414 Y31.638
X28.039 Y31.887
X27.654 Y32.121
X27.259 Y32.338
X26.856 Y32.538
X26.444 Y32.721
X26.025 Y32.887
X25.6 Y33.034
X25.168 Y33.163
X24.731 Y33.274
X24.29 Y33.366
X23.846 Y33.44
X23.399 Y33.496
X22.95 Y33.533
X22.5 Y33.552
X22.05
X21.6 Y33.533
X21.151 Y33.495
X20.704 Y33.438
X20.26 Y33.363
X19.819 Y33.269
X19.383 Y33.157
X18.951 Y33.028
X18.526 Y32.882
X18.106 Y32.718
X17.693 Y32.537
X17.289 Y32.339
X16.893 Y32.123
X16.507 Y31.892
X16.13 Y31.646
X15.763 Y31.384
X15.408 Y31.107
X15.063 Y30.817
X14.731 Y30.513
X14.411 Y30.196
X14.105 Y29.865
X13.813 Y29.522
X13.535 Y29.168
X13.272 Y28.802
X13.024 Y28.426
X12.791 Y28.041
X12.573 Y27.646
X12.372 Y27.243
X12.186 Y26.833
X12.018 Y26.415
X11.868 Y25.99
X11.735 Y25.56
X11.619 Y25.125
X11.521 Y24.685
X11.441 Y24.242
X11.379 Y23.796
X11.334 Y23.347
X11.307 Y22.898
X11.298 Y22.447
X11.308 Y21.997
X11.336 Y21.548
X11.383 Y21.1
X11.447 Y20.654
X11.53 Y20.211
X11.63 Y19.772
X11.747 Y19.337
X11.881 Y18.907
X12.032 Y18.483
X12.201 Y18.065
X12.386 Y17.654
X12.589 Y17.252
X12.807 Y16.858
X13.041 Y16.473
X13.29 Y16.098
X13.554 Y15.732
X13.832 Y15.378
X14.123 Y15.035
X14.429 Y14.703
X14.747 Y14.385
X15.078 Y14.08
X15.422 Y13.788
X15.777 Y13.511
X16.143 Y13.248
X16.518 Y13
X16.904 Y12.767
X17.298 Y12.549
X17.701 Y12.347
X18.111 Y12.161
X18.529 Y11.992
X18.953 Y11.841
X19.383 Y11.707
X19.818 Y11.59
X20.257 Y11.491
X20.7 Y11.409
X21.146 Y11.345
X21.594 Y11.298
X22.044 Y11.269
X22.494 Y11.258
X22.944 Y11.266
X23.394 Y11.292
X23.842 Y11.336
X24.289 Y11.398
X24.732 Y11.477
X25.172 Y11.574
X25.608 Y11.687
X26.039 Y11.818
X26.465 Y11.965
X26.884 Y12.129
X27.297 Y12.31
X27.702 Y12.507
X28.099 Y12.72
X28.487 Y12.948
X28.866 Y13.191
X29.236 Y13.448
X29.596 Y13.719
X29.945 Y14.004
X30.284 Y14.301
X30.61 Y14.612
X30.924 Y14.935
X31.225 Y15.269
X31.513 Y15.616
X31.788 Y15.973
X32.049 Y16.34
X32.296 Y16.716
X32.529 Y17.102
X32.747 Y17.496
X32.95 Y17.898
X33.138 Y18.308
X33.309 Y18.724
X33.464 Y19.147
X33.603 Y19.576
X33.725 Y20.01
X33.83 Y20.448
X33.919 Y20.889
X33.991 Y21.334
X34.046 Y21.781
X34.085 Y22.23
X34.106 Y22.68
X34.109 Y23.13
X34.094 Y23.58
X34.062 Y24.03
X34.013 Y24.477
X33.947 Y24.923
X33.864 Y25.365
X33.764 Y25.805
X33.647 Y26.24
X33.515 Y26.67
X33.365 Y27.095
X33.199 Y27.514
X33.016 Y27.926
X32.818 Y28.33
X32.604 Y28.727
X32.375 Y29.115
X32.132 Y29.494
X31.875 Y29.863
X31.603 Y30.223
X31.319 Y30.572
X31.021 Y30.91
X30.709 Y31.235
X30.386 Y31.549
X30.05 Y31.849
X29.704 Y32.137
X29.346 Y32.411
X28.979 Y32.671
X28.602 Y32.918
X28.215 Y33.15
X27.821 Y33.367
X27.418 Y33.569
X27.008 Y33.755
X26.591 Y33.926
X26.168 Y34.08
X25.739 Y34.218
X25.305 Y34.339
X24.867 Y34.444
X24.426 Y34.533
X23.981 Y34.606
X23.534 Y34.662
X23.085 Y34.701
X22.636 Y34.723
X22.185 Y34.727
X21.735 Y34.715
X21.285 Y34.685
X20.837 Y34.639
X20.391 Y34.576
X19.948 Y34.496
X19.508 Y34.401
X19.071 Y34.289
X18.639 Y34.162
X18.213 Y34.018
X17.792 Y33.857
X17.377 Y33.682
X16.969 Y33.49
X16.568 Y33.284
X16.176 Y33.063
X15.792 Y32.828
X15.416 Y32.579
X15.05 Y32.317
X14.694 Y32.041
X14.348 Y31.753
X14.013 Y31.451
X13.69 Y31.137
X13.379 Y30.812
X13.08 Y30.475
X12.794 Y30.127
X12.52 Y29.769
X12.26 Y29.402
X12.013 Y29.025
X11.78 Y28.64
X11.561 Y28.246
X11.356 Y27.844
X11.167 Y27.435
X10.994 Y27.02
X10.835 Y26.598
X10.693 Y26.171
X10.566 Y25.739
X10.454 Y25.302
X10.359 Y24.862
X10.279 Y24.419
X10.216 Y23.973
X10.169 Y23.525
X10.138 Y23.075
X10.124 Y22.625
X10.127 Y22.175
X10.146 Y21.725
X10.182 Y21.276
X10.234 Y20.828
X10.302 Y20.383
X10.386 Y19.94
X10.486 Y19.501
X10.601 Y19.066
X10.733 Y18.635
X10.88 Y18.209
X11.043 Y17.789
X11.221 Y17.376
X11.415 Y16.969
X11.623 Y16.569
X11.845 Y16.177
X12.081 Y15.794
X12.331 Y15.419
X12.593 Y15.053
X12.87 Y14.697
X13.159 Y14.352
X13.46 Y14.017
X13.774 Y13.694
X14.099 Y13.382
X14.436 Y13.083
X14.783 Y12.796
X15.14 Y12.521
X15.507 Y12.26
X15.882 Y12.011
X16.267 Y11.777
X16.66 Y11.556
X17.061 Y11.351
X17.469 Y11.16
X17.883 Y10.984
X18.304 Y10.824
X18.731 Y10.678
X19.162 Y10.549
X19.598 Y10.435
X20.037 Y10.336
X20.48 Y10.254
X20.926 Y10.187
X21.373 Y10.137
X21.822 Y10.103
X22.273 Y10.086
X22.723 Y10.085
X23.173 Y10.101
X23.622 Y10.132
X24.07 Y10.18
X24.516 Y10.244
X24.96 Y10.323
X25.4 Y10.418
X25.837 Y10.529
X26.269 Y10.656
X26.696 Y10.799
X27.118 Y10.956
X27.534 Y11.129
X27.944 Y11.316
X28.347 Y11.518
X28.742 Y11.733
X29.13 Y11.962
X29.509 Y12.205
X29.88 Y12.461
X30.242 Y12.729
X30.594 Y13.01
X30.936 Y13.304
X31.267 Y13.609
X31.587 Y13.926
X31.896 Y14.253
X32.194 Y14.591
X32.48 Y14.94
X32.753 Y15.297
X33.015 Y15.664
X33.263 Y16.04
X33.498 Y16.424
X33.72 Y16.816
X33.928 Y17.216
X34.121 Y17.623
X34.301 Y18.036
X34.466 Y18.455
X34.616 Y18.88
X34.751 Y19.309
X34.872 Y19.743
X34.978 Y20.181
X35.068 Y20.622
X35.143 Y21.067
X35.202 Y21.513
X35.246 Y21.962
X35.274 Y22.411
X35.286 Y22.861
X35.282 Y23.312
X35.262 Y23.762
X35.227 Y24.211
X35.177 Y24.659
X35.111 Y25.104
X35.029 Y25.547
X34.932 Y25.987
X34.82 Y26.423
X34.692 Y26.855
X34.549 Y27.282
X34.391 Y27.704
X34.219 Y28.12
X34.032 Y28.53
X33.831 Y28.933
X33.616 Y29.329
X33.388 Y29.717
X33.146 Y30.097
X32.891 Y30.469
X32.623 Y30.831
X32.342 Y31.183
X32.05 Y31.526
X31.745 Y31.858
X31.429 Y32.179
X31.102 Y32.489
X30.765 Y32.787
X30.417 Y33.074
X30.06 Y33.348
X29.694 Y33.61
X29.318 Y33.859
X28.935 Y34.095
X28.543 Y34.317
X28.143 Y34.525
X27.737 Y34.72
X27.324 Y34.9
X26.905 Y35.065
X26.481 Y35.217
X26.052 Y35.353
X25.618 Y35.476
X25.181 Y35.583
X24.74 Y35.675
X24.296 Y35.751
X23.85 Y35.812
X23.402 Y35.858
X22.952 Y35.889
X22.502 Y35.904
X22.051 Y35.903
X21.601 Y35.887
X21.152 Y35.856
X20.704 Y35.81
X20.258 Y35.749
X19.814 Y35.672
X19.373 Y35.581
X18.935 Y35.474
X18.501 Y35.352
X18.072 Y35.216
X17.648 Y35.065
X17.228 Y34.9
X16.815 Y34.721
X16.408 Y34.528
X16.008 Y34.322
X15.615 Y34.102
X15.229 Y33.869
X14.852 Y33.623
X14.483 Y33.364
X14.123 Y33.094
X13.772 Y32.811
X13.432 Y32.516
X13.101 Y32.21
X12.781 Y31.894
X12.471 Y31.566
X12.173 Y31.229
X11.886 Y30.882
X11.611 Y30.525
X11.348 Y30.159
X11.097 Y29.785
X10.859 Y29.402
X10.634 Y29.012
X10.423 Y28.615
X10.224 Y28.21
X10.04 Y27.799
X9.869 Y27.382
X9.712 Y26.96
X9.569 Y26.533
X9.441 Y26.101
X9.327 Y25.665
X9.228 Y25.226
X9.143 Y24.783
X9.073 Y24.338
X9.019 Y23.891
X8.979 Y23.443
X8.954 Y22.993
X8.944 Y22.543
X8.949 Y22.092
X8.969 Y21.642
X9.004 Y21.193
X9.054 Y20.745
X9.118 Y20.3
X9.198 Y19.856
X9.292 Y19.416
X9.401 Y18.979
X9.524 Y18.545
X9.662 Y18.117
X9.814 Y17.692
X9.98 Y17.274
X10.159 Y16.861
X10.352 Y16.454
X10.559 Y16.053
X10.779 Y15.66
X11.011 Y15.274
X11.257 Y14.897
X11.515 Y14.527
X11.785 Y14.167
X12.066 Y13.815
X12.36 Y13.474
X12.664 Y13.142
X12.98 Y12.82
X13.305 Y12.509
X13.641 Y12.209
X13.987 Y11.92
X14.342 Y11.643
X14.706 Y11.377
X15.079 Y11.124
X15.46 Y10.884
X15.848 Y10.656
X16.244 Y10.441
X16.647 Y10.24
X17.056 Y10.052
X17.472 Y9.878
X17.893 Y9.717
X18.319 Y9.57
X18.749 Y9.438
X19.184 Y9.32
X19.622 Y9.217
X20.064 Y9.128
X20.508 Y9.054
X20.955 Y8.994
X21.403 Y8.95
X21.852 Y8.92
X22.303 Y8.905
X22.753
X23.203 Y8.92
X23.653 Y8.949
X24.101 Y8.994
X24.547 Y9.053
X24.992 Y9.127
X25.433 Y9.215
X25.872 Y9.318
X26.307 Y9.435
X26.738 Y9.567
X27.164 Y9.712
X27.586 Y9.871
X28.002 Y10.044
X28.412 Y10.23
X28.816 Y10.429
X29.213 Y10.641
X29.603 Y10.866
X29.986 Y11.104
X30.361 Y11.354
X30.728 Y11.615
X31.086 Y11.889
X31.435 Y12.173
X31.775 Y12.469
X32.105 Y12.775
X32.426 Y13.091
X32.736 Y13.418
X33.035 Y13.754
X33.324 Y14.1
X33.601 Y14.455
X33.867 Y14.819
X34.122 Y15.19
X34.364 Y15.57
X34.594 Y15.957
X34.812 Y16.352
X35.018 Y16.753
X35.21 Y17.16
X35.389 Y17.573
X35.556 Y17.992
X35.708 Y18.415
X35.847 Y18.844
X35.972 Y19.277
X36.084 Y19.713
X36.181 Y20.153
X36.265 Y20.595
X36.334 Y21.041
X36.389 Y21.488
X36.43 Y21.936
X36.456 Y22.386
X36.468 Y22.836
X36.466 Y23.287
X36.449 Y23.737
X36.418 Y24.186
X36.372 Y24.634
X36.312 Y25.081
X36.238 Y25.525
X36.149 Y25.967
X36.047 Y26.405
X35.93 Y26.84
X35.8 Y27.272
X35.656 Y27.698
X35.498 Y28.12
X35.327 Y28.537
X35.143 Y28.948
X34.945 Y29.353
X34.735 Y29.751
X34.512 Y30.143
X34.276 Y30.527
X34.029 Y30.903
X33.769 Y31.271
X33.498 Y31.631
X33.216 Y31.982
X32.922 Y32.323
X32.618 Y32.656
X32.304 Y32.978
X31.979 Y33.29
X31.644 Y33.591
X31.3 Y33.882
X30.947 Y34.161
X30.585 Y34.43
X30.214 Y34.686
X29.836 Y34.93
X29.45 Y35.163
X29.057 Y35.383
X28.657 Y35.591
X28.251 Y35.785
X27.839 Y35.967
X27.421 Y36.136
X26.998 Y36.291
X26.571 Y36.432
X26.139 Y36.56
X25.703 Y36.675
X25.264 Y36.775
X24.822 Y36.862
X24.378 Y36.935
X23.931 Y36.994
X23.483 Y37.039
X23.033 Y37.07
X22.583 Y37.086
X22.133 Y37.089
X21.683 Y37.077
X21.233 Y37.051
X20.784 Y37.011
X20.337 Y36.957
X19.892 Y36.889
X19.449 Y36.807
X19.009 Y36.711
X18.572 Y36.602
X18.138 Y36.479
X17.709 Y36.343
X17.284 Y36.194
X16.864 Y36.031
X16.449 Y35.855
X16.04 Y35.667
X15.637 Y35.465
X15.241 Y35.252
X14.851 Y35.026
X14.468 Y34.788
X14.093 Y34.539
X13.726 Y34.278
X13.367 Y34.006
X13.017 Y33.722
X12.675 Y33.429
X12.343 Y33.125
X12.02 Y32.81
X11.708 Y32.486
X11.405 Y32.152
X11.113 Y31.809
X10.832 Y31.457
X10.561 Y31.097
X10.302 Y30.729
X10.054 Y30.353
X9.818 Y29.969
X9.594 Y29.578
X9.382 Y29.181
X9.182 Y28.777
X8.995 Y28.368
X8.82 Y27.952
X8.659 Y27.532
X8.51 Y27.107
X8.374 Y26.677
X8.252 Y26.244
X8.143 Y25.807
X8.048 Y25.366
X7.965 Y24.923
X7.897 Y24.478
X7.842 Y24.031
X7.801 Y23.583
X7.773 Y23.133
X7.76 Y22.683
Y22.232
X7.775 Y21.782
X7.803 Y21.332
X7.844 Y20.884
X7.9 Y20.437
X7.969 Y19.992
X8.051 Y19.549
X8.147 Y19.109
X8.256 Y18.672
X8.379 Y18.238
X8.515 Y17.809
X8.664 Y17.384
X8.826 Y16.964
X9.001 Y16.548
X9.188 Y16.139
X9.388 Y15.735
X9.6 Y15.338
X9.824 Y14.947
X10.06 Y14.563
X10.307 Y14.187
X10.566 Y13.818
X10.835 Y13.457
X11.116 Y13.105
X11.407 Y12.761
X11.709 Y12.427
X12.021 Y12.102
X12.343 Y11.787
X12.674 Y11.481
X13.014 Y11.186
X13.363 Y10.901
X13.721 Y10.628
X14.087 Y10.365
X14.46 Y10.113
X14.841 Y9.873
X15.23 Y9.644
X15.624 Y9.428
X16.026 Y9.223
X16.434 Y9.032
X16.847 Y8.852
X17.265 Y8.686
X17.689 Y8.532
X18.117 Y8.391
X18.549 Y8.264
X18.984 Y8.149
X19.423 Y8.048
X19.865 Y7.96
X20.309 Y7.885
X20.755 Y7.824
X21.203 Y7.777
X21.653 Y7.743
X22.103 Y7.724
X22.553 Y7.718
X23.003 Y7.725
X23.453 Y7.747
X23.902 Y7.782
X24.35 Y7.83
X24.796 Y7.892
X25.24 Y7.967
X25.682 Y8.056
X26.121 Y8.158
X26.556 Y8.273
X26.988 Y8.401
X27.416 Y8.543
X27.839 Y8.697
X28.258 Y8.864
X28.671 Y9.043
X29.078 Y9.234
X29.48 Y9.438
X29.876 Y9.653
X30.265 Y9.88
X30.647 Y10.119
X31.022 Y10.368
X31.39 Y10.629
X31.749 Y10.9
X32.101 Y11.182
X32.443 Y11.474
X32.777 Y11.777
X33.102 Y12.089
X33.418 Y12.41
X33.724 Y12.741
X34.02 Y13.08
X34.306 Y13.428
X34.582 Y13.784
X34.847 Y14.148
X35.102 Y14.52
X35.345 Y14.899
X35.578 Y15.285
X35.798 Y15.677
X36.007 Y16.076
X36.205 Y16.481
X36.39 Y16.892
X36.563 Y17.308
X36.724 Y17.728
X36.872 Y18.154
X37.008 Y18.583
X37.131 Y19.016
X37.242 Y19.453
X37.34 Y19.893
X37.425 Y20.335
X37.496 Y20.78
X37.555 Y21.227
X37.6 Y21.675
X37.632 Y22.124
X37.65 Y22.574
X37.656 Y23.024
X37.648 Y23.475
X37.626 Y23.925
X37.592 Y24.374
X37.544 Y24.822
X37.484 Y25.268
X37.41 Y25.713
X37.323 Y26.155
X37.223 Y26.594
X37.11 Y27.03
X36.984 Y27.462
X36.846 Y27.891
X36.694 Y28.315
X36.531 Y28.735
X36.355 Y29.149
X36.166 Y29.559
X35.966 Y29.962
X35.754 Y30.36
X35.531 Y30.751
X35.296 Y31.135
X35.05 Y31.513
X34.793 Y31.882
X34.525 Y32.244
X34.246 Y32.598
X33.957 Y32.944
X33.658 Y33.28
X33.349 Y33.608
X33.031 Y33.927
X32.703 Y34.236
X32.366 Y34.535
X32.021 Y34.825
X31.668 Y35.104
X31.306 Y35.373
X30.937 Y35.631
X30.56 Y35.878
X30.177 Y36.114
X29.786 Y36.338
X29.389 Y36.551
X28.986 Y36.752
X28.577 Y36.941
X28.163 Y37.118
X27.744 Y37.283
X27.32 Y37.435
X26.892 Y37.576
X26.46 Y37.704
X26.024 Y37.819
X25.586 Y37.922
X25.144 Y38.011
X24.7 Y38.088
X24.255 Y38.151
X23.807 Y38.202
X23.358 Y38.24
X22.908 Y38.264
X22.458 Y38.276
X22.008 Y38.274
X21.557 Y38.26
X21.108 Y38.232
X20.659 Y38.192
X20.212 Y38.139
X19.766 Y38.073
X19.323 Y37.993
X18.882 Y37.901
X18.444 Y37.797
X18.009 Y37.679
X17.577 Y37.55
X17.15 Y37.408
X16.727 Y37.253
X16.308 Y37.087
X15.895 Y36.908
X15.486 Y36.718
X15.084 Y36.517
X14.687 Y36.304
X14.296 Y36.079
X13.912 Y35.844
X13.535 Y35.597
X13.165 Y35.34
X12.803 Y35.072
X12.449 Y34.794
X12.102 Y34.506
X11.765 Y34.208
X11.435 Y33.901
X11.115 Y33.584
X10.804 Y33.258
X10.502 Y32.924
X10.209 Y32.581
X9.927 Y32.231
X9.655 Y31.872
X9.393 Y31.505
X9.142 Y31.131
X8.901 Y30.751
X8.671 Y30.363
X8.453 Y29.969
X8.246 Y29.569
X8.05 Y29.163
X7.866 Y28.752
X7.694 Y28.336
X7.533 Y27.915
X7.385 Y27.49
X7.248 Y27.061
X7.124 Y26.628
X7.012 Y26.191
X6.913 Y25.752
X6.826 Y25.31
X6.752 Y24.866
X6.69 Y24.419
X6.641 Y23.972
X6.605 Y23.523
X6.582 Y23.073
X6.571 Y22.636
Y22.602
X6.593 Y22.152
X6.602 Y21.702
X6.626 Y21.252
X6.664 Y20.803
X6.715 Y20.356
X6.78 Y19.91
X6.857 Y19.466
X6.948 Y19.025
X7.051 Y18.587
X7.167 Y18.151
X7.295 Y17.72
X7.436 Y17.291
X7.588 Y16.868
X7.752 Y16.448
X7.929 Y16.034
X8.116 Y15.624
X8.315 Y15.22
X8.526 Y14.822
X8.748 Y14.43
X8.98 Y14.044
X9.224 Y13.665
X9.478 Y13.294
X9.743 Y12.929
X10.018 Y12.572
X10.303 Y12.223
X10.598 Y11.883
X10.902 Y11.55
X11.215 Y11.227
X11.537 Y10.912
X11.868 Y10.606
X12.208 Y10.31
X12.555 Y10.024
X12.911 Y9.748
X13.275 Y9.482
X13.645 Y9.226
X14.023 Y8.981
X14.408 Y8.746
X14.799 Y8.523
X15.196 Y8.31
X15.599 Y8.109
X16.008 Y7.92
X16.422 Y7.742
X16.84 Y7.575
X17.263 Y7.421
X17.691 Y7.278
X18.122 Y7.148
X18.557 Y7.03
X18.994 Y6.924
X19.435 Y6.831
X19.878 Y6.75
X20.323 Y6.681
X20.77 Y6.626
X21.219 Y6.583
X21.671 Y6.552
X21.698 Y6.551
X22.602 Y6.55
X23.052 Y6.572
X23.503 Y6.582
X23.952 Y6.608
X24.401 Y6.649
X24.848 Y6.705
X25.293 Y6.774
X25.736 Y6.856
X26.176 Y6.951
X26.614 Y7.058
X27.048 Y7.178
X27.478 Y7.311
X27.905 Y7.455
X28.328 Y7.611
X28.746 Y7.779
X29.159 Y7.958
X29.567 Y8.149
X29.97 Y8.35
X30.367 Y8.563
X30.757 Y8.787
X31.142 Y9.022
X31.52 Y9.267
X31.891 Y9.523
X32.255 Y9.788
X32.611 Y10.064
X32.96 Y10.349
X33.3 Y10.644
X33.633 Y10.947
X33.957 Y11.26
X34.273 Y11.582
X34.58 Y11.911
X34.877 Y12.249
X35.165 Y12.596
X35.444 Y12.95
X35.713 Y13.311
X35.972 Y13.68
X36.221 Y14.055
X36.459 Y14.437
X36.687 Y14.826
X36.904 Y15.22
X37.111 Y15.621
X37.306 Y16.027
X37.491 Y16.438
X37.664 Y16.853
X37.826 Y17.274
X37.976 Y17.698
X38.115 Y18.127
X38.241 Y18.559
X38.356 Y18.995
X38.451 Y19.396
X38.461 Y19.451
X38.468 Y19.506
X38.47 Y19.562
Y25.262
X38.447 Y25.712
X38.417 Y26.161
X38.359 Y26.608
X38.277 Y27.051
X38.176 Y27.49
X38.058 Y27.924
X37.924 Y28.355
X37.777 Y28.78
X37.616 Y29.201
X37.443 Y29.617
X37.257 Y30.027
X37.06 Y30.432
X36.852 Y30.832
X36.632 Y31.225
X36.401 Y31.612
X36.16 Y31.992
X35.908 Y32.366
X35.646 Y32.732
X35.374 Y33.091
X35.093 Y33.443
X34.801 Y33.786
X34.501 Y34.122
X34.192 Y34.449
X33.873 Y34.768
X33.547 Y35.078
X33.212 Y35.379
X32.868 Y35.671
X32.517 Y35.953
X32.159 Y36.226
X31.792 Y36.488
X31.419 Y36.74
X31.04 Y36.982
X30.653 Y37.214
X30.261 Y37.435
X29.862 Y37.646
X29.459 Y37.845
X29.05 Y38.034
X28.636 Y38.211
X28.217 Y38.378
X28.166 Y38.396
X28.086 Y38.42
X28.003 Y38.435
X27.919 Y38.44
X21.784 Y38.449
X17.795
X17.345 Y38.426
X17.121 Y38.399
X16.677 Y38.326
X16.24 Y38.217
X15.81 Y38.082
X15.388 Y37.925
X14.973 Y37.75
X14.565 Y37.559
X14.163 Y37.355
X13.769 Y37.137
X13.381 Y36.907
X13.001 Y36.666
X12.628 Y36.414
X12.261 Y36.152
X11.903 Y35.88
X11.551 Y35.598
X11.208 Y35.306
X10.872 Y35.006
X10.545 Y34.697
X10.225 Y34.379
X9.915 Y34.053
X9.613 Y33.718
X9.32 Y33.376
X9.036 Y33.027
X8.761 Y32.669
X8.497 Y32.305
X8.242 Y31.933
X7.997 Y31.555
X7.763 Y31.171
X7.538 Y30.78
X7.324 Y30.384
X7.12 Y29.982
X6.928 Y29.575
X6.745 Y29.163
X6.634 Y28.893
X6.604 Y28.805
X6.586 Y28.713
X6.58 Y28.619
X6.571 Y22.636
Y22.635
G3 X7.177 Y22.541 I0.31 J0
G1 X7.355 Y23.103
G3 X6.794 Y23.356 I-0.295 J0.094
X6.571 Y22.602 I1.359 J-0.811
G1 X6.57 Y21.579
Y17.795
Y17.488
X6.593 Y17.038
X6.64 Y16.662
X6.732 Y16.221
X6.857 Y15.789
X7.008 Y15.364
X7.179 Y14.948
X7.368 Y14.539
X7.573 Y14.137
X7.79 Y13.743
X8.02 Y13.356
X8.262 Y12.976
X8.514 Y12.602
X8.777 Y12.237
X9.05 Y11.878
X9.333 Y11.527
X9.624 Y11.184
X9.926 Y10.849
X10.235 Y10.522
X10.554 Y10.204
X10.88 Y9.893
X11.215 Y9.592
X11.558 Y9.3
X11.908 Y9.016
X12.265 Y8.742
X12.63 Y8.477
X13.001 Y8.222
X13.379 Y7.977
X13.763 Y7.742
X14.153 Y7.517
X14.549 Y7.302
X14.951 Y7.098
X15.358 Y6.905
X15.769 Y6.722
X16.032 Y6.614
X16.121 Y6.584
X16.213 Y6.565
X16.306 Y6.559
X21.698 Y6.551
X21.699
G3 X21.699 Y7.171 I0 J0.31
X21.699 Y6.551 I0 J-0.31
X21.853 Y6.592 I0 J0.31
G1 X22.162 Y6.77
G3 X22.318 Y7.038 I-0.154 J0.269
G1 Y7.039
G3 X21.698 Y7.039 I-0.31 J0
X21.849 Y6.772 I0.31 J0
X22.602 Y6.55 I0.811 J1.359
G1 X23.625 Y6.549
X27.205
X27.614 Y6.55
X28.06 Y6.572
X28.445 Y6.623
X28.885 Y6.717
X29.317 Y6.844
X29.741 Y6.996
X30.158 Y7.168
X30.566 Y7.358
X30.968 Y7.562
X31.362 Y7.78
X31.75 Y8.009
X32.13 Y8.25
X32.504 Y8.502
X32.87 Y8.763
X33.23 Y9.035
X33.582 Y9.316
X33.926 Y9.606
X34.263 Y9.905
X34.592 Y10.213
X34.913 Y10.529
X35.226 Y10.853
X35.531 Y11.185
X35.827 Y11.524
X36.114 Y11.871
X36.393 Y12.225
X36.662 Y12.586
X36.922 Y12.954
X37.173 Y13.328
X37.414 Y13.709
X37.645 Y14.095
X37.866 Y14.488
X38.077 Y14.886
X38.278 Y15.289
X38.401 Y15.552
X38.438 Y15.65
X38.461 Y15.753
X38.469 Y15.858
X38.47 Y17.59
Y19.562
G3 X37.9 Y19.719 I-0.31 J-0.011
G1 X37.862 Y19.661 Z-1.992
X37.827 Y19.606 Z-1.969
X37.795 Y19.556 Z-1.932
X37.768 Y19.515 Z-1.883
X37.748 Y19.484 Z-1.825
X37.736 Y19.465 Z-1.759
X37.731 Y19.458 Z-1.69
G0 Z2.5
X26.594 Y6.929
Z-1.38
G1 Z-1.69 F1000
X26.601 Y6.925 Z-1.759
X26.621 Y6.913 Z-1.825
X26.652 Y6.894 Z-1.883
X26.695 Y6.869 Z-1.932
X26.745 Y6.839 Z-1.969
X26.801 Y6.806 Z-1.992
X26.861 Y6.771 Z-2
G3 X27.614 Y6.55 I0.808 J1.361
G1 X28.535 Y6.551
X29.456 Y6.553
X29.762 Y6.555
X29.865 Y6.557
X30.274 Y6.566
X30.376 Y6.568
X30.732 Y6.595
X31.016 Y6.639
X31.346 Y6.718
X31.748 Y6.849
X32.164 Y7.023
X32.567 Y7.224
X32.959 Y7.446
X33.34 Y7.686
X33.712 Y7.941
X34.074 Y8.208
X34.428 Y8.486
X34.775 Y8.775
X35.113 Y9.072
X35.443 Y9.379
X35.765 Y9.694
X36.079 Y10.017
X36.385 Y10.347
X36.683 Y10.685
X36.973 Y11.03
X37.254 Y11.382
X37.526 Y11.741
X37.79 Y12.106
X38.045 Y12.477
X38.296 Y12.863
X38.352 Y12.974
X38.389 Y13.094
X38.404 Y13.218
X38.45 Y14.521
X38.459 Y14.828
X38.467 Y15.544
X38.469 Y15.858
G3 X37.899 Y16.015 I-0.31 J-0.011
G1 X37.861 Y15.958 Z-1.992
X37.826 Y15.903 Z-1.969
X37.794 Y15.853 Z-1.932
X37.767 Y15.812 Z-1.883
X37.747 Y15.781 Z-1.825
X37.735 Y15.762 Z-1.759
X37.73 Y15.755 Z-1.69
G0 Z2.5
X38.09 Y24.242
Z-1.38
G1 Z-1.69 F1000
X38.094 Y24.248 Z-1.759
X38.106 Y24.268 Z-1.825
X38.125 Y24.3 Z-1.883
X38.15 Y24.342 Z-1.932
X38.18 Y24.393 Z-1.969
X38.213 Y24.449 Z-1.992
X38.249 Y24.508 Z-2
G3 X38.47 Y25.262 I-1.36 J0.809
G1 X38.469 Y28.024
Y28.535
X38.467 Y28.944
X38.444 Y29.37
X38.399 Y29.707
X38.31 Y30.116
X38.179 Y30.547
X38.019 Y30.968
X37.836 Y31.379
X37.634 Y31.782
X37.417 Y32.177
X37.185 Y32.563
X36.942 Y32.942
X36.686 Y33.313
X36.421 Y33.677
X36.145 Y34.033
X35.859 Y34.381
X35.565 Y34.722
X35.261 Y35.055
X34.949 Y35.38
X34.629 Y35.697
X34.301 Y36.005
X33.965 Y36.305
X33.622 Y36.597
X33.271 Y36.879
X32.913 Y37.153
X32.548 Y37.417
X32.176 Y37.672
X31.798 Y37.917
X31.414 Y38.152
X31.111 Y38.327
X31.006 Y38.377
X30.894 Y38.41
X30.777 Y38.424
X30.581 Y38.431
X30.479 Y38.434
X30.172 Y38.437
X27.919 Y38.44
X27.133 Y38.441
X18.58 Y38.448
X17.795 Y38.449
X16.772 Y38.448
X15.544 Y38.445
X15.238 Y38.442
X15.135 Y38.441
X14.931 Y38.436
X14.551 Y38.409
X14.269 Y38.365
X13.926 Y38.284
X13.512 Y38.15
X13.096 Y37.978
X12.692 Y37.778
X12.3 Y37.557
X11.917 Y37.32
X11.544 Y37.067
X11.18 Y36.802
X10.824 Y36.526
X10.476 Y36.239
X10.137 Y35.943
X9.806 Y35.638
X9.483 Y35.324
X9.169 Y35.001
X8.862 Y34.671
X8.565 Y34.333
X8.276 Y33.987
X7.995 Y33.635
X7.724 Y33.275
X7.462 Y32.909
X7.209 Y32.536
X6.965 Y32.158
X6.73 Y31.773
X6.719 Y31.754
X6.67 Y31.649
X6.638 Y31.538
X6.623 Y31.424
X6.588 Y30.581
X6.585 Y30.479
X6.582 Y30.172
X6.58 Y28.619
G3 X7.15 Y28.461 I0.31 J0.01
G1 X7.188 Y28.519 Z-1.992
X7.223 Y28.574 Z-1.969
X7.255 Y28.623 Z-1.932
X7.282 Y28.665 Z-1.883
X7.302 Y28.696 Z-1.825
X7.314 Y28.715 Z-1.759
X7.319 Y28.721 Z-1.69
G0 Z2.5
X6.95 Y18.508
Z-1.38
G1 Z-1.69 F1000
X6.946 Y18.501 Z-1.759
X6.934 Y18.482 Z-1.825
X6.915 Y18.45 Z-1.883
X6.89 Y18.408 Z-1.932
X6.86 Y18.357 Z-1.969
X6.827 Y18.301 Z-1.992
X6.792 Y18.242 Z-2
G3 X6.57 Y17.488 I1.361 J-0.808
G1 X6.571 Y16.67
X6.574 Y15.544
X6.577 Y15.238
X6.578 Y15.135
X6.587 Y14.726
X6.615 Y14.358
X6.658 Y14.076
X6.737 Y13.748
X6.867 Y13.351
X7.04 Y12.935
X7.242 Y12.532
X7.465 Y12.141
X7.706 Y11.76
X7.962 Y11.39
X8.23 Y11.028
X8.51 Y10.675
X8.8 Y10.331
X9.1 Y9.994
X9.409 Y9.667
X9.726 Y9.347
X10.052 Y9.035
X10.385 Y8.732
X10.726 Y8.438
X11.074 Y8.152
X11.429 Y7.875
X11.791 Y7.607
X12.16 Y7.348
X12.535 Y7.098
X12.915 Y6.858
X13.165 Y6.708
X13.273 Y6.656
X13.387 Y6.621
X13.506 Y6.606
X14.419 Y6.567
X14.521 Y6.564
X14.828 Y6.561
X16.306 Y6.559
G3 X16.495 Y7.107 I-0.01 J0.31
G1 X16.466 Y7.131
X7.162 Y14.905
X7.096 Y14.961
G3 X6.587 Y14.726 I-0.199 J-0.238
G1 X6.609 Y13.805
X6.618 Y13.499
X6.63 Y13.192
X6.635 Y13.089
X6.654 Y12.783
X6.675 Y12.476
X6.684 Y12.373
X6.693 Y12.271
X6.737 Y11.951
X6.793 Y11.702
X6.882 Y11.412
X7.021 Y11.065
X7.221 Y10.661
X7.452 Y10.274
X7.706 Y9.903
X7.978 Y9.544
X8.265 Y9.197
X8.565 Y8.861
X8.875 Y8.534
X9.195 Y8.217
X9.524 Y7.909
X9.861 Y7.61
X10.206 Y7.32
X10.558 Y7.039
X10.627 Y6.986
X10.721 Y6.925
X10.823 Y6.88
X10.931 Y6.851
G3 X11.223 Y7.347 I0.047 J0.306
G1 X11.194 Y7.384
X7.247 Y12.478
G3 X6.693 Y12.271 I-0.245 J-0.19
G1 X6.702 Y12.169
X6.711 Y12.067
X6.743 Y11.76
X6.78 Y11.453
X6.795 Y11.351
X6.842 Y11.044
X6.892 Y10.737
X6.959 Y10.43
X6.982 Y10.328
X7.03 Y10.123
X7.056 Y10.021
X7.149 Y9.714
X7.259 Y9.384
X7.292 Y9.305
X7.379 Y9.1
X7.426 Y8.998
X7.588 Y8.691
X7.648 Y8.589
X7.668 Y8.557
X7.787 Y8.384
X7.866 Y8.282
X7.975 Y8.152
X8.04 Y8.077
X8.077 Y8.036
X8.14 Y7.975
X8.282 Y7.853
X8.385 Y7.77
X8.531 Y7.668
X8.589 Y7.636
X8.793 Y7.528
X8.998 Y7.422
X9.115 Y7.361
X9.202 Y7.317
X9.367 Y7.259
X9.714 Y7.145
X10.021 Y7.05
X10.123 Y7.022
X10.225 Y6.995
X10.328 Y6.97
X10.404 Y6.952
X10.737 Y6.887
X11.044 Y6.83
X11.146 Y6.812
X11.351 Y6.779
X11.453 Y6.763
X11.76 Y6.725
X12.067 Y6.693
X12.373 Y6.664
X12.476 Y6.656
X12.783 Y6.637
X13.506 Y6.606
G3 X13.687 Y7.169 I0.002 J0.31
G1 X13.631 Y7.209 Z-1.992
X13.577 Y7.247 Z-1.969
X13.529 Y7.281 Z-1.932
X13.489 Y7.309 Z-1.883
X13.459 Y7.331 Z-1.825
X13.44 Y7.344 Z-1.759
X13.434 Y7.348 Z-1.69
G0 Z2.5
X29.347 Y6.923
Z-1.38
G1 Z-1.69 F1000
X29.354 Y6.919 Z-1.759
X29.374 Y6.908 Z-1.825
X29.406 Y6.89 Z-1.883
X29.449 Y6.866 Z-1.932
X29.5 Y6.837 Z-1.969
X29.557 Y6.805 Z-1.992
X29.618 Y6.771 Z-2
G3 X30.376 Y6.568 I0.776 J1.379
G1 X31.195 Y6.588
X31.501 Y6.597
X31.808 Y6.608
X31.911 Y6.613
X32.217 Y6.631
X32.32 Y6.638
X32.524 Y6.653
X32.627 Y6.661
X32.831 Y6.679
X33.173 Y6.728
X33.428 Y6.786
X33.722 Y6.878
X34.075 Y7.02
X34.478 Y7.221
X34.865 Y7.453
X35.237 Y7.707
X35.596 Y7.979
X35.944 Y8.265
X36.281 Y8.564
X36.609 Y8.873
X36.927 Y9.191
X37.237 Y9.518
X37.539 Y9.853
X37.832 Y10.195
X37.991 Y10.391
X38.055 Y10.482
X38.103 Y10.582
X38.136 Y10.689
G3 X37.646 Y10.994 I-0.305 J0.057
G1 X37.612 Y10.969
X32.629 Y7.237
G3 X32.831 Y6.679 I0.186 J-0.248
G1 X32.933 Y6.688
X33.24 Y6.72
X33.547 Y6.756
X33.649 Y6.771
X33.854 Y6.805
X33.956 Y6.822
X34.57 Y6.938
X34.672 Y6.958
X34.775 Y6.98
X34.877 Y7.008
X34.979 Y7.037
X35.593 Y7.228
X35.678 Y7.259
X35.798 Y7.307
X35.926 Y7.361
X36.002 Y7.397
X36.309 Y7.556
X36.327 Y7.566
X36.411 Y7.616
X36.497 Y7.668
X36.646 Y7.77
X36.718 Y7.829
X36.923 Y8
X37.008 Y8.077
X37.23 Y8.338
X37.263 Y8.384
X37.334 Y8.486
X37.392 Y8.589
X37.448 Y8.691
X37.659 Y9.1
X37.705 Y9.202
X37.744 Y9.305
X37.782 Y9.407
X37.887 Y9.714
X37.982 Y10.021
X38.008 Y10.123
X38.147 Y10.737
X38.197 Y11.044
X38.212 Y11.146
X38.252 Y11.419
X38.297 Y11.76
X38.328 Y12.067
X38.356 Y12.373
X38.365 Y12.476
X38.388 Y12.783
X38.404 Y13.218
G0 Z2.5
X38.092 Y27.923
Z-1.38
G1 Z-1.69 F1000
X38.096 Y27.929 Z-1.759
X38.107 Y27.949 Z-1.825
X38.126 Y27.981 Z-1.883
X38.151 Y28.023 Z-1.932
X38.181 Y28.074 Z-1.969
X38.214 Y28.13 Z-1.992
X38.249 Y28.19 Z-2
G3 X38.467 Y28.944 I-1.363 J0.803
G1 X38.465 Y29.558
X38.461 Y29.967
X38.459 Y30.172
X38.433 Y31.195
X38.422 Y31.501
X38.417 Y31.604
X38.38 Y31.973
X38.33 Y32.247
X38.245 Y32.563
X38.109 Y32.945
X37.924 Y33.356
X37.711 Y33.753
X37.476 Y34.137
X37.224 Y34.51
X36.957 Y34.873
X36.677 Y35.226
X36.386 Y35.57
X36.086 Y35.906
X35.776 Y36.233
X35.458 Y36.551
X35.131 Y36.862
X34.797 Y37.164
X34.456 Y37.458
X34.107 Y37.743
X33.751 Y38.019
X33.585 Y38.141
X33.48 Y38.206
X33.364 Y38.252
X33.243 Y38.278
G3 X33.018 Y37.73 I-0.026 J-0.309
G1 X33.071 Y37.686 Z-1.992
X33.121 Y37.644 Z-1.969
X33.167 Y37.607 Z-1.932
X33.204 Y37.575 Z-1.883
X33.233 Y37.552 Z-1.825
X33.25 Y37.537 Z-1.759
X33.256 Y37.532 Z-1.69
G0 Z2.5
X38.085 Y30.567
Z-1.38
G1 Z-1.69 F1000
X38.089 Y30.574 Z-1.759
X38.099 Y30.594 Z-1.825
X38.117 Y30.627 Z-1.883
X38.14 Y30.67 Z-1.932
X38.168 Y30.722 Z-1.969
X38.198 Y30.78 Z-1.992
X38.231 Y30.841 Z-2
G3 X38.417 Y31.604 I-1.396 J0.745
G1 X38.407 Y31.808
X38.401 Y31.911
X38.337 Y32.831
X38.329 Y32.933
X38.292 Y33.24
X38.147 Y34.263
X38.096 Y34.468
X37.972 Y34.88
X37.853 Y35.186
X37.677 Y35.548
X37.448 Y35.936
X37.191 Y36.307
X36.915 Y36.662
X36.622 Y37.005
X36.316 Y37.335
X36.193 Y37.459
X36.139 Y37.509
X36.079 Y37.553
X36.015 Y37.591
G3 X35.622 Y37.141 I-0.134 J-0.28
G1 X37.534 Y34.234
G3 X38.096 Y34.468 I0.259 J0.17
G1 X38.071 Y34.57
X37.993 Y34.877
X37.888 Y35.286
X37.787 Y35.593
X37.749 Y35.695
X37.708 Y35.798
X37.665 Y35.9
X37.639 Y35.959
X37.618 Y36.002
X37.46 Y36.309
X37.434 Y36.35
X37.329 Y36.514
X37.26 Y36.616
X37.23 Y36.661
X37.005 Y36.923
X36.923 Y37.004
X36.718 Y37.175
X36.653 Y37.23
X36.506 Y37.332
X36.411 Y37.384
X36.002 Y37.598
X35.9 Y37.65
X35.798 Y37.696
X35.375 Y37.843
X35.286 Y37.874
X34.979 Y37.964
X34.877 Y37.99
X34.57 Y38.062
X34.263 Y38.132
X33.649 Y38.226
X33.547 Y38.241
X33.24 Y38.278
X32.933 Y38.309
X32.627 Y38.337
X32.524 Y38.345
X32.217 Y38.363
X30.785 Y38.424
X30.777
G3 X30.598 Y37.86 I-0.001 J-0.31
G1 X30.655 Y37.82 Z-1.992
X30.708 Y37.783 Z-1.969
X30.756 Y37.749 Z-1.932
X30.797 Y37.721 Z-1.883
X30.827 Y37.7 Z-1.825
X30.846 Y37.686 Z-1.759
X30.852 Y37.682 Z-1.69
G0 Z2.5
X15.959 Y38.079
Z-1.38
G1 Z-1.69 F1000
X15.952 Y38.083 Z-1.759
X15.932 Y38.094 Z-1.825
X15.9 Y38.112 Z-1.883
X15.857 Y38.136 Z-1.932
X15.806 Y38.165 Z-1.969
X15.749 Y38.198 Z-1.992
X15.689 Y38.232 Z-2
G3 X14.931 Y38.436 I-0.779 J-1.378
G1 X13.805 Y38.409
X13.499 Y38.4
X13.192 Y38.388
X13.089 Y38.383
X12.783 Y38.364
X12.476 Y38.342
X12.119 Y38.294
X11.866 Y38.24
X11.571 Y38.15
X11.218 Y38.011
X10.813 Y37.813
X10.425 Y37.585
X10.051 Y37.334
X9.69 Y37.064
X9.34 Y36.78
X9.001 Y36.484
X8.672 Y36.176
X8.352 Y35.859
X8.042 Y35.533
X7.74 Y35.199
X7.447 Y34.857
X7.162 Y34.507
X6.985 Y34.279
X6.919 Y34.176
X6.871 Y34.064
X6.842 Y33.946
G3 X7.339 Y33.664 I0.308 J-0.036
G1 X7.385 Y33.699
X12.673 Y37.785
X12.677 Y37.787
G3 X12.476 Y38.342 I-0.19 J0.245
G1 X12.373 Y38.334
X12.169 Y38.315
X12.067 Y38.306
X11.76 Y38.273
X11.453 Y38.236
X11.351 Y38.221
X11.146 Y38.19
X11.044 Y38.174
X10.737 Y38.123
X10.328 Y38.033
X10.225 Y38.009
X10.123 Y37.984
X10.021 Y37.957
X9.714 Y37.864
X9.407 Y37.759
X9.357 Y37.741
X9.1 Y37.631
X8.998 Y37.584
X8.691 Y37.419
X8.589 Y37.358
X8.546 Y37.332
X8.384 Y37.216
X8.282 Y37.136
X8.15 Y37.025
X8.077 Y36.96
X8.039 Y36.923
X7.975 Y36.855
X7.859 Y36.718
X7.779 Y36.616
X7.668 Y36.449
X7.646 Y36.411
X7.433 Y36.002
X7.383 Y35.9
X7.335 Y35.798
X7.295 Y35.695
X7.152 Y35.286
X7.054 Y34.961
X7.034 Y34.877
X6.891 Y34.263
X6.796 Y33.649
X6.782 Y33.547
X6.743 Y33.24
X6.712 Y32.933
X6.684 Y32.627
X6.676 Y32.524
X6.657 Y32.217
X6.623 Y31.424
G3 X6.92 Y31.112 I0.31 J-0.002
G1 X6.933 Y31.111
X6.986 Y31.125 Z-1.992
X7.036 Y31.138 Z-1.975
X7.083 Y31.15 Z-1.949
X7.118 Y31.181 Z-1.911
X7.147 Y31.207 Z-1.863
X7.169 Y31.226 Z-1.81
X7.182 Y31.238 Z-1.751
X7.187 Y31.242 Z-1.69
G0 Z2.5
X35.053 Y7.271
Z-1.28
G1 Z-1.59 F1000
X35.061 Y7.272 Z-1.659
X35.084 Y7.275 Z-1.725
X35.12 Y7.281 Z-1.783
X35.168 Y7.289 Z-1.832
X35.226 Y7.298 Z-1.869
X35.291 Y7.309 Z-1.892
X35.359 Y7.32 Z-1.9
G3 X36.923 Y8 I-0.546 J3.392
G1 X37.008 Y8.077
X37.23 Y8.338
X37.263 Y8.384
X37.334 Y8.486
X37.392 Y8.589
G3 X36.969 Y9.002 I-0.276 J0.141
G1 X36.908 Y8.97 Z-1.892
X36.851 Y8.939 Z-1.869
X36.799 Y8.911 Z-1.832
X36.756 Y8.888 Z-1.783
X36.723 Y8.87 Z-1.725
X36.703 Y8.86 Z-1.659
X36.696 Y8.856 Z-1.59
G0 Z2.5
X37.789 Y34.68
Z-1.28
G1 Z-1.59 F1000
Y34.688 Z-1.659
X37.788 Y34.711 Z-1.725
X37.786 Y34.748 Z-1.783
X37.783 Y34.797 Z-1.832
X37.78 Y34.855 Z-1.869
X37.776 Y34.921 Z-1.892
X37.773 Y34.99 Z-1.9
G3 X37.261 Y36.616 I-3.431 J-0.187
G1 X37.23 Y36.661
X37.005 Y36.923
X36.923 Y37.004
X36.718 Y37.175
X36.653 Y37.23
X36.506 Y37.332
X36.411 Y37.384
G3 X36.003 Y37.249 I-0.134 J-0.279
G1 X35.99 Y37.199 Z-1.895
X35.978 Y37.15 Z-1.882
X35.967 Y37.104 Z-1.861
X35.979 Y37.059 Z-1.829
X35.989 Y37.021 Z-1.789
X35.996 Y36.99 Z-1.742
X36.002 Y36.967 Z-1.691
X36.006 Y36.955 Z-1.636
X36.007 Y36.952 Z-1.59
G0 Z2.5
X35.053 Y7.271
Z-1.18
G1 Z-1.49 F1000
X35.061 Y7.272 Z-1.559
X35.084 Y7.275 Z-1.625
X35.12 Y7.281 Z-1.683
X35.168 Y7.289 Z-1.732
X35.226 Y7.298 Z-1.769
X35.291 Y7.309 Z-1.792
X35.359 Y7.32 Z-1.8
G3 X36.923 Y8 I-0.546 J3.392
G1 X37.008 Y8.077
X37.23 Y8.338
X37.263 Y8.384
X37.334 Y8.486
X37.392 Y8.589
G3 X36.969 Y9.002 I-0.276 J0.14
G1 X36.908 Y8.97 Z-1.792
X36.851 Y8.939 Z-1.769
X36.799 Y8.911 Z-1.732
X36.756 Y8.888 Z-1.683
X36.723 Y8.87 Z-1.625
X36.703 Y8.86 Z-1.559
X36.696 Y8.856 Z-1.49
G0 Z2.5
X37.789 Y34.68
Z-1.18
G1 Z-1.49 F1000
Y34.688 Z-1.559
X37.788 Y34.711 Z-1.625
X37.786 Y34.747 Z-1.683
X37.783 Y34.796 Z-1.732
X37.78 Y34.855 Z-1.769
X37.776 Y34.921 Z-1.792
X37.772 Y34.989 Z-1.8
G3 X37.261 Y36.616 I-3.431 J-0.186
G1 X37.23 Y36.661
X37.005 Y36.923
X36.923 Y37.004
X36.718 Y37.175
X36.653 Y37.23
X36.506 Y37.332
X36.411 Y37.384
G3 X36.003 Y37.249 I-0.134 J-0.279
G1 X35.99 Y37.199 Z-1.795
X35.978 Y37.15 Z-1.782
X35.967 Y37.104 Z-1.761
X35.979 Y37.059 Z-1.729
X35.989 Y37.021 Z-1.689
X35.997 Y36.99 Z-1.642
X36.002 Y36.967 Z-1.591
X36.006 Y36.955 Z-1.536
X36.007 Y36.952 Z-1.49
G0 Z2.5
X35.053 Y7.271
Z-1.08
G1 Z-1.39 F1000
X35.061 Y7.272 Z-1.459
X35.084 Y7.275 Z-1.525
X35.12 Y7.281 Z-1.583
X35.168 Y7.289 Z-1.632
X35.226 Y7.298 Z-1.669
X35.291 Y7.309 Z-1.692
X35.359 Y7.32 Z-1.7
G3 X36.923 Y8 I-0.546 J3.392
G1 X37.008 Y8.077
X37.23 Y8.338
X37.263 Y8.384
X37.334 Y8.486
X37.392 Y8.589
G3 X36.969 Y9.002 I-0.276 J0.14
G1 X36.908 Y8.97 Z-1.692
X36.851 Y8.939 Z-1.669
X36.799 Y8.911 Z-1.632
X36.756 Y8.888 Z-1.583
X36.723 Y8.87 Z-1.525
X36.703 Y8.859 Z-1.459
X36.696 Y8.856 Z-1.39
G0 Z2.5
X37.789 Y34.68
Z-1.08
G1 Z-1.39 F1000
X37.788 Y34.688 Z-1.459
X37.787 Y34.711 Z-1.525
X37.785 Y34.747 Z-1.583
X37.783 Y34.796 Z-1.632
X37.779 Y34.855 Z-1.669
X37.776 Y34.921 Z-1.692
X37.772 Y34.989 Z-1.7
G3 X37.261 Y36.616 I-3.431 J-0.185
G1 X37.23 Y36.661
X37.005 Y36.923
X36.923 Y37.004
X36.718 Y37.175
X36.653 Y37.23
X36.506 Y37.332
X36.411 Y37.384
G3 X36.003 Y37.249 I-0.134 J-0.279
G1 X35.99 Y37.199 Z-1.695
X35.978 Y37.15 Z-1.682
X35.967 Y37.104 Z-1.661
X35.979 Y37.059 Z-1.629
X35.989 Y37.021 Z-1.589
X35.997 Y36.99 Z-1.543
X36.002 Y36.967 Z-1.491
X36.006 Y36.955 Z-1.436
X36.007 Y36.951 Z-1.39
G0 Z2.5
X35.053 Y7.271
Z-0.98
G1 Z-1.29 F1000
X35.061 Y7.272 Z-1.359
X35.084 Y7.275 Z-1.425
X35.12 Y7.281 Z-1.483
X35.168 Y7.289 Z-1.532
X35.226 Y7.298 Z-1.569
X35.291 Y7.309 Z-1.592
X35.359 Y7.32 Z-1.6
G3 X36.923 Y8 I-0.546 J3.392
G1 X37.008 Y8.077
X37.23 Y8.338
X37.263 Y8.384
X37.334 Y8.486
X37.392 Y8.589
G3 X36.969 Y9.002 I-0.276 J0.14
G1 X36.908 Y8.97 Z-1.592
X36.851 Y8.939 Z-1.569
X36.799 Y8.911 Z-1.532
X36.756 Y8.888 Z-1.483
X36.723 Y8.87 Z-1.425
X36.703 Y8.859 Z-1.359
X36.696 Y8.856 Z-1.29
G0 Z2.5
X37.789 Y34.68
Z-0.98
G1 Z-1.29 F1000
X37.788 Y34.688 Z-1.359
X37.787 Y34.71 Z-1.425
X37.785 Y34.747 Z-1.483
X37.782 Y34.796 Z-1.532
X37.779 Y34.855 Z-1.569
X37.776 Y34.92 Z-1.592
X37.772 Y34.989 Z-1.6
G3 X37.261 Y36.616 I-3.431 J-0.185
G1 X37.23 Y36.661
X37.005 Y36.923
X36.923 Y37.004
X36.718 Y37.175
X36.653 Y37.23
X36.506 Y37.332
X36.411 Y37.384
G3 X36.003 Y37.249 I-0.134 J-0.279
G1 X35.99 Y37.199 Z-1.595
X35.978 Y37.15 Z-1.582
X35.967 Y37.104 Z-1.561
X35.979 Y37.059 Z-1.529
X35.989 Y37.021 Z-1.489
X35.997 Y36.99 Z-1.443
X36.002 Y36.967 Z-1.391
X36.006 Y36.955 Z-1.336
X36.007 Y36.951 Z-1.29
G0 Z2.5
X35.053 Y7.271
Z-0.88
G1 Z-1.19 F1000
X35.061 Y7.272 Z-1.259
X35.084 Y7.275 Z-1.325
X35.12 Y7.281 Z-1.383
X35.168 Y7.289 Z-1.432
X35.226 Y7.298 Z-1.469
X35.291 Y7.309 Z-1.492
X35.359 Y7.32 Z-1.5
G3 X36.923 Y8 I-0.546 J3.392
G1 X37.008 Y8.077
X37.23 Y8.338
X37.263 Y8.384
X37.334 Y8.486
X37.392 Y8.589
G3 X36.969 Y9.002 I-0.276 J0.14
G1 X36.908 Y8.97 Z-1.492
X36.851 Y8.939 Z-1.469
X36.799 Y8.911 Z-1.432
X36.756 Y8.888 Z-1.383
X36.723 Y8.87 Z-1.325
X36.703 Y8.859 Z-1.259
X36.696 Y8.856 Z-1.19
G0 Z2.5
X37.788 Y34.68
Z-0.88
G1 Z-1.19 F1000
Y34.687 Z-1.259
X37.787 Y34.71 Z-1.325
X37.785 Y34.747 Z-1.383
X37.782 Y34.796 Z-1.432
X37.779 Y34.855 Z-1.469
X37.775 Y34.92 Z-1.492
X37.772 Y34.989 Z-1.5
G3 X37.261 Y36.616 I-3.431 J-0.184
G1 X37.23 Y36.661
X37.005 Y36.923
X36.923 Y37.004
X36.718 Y37.175
X36.653 Y37.23
X36.506 Y37.332
X36.411 Y37.384
G3 X36.003 Y37.249 I-0.134 J-0.279
G1 X35.99 Y37.199 Z-1.495
X35.978 Y37.15 Z-1.482
X35.967 Y37.104 Z-1.461
X35.981 Y37.049 Z-1.42
X35.993 Y37.004 Z-1.367
X36.001 Y36.972 Z-1.305
X36.006 Y36.955 Z-1.237
X36.007 Y36.951 Z-1.19
G0 Z2.5
X35.053 Y7.271
Z-0.78
G1 Z-1.09 F1000
X35.061 Y7.272 Z-1.159
X35.084 Y7.275 Z-1.225
X35.12 Y7.281 Z-1.283
X35.168 Y7.289 Z-1.332
X35.226 Y7.298 Z-1.369
X35.291 Y7.309 Z-1.392
X35.359 Y7.32 Z-1.4
G3 X36.923 Y8 I-0.546 J3.392
G1 X37.008 Y8.077
X37.23 Y8.338
X37.263 Y8.384
X37.334 Y8.486
X37.392 Y8.589
G3 X36.969 Y9.002 I-0.276 J0.14
G1 X36.908 Y8.969 Z-1.392
X36.85 Y8.938 Z-1.369
X36.799 Y8.911 Z-1.332
X36.755 Y8.887 Z-1.283
X36.723 Y8.87 Z-1.225
X36.703 Y8.859 Z-1.159
X36.696 Y8.855 Z-1.09
G0 Z2.5
X37.813 Y34.223
Z-0.78
G1 Z-1.09 F1000
Y34.23 Z-1.159
X37.815 Y34.253 Z-1.225
X37.817 Y34.29 Z-1.283
X37.82 Y34.339 Z-1.332
X37.824 Y34.398 Z-1.369
X37.828 Y34.463 Z-1.392
X37.832 Y34.532 Z-1.4
G3 X37.513 Y36.207 I-3.429 J0.213
G1 X37.46 Y36.309
X37.434 Y36.35
X37.329 Y36.514
X37.261 Y36.616
X37.23 Y36.661
X37.005 Y36.923
X36.923 Y37.004
X36.653 Y37.23
X36.506 Y37.332
X36.411 Y37.384
G3 X36.143 Y36.825 I-0.134 J-0.28
X36.442 Y36.842 I0.134 J0.28
G1 X36.481 Y36.875
X36.509 Y36.919
X36.523 Y36.968
Y37.02
X36.507 Y37.069
X36.491 Y37.098
G3 X35.922 Y37.639 I-1.341 J-0.84
G1 X35.9 Y37.65
X35.798 Y37.696
X35.695 Y37.732
G3 X35.311 Y37.539 I-0.092 J-0.296
G1 X35.302 Y37.487 Z-1.395
X35.293 Y37.436 Z-1.382
X35.308 Y37.377 Z-1.352
X35.321 Y37.327 Z-1.309
X35.332 Y37.286 Z-1.257
X35.346 Y37.264 Z-1.205
X35.355 Y37.25 Z-1.148
X35.358 Y37.245 Z-1.09
G0 Z2.5
X35.053 Y7.271
Z-0.68
G1 Z-0.99 F1000
X35.061 Y7.272 Z-1.059
X35.084 Y7.275 Z-1.125
X35.12 Y7.281 Z-1.183
X35.168 Y7.289 Z-1.232
X35.226 Y7.298 Z-1.269
X35.291 Y7.309 Z-1.292
X35.359 Y7.32 Z-1.3
G3 X36.923 Y8 I-0.546 J3.392
G1 X37.008 Y8.077
X37.23 Y8.338
X37.263 Y8.384
X37.335 Y8.486
X37.392 Y8.589
G3 X36.969 Y9.002 I-0.277 J0.14
G1 X36.908 Y8.969 Z-1.292
X36.85 Y8.938 Z-1.269
X36.799 Y8.91 Z-1.232
X36.755 Y8.887 Z-1.183
X36.723 Y8.869 Z-1.125
X36.703 Y8.858 Z-1.059
X36.696 Y8.855 Z-0.99
G0 Z2.5
X37.811 Y34.222
Z-0.68
G1 Z-0.99 F1000
X37.812 Y34.23 Z-1.059
X37.813 Y34.253 Z-1.125
X37.815 Y34.29 Z-1.183
X37.818 Y34.339 Z-1.232
X37.822 Y34.397 Z-1.269
X37.826 Y34.463 Z-1.292
X37.831 Y34.532 Z-1.3
G3 X37.513 Y36.207 I-3.429 J0.217
G1 X37.461 Y36.309
X37.434 Y36.351
X37.329 Y36.514
X37.261 Y36.616
X37.23 Y36.662
X37.005 Y36.923
X36.923 Y37.004
X36.653 Y37.23
X36.507 Y37.332
X36.411 Y37.384
G3 X36.144 Y36.825 I-0.134 J-0.28
X36.44 Y36.841 I0.134 J0.28
G1 X36.48 Y36.874
X36.508 Y36.917
X36.523 Y36.967
