(202)
(Wasbak cavity)
(T1  D=3.1 CR=0 - ZMIN=-9.999 - flat end mill)
G90 G94
G17
G21

(Adaptive3)
S5000 M3
G54
G0 Z10
G0 X31.311 Y31.762
G3 X29.795 Y29.238 Z2.339 I-0.758 J-1.262 F333.3
X31.311 Y31.762 Z2.178 I0.758 J1.262
X29.795 Y29.238 Z2.016 I-0.758 J-1.262
X31.311 Y31.762 Z1.855 I0.758 J1.262
X29.795 Y29.238 Z1.693 I-0.758 J-1.262
X31.311 Y31.762 Z1.532 I0.758 J1.262
X29.795 Y29.238 Z1.37 I-0.758 J-1.262
X31.311 Y31.762 Z1.209 I0.758 J1.262
X29.795 Y29.238 Z1.047 I-0.758 J-1.262
X31.311 Y31.762 Z0.886 I0.758 J1.262
X29.795 Y29.238 Z0.724 I-0.758 J-1.262
X31.311 Y31.762 Z0.562 I0.758 J1.262
X29.795 Y29.238 Z0.401 I-0.758 J-1.262
X31.311 Y31.762 Z0.239 I0.758 J1.262
X29.795 Y29.238 Z0.078 I-0.758 J-1.262
X31.311 Y31.762 Z-0.084 I0.758 J1.262
X29.795 Y29.238 Z-0.245 I-0.758 J-1.262
X31.311 Y31.762 Z-0.407 I0.758 J1.262
X29.795 Y29.238 Z-0.568 I-0.758 J-1.262
X31.311 Y31.762 Z-0.73 I0.758 J1.262
X29.795 Y29.238 Z-0.891 I-0.758 J-1.262
X32.025 Y30.5 Z-1 I0.758 J1.262
X29.08 Y30.5 I-1.472 J0
X32.025 Y30.5 I1.472 J0
S10000
G1 X32.027 Y30.643 F1000
X32.085 Y30.922
X32.096 Y30.939
X32.117 Y30.977
X32.137 Y31.021
X32.156 Y31.071
X32.171 Y31.129
X32.184 Y31.192
X32.192 Y31.263
X32.194 Y31.339
X32.19 Y31.421
X32.178 Y31.508
X32.159 Y31.599
X32.13 Y31.694
X32.092 Y31.792
X32.044 Y31.891
X31.985 Y31.99
X31.916 Y32.089
X31.835 Y32.187
X31.743 Y32.28
X31.641 Y32.37
X31.528 Y32.453
X31.405 Y32.53
X31.272 Y32.598
X31.131 Y32.657
X30.982 Y32.706
X30.827 Y32.743
X30.666 Y32.768
X30.501 Y32.78
X30.333 Y32.779
X30.163 Y32.764
X29.992 Y32.736
X29.823 Y32.693
X29.656 Y32.636
X29.493 Y32.566
X29.335 Y32.482
X29.182 Y32.385
X29.038 Y32.275
X28.902 Y32.153
X28.775 Y32.021
X28.659 Y31.878
X28.555 Y31.725
X28.463 Y31.565
X28.384 Y31.396
X28.318 Y31.222
X28.267 Y31.043
X28.23 Y30.859
X28.208 Y30.673
X28.201 Y30.486
X28.208 Y30.298
X28.231 Y30.112
X28.269 Y29.927
X28.322 Y29.747
X28.389 Y29.57
X28.47 Y29.4
X28.564 Y29.237
X28.672 Y29.081
X28.791 Y28.935
X28.922 Y28.799
X29.063 Y28.674
X29.214 Y28.56
X29.374 Y28.459
X29.542 Y28.371
X29.716 Y28.296
X29.895 Y28.236
X30.079 Y28.191
X30.265 Y28.16
X30.454 Y28.144
X30.643
X30.832 Y28.159
X31.019 Y28.189
X31.203 Y28.233
X31.382 Y28.293
X31.557 Y28.367
X31.725 Y28.454
X31.885 Y28.555
X32.037 Y28.668
X32.179 Y28.793
X32.311 Y28.929
X32.431 Y29.075
X32.54 Y29.23
X32.684 Y29.477
X32.815 Y29.731
X32.932 Y29.991
X33.023 Y30.242
X33.088 Y30.475
X33.131 Y30.699
X33.154 Y30.915
X33.16 Y31.125
X33.15 Y31.331
X33.123 Y31.534
X33.08 Y31.732
X33.021 Y31.927
X32.946 Y32.117
X32.856 Y32.302
X32.751 Y32.481
X32.63 Y32.652
X32.494 Y32.815
X32.344 Y32.968
X32.181 Y33.11
X32.004 Y33.24
X31.815 Y33.357
X31.615 Y33.46
X31.404 Y33.548
X31.184 Y33.619
X30.956 Y33.673
X30.722 Y33.709
X30.483 Y33.727
X30.24 Y33.725
X29.996 Y33.703
X29.753 Y33.662
X29.511 Y33.6
X29.274 Y33.519
X29.042 Y33.419
X28.817 Y33.299
X28.602 Y33.161
X28.397 Y33.005
X28.205 Y32.833
X28.026 Y32.644
X27.862 Y32.442
X27.715 Y32.226
X27.585 Y31.998
X27.473 Y31.76
X27.381 Y31.513
X27.309 Y31.259
X27.257 Y31
X27.226 Y30.736
X27.216 Y30.471
X27.228 Y30.205
X27.261 Y29.941
X27.315 Y29.68
X27.39 Y29.423
X27.485 Y29.174
X27.601 Y28.933
X27.735 Y28.701
X27.887 Y28.481
X28.057 Y28.274
X28.243 Y28.081
X28.444 Y27.904
X28.659 Y27.743
X28.885 Y27.6
X29.123 Y27.475
X29.37 Y27.37
X29.625 Y27.285
X29.885 Y27.221
X30.15 Y27.178
X30.418 Y27.156
X30.687
X30.955 Y27.177
X31.22 Y27.22
X31.481 Y27.284
X31.736 Y27.369
X31.983 Y27.474
X32.221 Y27.598
X32.449 Y27.742
X32.667 Y27.905
X32.882 Y28.094
X33.081 Y28.298
X33.266 Y28.516
X33.436 Y28.745
X33.592 Y28.985
X33.732 Y29.234
X33.854 Y29.492
X33.959 Y29.757
X34.045 Y30.03
X34.11 Y30.308
X34.155 Y30.59
X34.179 Y30.874
X34.181 Y31.16
X34.161 Y31.445
X34.119 Y31.727
X34.055 Y32.006
X33.969 Y32.278
X33.863 Y32.543
X33.735 Y32.799
X33.588 Y33.043
X33.423 Y33.276
X33.24 Y33.495
X33.04 Y33.7
X32.826 Y33.888
X32.598 Y34.06
X32.357 Y34.214
X32.106 Y34.35
X31.845 Y34.467
X31.577 Y34.564
X31.302 Y34.642
X31.022 Y34.699
X30.739 Y34.735
X30.454 Y34.751
X30.168 Y34.747
X29.884 Y34.723
X29.601 Y34.68
X29.323 Y34.617
X29.05 Y34.534
X28.783 Y34.433
X28.523 Y34.314
X28.272 Y34.177
X28.031 Y34.024
X27.801 Y33.854
X27.583 Y33.67
X27.378 Y33.471
X27.187 Y33.259
X27.011 Y33.034
X26.849 Y32.799
X26.704 Y32.553
X26.575 Y32.298
X26.464 Y32.035
X26.37 Y31.765
X26.295 Y31.49
X26.237 Y31.21
X26.198 Y30.927
X26.178 Y30.642
X26.177 Y30.357
X26.194 Y30.072
X26.23 Y29.788
X26.285 Y29.508
X26.357 Y29.232
X26.448 Y28.961
X26.557 Y28.697
X26.682 Y28.44
X26.823 Y28.192
X26.981 Y27.954
X27.154 Y27.727
X27.342 Y27.512
X27.542 Y27.309
X27.756 Y27.119
X27.982 Y26.944
X28.218 Y26.784
X28.465 Y26.64
X28.72 Y26.512
X28.983 Y26.401
X29.253 Y26.307
X29.528 Y26.232
X29.808 Y26.174
X30.091 Y26.135
X30.376 Y26.114
X30.661 Y26.111
X30.947 Y26.127
X31.23 Y26.162
X31.511 Y26.216
X31.787 Y26.287
X32.059 Y26.376
X32.324 Y26.482
X32.581 Y26.606
X32.83 Y26.746
X33.07 Y26.901
X33.3 Y27.07
X33.52 Y27.252
X33.728 Y27.447
X33.926 Y27.653
X34.112 Y27.87
X34.285 Y28.097
X34.446 Y28.333
X34.593 Y28.578
X34.727 Y28.83
X34.846 Y29.09
X34.951 Y29.355
X35.04 Y29.627
X35.114 Y29.903
X35.171 Y30.182
X35.213 Y30.465
X35.237 Y30.749
X35.245 Y31.035
X35.236 Y31.32
X35.209 Y31.605
X35.167 Y31.887
X35.106 Y32.166
X35.029 Y32.441
X34.936 Y32.711
X34.827 Y32.975
X34.702 Y33.232
X34.561 Y33.48
X34.406 Y33.72
X34.237 Y33.95
X34.054 Y34.17
X33.859 Y34.378
X33.651 Y34.574
X33.432 Y34.758
X33.204 Y34.928
X32.965 Y35.085
X32.717 Y35.228
X32.462 Y35.355
X32.199 Y35.468
X31.931 Y35.566
X31.658 Y35.647
X31.38 Y35.713
X31.098 Y35.763
X30.815 Y35.797
X30.53 Y35.816
X30.244 Y35.817
X29.959 Y35.803
X29.675 Y35.773
X29.393 Y35.728
X29.114 Y35.667
X28.839 Y35.59
X28.569 Y35.498
X28.303 Y35.392
X28.044 Y35.272
X27.792 Y35.138
X27.548 Y34.99
X27.312 Y34.829
X27.085 Y34.655
X26.868 Y34.47
X26.661 Y34.273
X26.465 Y34.066
X26.28 Y33.848
X26.108 Y33.62
X25.947 Y33.384
X25.8 Y33.14
X25.665 Y32.888
X25.545 Y32.629
X25.438 Y32.364
X25.345 Y32.094
X25.267 Y31.819
X25.203 Y31.541
X25.155 Y31.259
X25.121 Y30.976
X25.102 Y30.691
X25.098 Y30.405
X25.109 Y30.12
X25.136 Y29.835
X25.177 Y29.553
X25.233 Y29.273
X25.304 Y28.996
X25.389 Y28.723
X25.488 Y28.456
X25.601 Y28.194
X25.728 Y27.938
X25.868 Y27.689
X26.021 Y27.447
X26.186 Y27.215
X26.364 Y26.991
X26.552 Y26.776
X26.752 Y26.572
X26.962 Y26.379
X27.182 Y26.197
X27.411 Y26.026
X27.649 Y25.868
X27.895 Y25.722
X28.148 Y25.59
X28.407 Y25.471
X28.673 Y25.366
X28.943 Y25.274
X29.218 Y25.197
X29.497 Y25.134
X29.778 Y25.087
X30.062 Y25.054
X30.347 Y25.035
X30.633 Y25.032
X30.918 Y25.043
X31.202 Y25.07
X31.485 Y25.111
X31.765 Y25.167
X32.042 Y25.237
X32.315 Y25.322
X32.582 Y25.421
X32.845 Y25.533
X33.101 Y25.659
X33.351 Y25.797
X33.594 Y25.947
X33.829 Y26.11
X34.056 Y26.283
X34.274 Y26.467
X34.484 Y26.661
X34.684 Y26.865
X34.875 Y27.078
X35.055 Y27.299
X35.224 Y27.529
X35.383 Y27.766
X35.531 Y28.011
X35.668 Y28.262
X35.792 Y28.519
X35.904 Y28.781
X36.004 Y29.049
X36.091 Y29.321
X36.166 Y29.596
X36.227 Y29.875
X36.275 Y30.157
X36.309 Y30.44
X36.329 Y30.725
X36.337 Y31.011
X36.33 Y31.296
X36.309 Y31.581
X36.274 Y31.865
X36.226 Y32.146
X36.164 Y32.425
X36.089 Y32.7
X36 Y32.972
X35.898 Y33.238
X35.783 Y33.5
X35.656 Y33.755
X35.516 Y34.004
X35.364 Y34.246
X35.201 Y34.481
X35.026 Y34.706
X34.841 Y34.924
X34.645 Y35.132
X34.44 Y35.33
X34.225 Y35.518
X34.001 Y35.696
X33.769 Y35.862
X33.53 Y36.018
X33.283 Y36.162
X33.03 Y36.294
X32.77 Y36.413
X32.506 Y36.52
X32.236 Y36.615
X31.962 Y36.697
X31.685 Y36.766
X31.405 Y36.822
X31.123 Y36.864
X30.839 Y36.894
X30.554 Y36.91
X30.268 Y36.913
X29.983 Y36.903
X29.698 Y36.88
X29.415 Y36.844
X29.134 Y36.794
X28.855 Y36.732
X28.579 Y36.658
X28.307 Y36.571
X28.039 Y36.472
X27.776 Y36.36
X27.519 Y36.237
X27.267 Y36.103
X27.021 Y35.957
X26.782 Y35.801
X26.551 Y35.634
X26.327 Y35.456
X26.111 Y35.269
X25.904 Y35.072
X25.706 Y34.867
X25.517 Y34.653
X25.338 Y34.43
X25.169 Y34.2
X25.01 Y33.962
X24.862 Y33.718
X24.725 Y33.468
X24.598 Y33.212
X24.484 Y32.95
X24.381 Y32.684
X24.29 Y32.413
X24.211 Y32.138
X24.144 Y31.861
X24.089 Y31.581
X24.047 Y31.298
X24.017 Y31.014
X24 Y30.729
X23.995 Y30.444
X24.003 Y30.158
X24.023 Y29.873
X24.055 Y29.59
X24.1 Y29.308
X24.158 Y29.028
X24.227 Y28.751
X24.308 Y28.477
X24.401 Y28.207
X24.506 Y27.941
X24.623 Y27.681
X24.751 Y27.425
X24.889 Y27.176
X25.039 Y26.932
X25.199 Y26.696
X25.369 Y26.466
X25.549 Y26.245
X25.738 Y26.031
X25.937 Y25.826
X26.144 Y25.629
X26.36 Y25.442
X26.583 Y25.264
X26.814 Y25.097
X27.053 Y24.939
X27.297 Y24.792
X27.548 Y24.656
X27.805 Y24.53
X28.067 Y24.417
X28.334 Y24.314
X28.604 Y24.224
X28.879 Y24.145
X29.156 Y24.078
X29.437 Y24.023
X29.719 Y23.98
X30.003 Y23.95
X30.288 Y23.933
X30.574 Y23.927
X30.859 Y23.934
X31.144 Y23.953
X31.428 Y23.985
X31.71 Y24.029
X31.99 Y24.086
X32.267 Y24.154
X32.542 Y24.234
X32.812 Y24.326
X33.078 Y24.429
X33.34 Y24.543
X33.596 Y24.669
X33.848 Y24.805
X34.093 Y24.951
X34.332 Y25.107
X34.565 Y25.273
X34.79 Y25.448
X35.008 Y25.632
X35.219 Y25.825
X35.422 Y26.026
X35.617 Y26.235
X35.803 Y26.451
X35.981 Y26.675
X36.149 Y26.905
X36.308 Y27.143
X36.458 Y27.386
X36.598 Y27.634
X36.728 Y27.889
X36.848 Y28.148
X36.958 Y28.412
X37.057 Y28.68
X37.145 Y28.951
X37.222 Y29.226
X37.289 Y29.504
X37.344 Y29.784
X37.387 Y30.066
X37.419 Y30.35
X37.44 Y30.635
X37.449 Y30.92
X37.447 Y31.206
X37.433 Y31.491
X37.408 Y31.776
X37.37 Y32.059
X37.321 Y32.34
X37.261 Y32.619
X37.19 Y32.896
X37.107 Y33.169
X37.013 Y33.439
X36.908 Y33.704
X36.793 Y33.965
X36.666 Y34.222
X36.53 Y34.472
X36.383 Y34.717
X36.226 Y34.956
X36.06 Y35.188
X35.884 Y35.413
X35.699 Y35.631
X35.506 Y35.841
X35.305 Y36.044
X35.095 Y36.237
X34.877 Y36.422
X34.652 Y36.598
X34.42 Y36.765
X34.182 Y36.923
X33.938 Y37.071
X33.688 Y37.208
X33.432 Y37.336
X33.172 Y37.453
X32.907 Y37.56
X32.638 Y37.656
X32.365 Y37.741
X32.09 Y37.816
X31.811 Y37.879
X31.531 Y37.931
X31.248 Y37.973
X30.964 Y38.003
X30.679 Y38.022
X30.394 Y38.03
X30.108 Y38.026
X29.823 Y38.012
X29.538 Y37.986
X29.255 Y37.949
X28.974 Y37.902
X28.694 Y37.843
X28.417 Y37.774
X28.143 Y37.694
X27.872 Y37.603
X27.605 Y37.502
X27.342 Y37.391
X27.083 Y37.27
X26.829 Y37.14
X26.58 Y36.999
X26.337 Y36.849
X26.1 Y36.69
X25.87 Y36.522
X25.645 Y36.345
X25.428 Y36.16
X25.217 Y35.967
X25.014 Y35.766
X24.819 Y35.557
X24.632 Y35.341
X24.454 Y35.119
X24.284 Y34.889
X24.122 Y34.654
X23.97 Y34.412
X23.826 Y34.165
X23.693 Y33.913
X23.569 Y33.656
X23.454 Y33.394
X23.35 Y33.128
X23.255 Y32.859
X23.171 Y32.586
X23.097 Y32.31
X23.034 Y32.032
X22.981 Y31.751
X22.938 Y31.468
X22.906 Y31.185
X22.885 Y30.9
X22.874 Y30.615
Y30.329
X22.885 Y30.044
X22.906 Y29.759
X22.939 Y29.475
X22.981 Y29.193
X23.034 Y28.912
X23.097 Y28.634
X23.171 Y28.358
X23.255 Y28.085
X23.35 Y27.815
X23.454 Y27.549
X23.568 Y27.287
X23.691 Y27.03
X23.824 Y26.777
X23.967 Y26.53
X24.119 Y26.288
X24.279 Y26.052
X24.449 Y25.822
X24.626 Y25.598
X24.812 Y25.381
X25.005 Y25.171
X25.207 Y24.969
X25.416 Y24.774
X25.632 Y24.587
X25.854 Y24.408
X26.084 Y24.238
X26.319 Y24.076
X26.56 Y23.923
X26.807 Y23.779
X27.059 Y23.645
X27.316 Y23.52
X27.577 Y23.405
X27.842 Y23.299
X28.111 Y23.203
X28.383 Y23.117
X28.659 Y23.042
X28.937 Y22.976
X29.217 Y22.922
X29.499 Y22.877
X29.783 Y22.843
X30.067 Y22.819
X30.353 Y22.807
X30.638 Y22.805
X30.924 Y22.813
X31.209 Y22.832
X31.493 Y22.862
X31.776 Y22.901
X32.057 Y22.952
X32.336 Y23.012
X32.612 Y23.083
X32.886 Y23.164
X33.157 Y23.255
X33.424 Y23.356
X33.688 Y23.466
X33.947 Y23.586
X34.202 Y23.715
X34.452 Y23.853
X34.697 Y24
X34.936 Y24.155
X35.17 Y24.319
X35.398 Y24.49
X35.621 Y24.67
X35.836 Y24.857
X36.045 Y25.052
X36.247 Y25.254
X36.442 Y25.462
X36.63 Y25.678
X36.81 Y25.899
X36.983 Y26.127
X37.147 Y26.36
X37.304 Y26.599
X37.452 Y26.843
X37.591 Y27.092
X37.722 Y27.346
X37.844 Y27.604
X37.958 Y27.866
X38.062 Y28.132
X38.157 Y28.402
X38.243 Y28.674
X38.319 Y28.949
X38.385 Y29.227
X38.442 Y29.507
X38.489 Y29.789
X38.527 Y30.072
X38.554 Y30.356
X38.572 Y30.641
X38.579 Y30.926
X38.577 Y31.212
X38.564 Y31.497
X38.542 Y31.782
X38.51 Y32.066
X38.468 Y32.348
X38.416 Y32.629
X38.353 Y32.908
X38.281 Y33.184
X38.2 Y33.458
X38.109 Y33.728
X38.008 Y33.996
X37.899 Y34.259
X37.78 Y34.519
X37.651 Y34.774
X37.514 Y35.025
X37.368 Y35.27
X37.214 Y35.51
X37.051 Y35.745
X36.881 Y35.974
X36.702 Y36.197
X36.515 Y36.413
X36.321 Y36.623
X36.12 Y36.825
X35.912 Y37.021
X35.697 Y37.209
X35.476 Y37.39
X35.249 Y37.563
X35.015 Y37.727
X34.776 Y37.884
X34.532 Y38.032
X34.283 Y38.171
X34.029 Y38.302
X33.771 Y38.424
X33.509 Y38.537
X33.243 Y38.641
X32.973 Y38.736
X32.701 Y38.821
X32.425 Y38.897
X32.148 Y38.964
X31.868 Y39.021
X31.586 Y39.068
X31.303 Y39.106
X31.019 Y39.134
X30.734 Y39.153
X30.449 Y39.161
X30.163 Y39.16
X29.878 Y39.15
X29.593 Y39.13
X29.309 Y39.1
X29.026 Y39.061
X28.745 Y39.012
X28.465 Y38.953
X28.188 Y38.885
X27.913 Y38.809
X27.64 Y38.723
X27.371 Y38.628
X27.105 Y38.524
X26.843 Y38.411
X26.584 Y38.289
X26.33 Y38.159
X26.08 Y38.02
X25.835 Y37.874
X25.595 Y37.719
X25.36 Y37.556
X25.131 Y37.386
X24.908 Y37.208
X24.69 Y37.023
X24.479 Y36.831
X24.274 Y36.632
X24.076 Y36.426
X23.885 Y36.214
X23.7 Y35.996
X23.524 Y35.772
X23.354 Y35.542
X23.192 Y35.307
X23.039 Y35.066
X22.892 Y34.821
X22.755 Y34.571
X22.625 Y34.316
X22.503 Y34.058
X22.391 Y33.795
X22.287 Y33.529
X22.192 Y33.26
X22.105 Y32.988
X22.028 Y32.713
X21.959 Y32.436
X21.899 Y32.156
X21.849 Y31.875
X21.808 Y31.593
X21.776 Y31.309
X21.754 Y31.024
X21.74 Y30.739
X21.736 Y30.453
X21.741 Y30.168
X21.756 Y29.883
X21.78 Y29.598
X21.813 Y29.314
X21.855 Y29.032
X21.907 Y28.751
X21.967 Y28.472
X22.037 Y28.195
X22.115 Y27.92
X22.202 Y27.648
X22.299 Y27.38
X22.403 Y27.114
X22.517 Y26.852
X22.639 Y26.594
X22.769 Y26.339
X22.907 Y26.089
X23.053 Y25.844
X23.208 Y25.604
X23.369 Y25.369
X23.539 Y25.139
X23.716 Y24.915
X23.9 Y24.696
X24.091 Y24.484
X24.289 Y24.278
X24.493 Y24.078
X24.703 Y23.885
X24.92 Y23.699
X25.143 Y23.521
X25.372 Y23.349
X25.605 Y23.185
X25.844 Y23.029
X26.088 Y22.88
X26.337 Y22.74
X26.59 Y22.608
X26.847 Y22.483
X27.108 Y22.368
X27.373 Y22.261
X27.641 Y22.162
X27.912 Y22.072
X28.186 Y21.991
X28.462 Y21.918
X28.74 Y21.855
X29.021 Y21.801
X29.303 Y21.756
X29.586 Y21.72
X29.871 Y21.694
X30.156 Y21.676
X30.441 Y21.667
X30.727 Y21.668
X31.012 Y21.678
X31.297 Y21.698
X31.581 Y21.726
X31.864 Y21.764
X32.146 Y21.811
X32.426 Y21.866
X32.704 Y21.931
X32.98 Y22.004
X33.254 Y22.087
X33.524 Y22.177
X33.792 Y22.277
X34.057 Y22.385
X34.317 Y22.501
X34.575 Y22.625
X34.828 Y22.757
X35.077 Y22.897
X35.321 Y23.045
X35.561 Y23.2
X35.796 Y23.363
X36.025 Y23.532
X36.25 Y23.709
X36.469 Y23.892
X36.682 Y24.082
X36.889 Y24.279
X37.09 Y24.482
X37.285 Y24.691
X37.473 Y24.905
X37.655 Y25.125
X37.83 Y25.351
X37.999 Y25.582
X38.16 Y25.817
X38.314 Y26.058
X38.46 Y26.303
X38.599 Y26.552
X38.731 Y26.806
X38.855 Y27.063
X38.971 Y27.324
X39.079 Y27.589
X39.179 Y27.856
X39.27 Y28.127
X39.354 Y28.4
X39.429 Y28.675
X39.496 Y28.953
X39.554 Y29.233
X39.604 Y29.514
X39.645 Y29.796
X39.677 Y30.08
X39.701 Y30.365
X39.716 Y30.65
X39.722 Y30.935
X39.72 Y31.221
X39.708 Y31.506
X39.688 Y31.791
X39.66 Y32.075
X39.622 Y32.358
X39.576 Y32.64
X39.521 Y32.921
X39.458 Y33.199
X39.386 Y33.475
X39.305 Y33.749
X39.216 Y34.021
X39.119 Y34.289
X39.014 Y34.555
X38.9 Y34.817
X38.779 Y35.075
X38.649 Y35.33
X38.512 Y35.58
X38.367 Y35.826
X38.214 Y36.067
X38.055 Y36.304
X37.888 Y36.536
X37.714 Y36.762
X37.533 Y36.983
X37.345 Y37.198
X37.151 Y37.408
X36.95 Y37.611
X36.744 Y37.808
X36.531 Y37.999
X36.313 Y38.183
X36.089 Y38.36
X35.86 Y38.531
X35.625 Y38.694
X35.386 Y38.85
X35.142 Y38.999
X34.894 Y39.14
X34.642 Y39.274
X34.385 Y39.4
X34.125 Y39.518
X33.862 Y39.628
X33.595 Y39.73
X33.326 Y39.824
X33.053 Y39.91
X32.778 Y39.987
X32.501 Y40.056
X32.222 Y40.117
X31.942 Y40.17
X31.659 Y40.214
X31.376 Y40.25
X31.092 Y40.276
X30.807 Y40.295
X30.521 Y40.305
X30.236 Y40.306
X29.95 Y40.299
X29.665 Y40.284
X29.38 Y40.26
X29.097 Y40.227
X28.814 Y40.186
X28.533 Y40.137
X28.253 Y40.079
X27.975 Y40.014
X27.699 Y39.94
X27.426 Y39.858
X27.155 Y39.768
X26.887 Y39.67
X26.621 Y39.564
X26.359 Y39.45
X26.101 Y39.328
X25.846 Y39.199
X25.595 Y39.063
X25.348 Y38.92
X25.106 Y38.769
X24.868 Y38.611
X24.634 Y38.447
X24.406 Y38.275
X24.183 Y38.097
X23.965 Y37.912
X23.752 Y37.722
X23.546 Y37.525
X23.344 Y37.322
X23.149 Y37.113
X22.96 Y36.899
X22.778 Y36.68
X22.602 Y36.455
X22.432 Y36.225
X22.269 Y35.99
X22.113 Y35.751
X21.965 Y35.507
X21.823 Y35.26
X21.688 Y35.008
X21.561 Y34.752
X21.441 Y34.493
X21.329 Y34.23
X21.224 Y33.964
X21.128 Y33.696
X21.038 Y33.424
X20.957 Y33.151
X20.884 Y32.875
X20.818 Y32.597
X20.761 Y32.317
X20.712 Y32.035
X20.671 Y31.753
X20.639 Y31.469
X20.614 Y31.185
X20.598 Y30.9
X20.589 Y30.614
Y30.328
X20.597 Y30.043
X20.614 Y29.758
X20.638 Y29.473
X20.671 Y29.19
X20.712 Y28.907
X20.761 Y28.626
X20.818 Y28.346
X20.883 Y28.068
X20.956 Y27.792
X21.037 Y27.518
X21.126 Y27.246
X21.223 Y26.978
X21.327 Y26.712
X21.439 Y26.449
X21.558 Y26.19
X21.685 Y25.934
X21.819 Y25.681
X21.96 Y25.433
X22.108 Y25.189
X22.264 Y24.949
X22.426 Y24.714
X22.594 Y24.484
X22.77 Y24.258
X22.951 Y24.038
X23.139 Y23.823
X23.333 Y23.613
X23.533 Y23.409
X23.738 Y23.211
X23.95 Y23.019
X24.166 Y22.833
X24.388 Y22.653
X24.615 Y22.48
X24.847 Y22.313
X25.083 Y22.153
X25.324 Y21.999
X25.57 Y21.853
X25.819 Y21.714
X26.072 Y21.582
X26.329 Y21.458
X26.59 Y21.34
X26.853 Y21.231
X27.12 Y21.128
X27.389 Y21.034
X27.662 Y20.947
X27.936 Y20.868
X28.213 Y20.797
X28.491 Y20.734
X28.771 Y20.679
X29.053 Y20.632
X29.336 Y20.593
X29.62 Y20.562
X29.905 Y20.539
X30.19 Y20.525
X30.475 Y20.518
X30.761 Y20.52
X31.046 Y20.53
X31.331 Y20.548
X31.616 Y20.574
X31.899 Y20.608
X32.182 Y20.651
X32.463 Y20.701
X32.742 Y20.759
X33.02 Y20.825
X33.296 Y20.899
X33.57 Y20.981
X33.841 Y21.07
X34.11 Y21.167
X34.375 Y21.271
X34.638 Y21.383
X34.898 Y21.502
X35.154 Y21.628
X35.407 Y21.762
X35.655 Y21.902
X35.9 Y22.049
X36.141 Y22.203
X36.377 Y22.363
X36.609 Y22.53
X36.836 Y22.703
X37.059 Y22.882
X37.276 Y23.067
X37.488 Y23.258
X37.695 Y23.455
X37.897 Y23.657
X38.093 Y23.865
X38.283 Y24.078
X38.467 Y24.296
X38.646 Y24.519
X38.819 Y24.746
X38.985 Y24.979
X39.145 Y25.215
X39.298 Y25.456
X39.445 Y25.701
X39.585 Y25.95
X39.718 Y26.202
X39.845 Y26.458
X39.965 Y26.718
X40.077 Y26.98
X40.183 Y27.246
X40.281 Y27.514
X40.372 Y27.784
X40.456 Y28.057
X40.532 Y28.333
X40.6 Y28.61
X40.661 Y28.889
X40.715 Y29.169
X40.761 Y29.451
X40.799 Y29.734
X40.83 Y30.018
X40.853 Y30.303
X40.868 Y30.588
X40.875 Y30.874
X40.874 Y31.159
X40.866 Y31.445
X40.85 Y31.73
X40.826 Y32.014
X40.794 Y32.298
X40.755 Y32.581
X40.707 Y32.863
X40.652 Y33.143
X40.59 Y33.422
X40.52 Y33.698
X40.442 Y33.973
X40.357 Y34.246
X40.264 Y34.516
X40.164 Y34.783
X40.057 Y35.048
X39.942 Y35.31
X39.821 Y35.568
X39.692 Y35.823
X39.556 Y36.074
X39.414 Y36.322
X39.264 Y36.565
X39.109 Y36.805
X38.947 Y37.04
X38.778 Y37.27
X38.603 Y37.496
X38.422 Y37.717
X38.235 Y37.932
X38.042 Y38.143
X37.843 Y38.348
X37.639 Y38.548
X37.43 Y38.743
X37.216 Y38.931
X36.996 Y39.114
X36.771 Y39.29
X36.542 Y39.46
X36.308 Y39.624
X36.07 Y39.782
X35.828 Y39.933
X35.581 Y40.077
X35.331 Y40.215
X35.077 Y40.346
X34.82 Y40.47
X34.56 Y40.587
X34.296 Y40.697
X34.029 Y40.799
X33.76 Y40.895
X33.489 Y40.983
X33.215 Y41.064
X32.939 Y41.138
X32.661 Y41.204
X32.382 Y41.263
X32.101 Y41.314
X31.818 Y41.357
X31.535 Y41.393
X31.251 Y41.421
X30.966 Y41.442
X30.681 Y41.455
X30.395 Y41.461
X30.11 Y41.459
X29.824 Y41.45
X29.539 Y41.433
X29.255 Y41.408
X28.971 Y41.376
X28.688 Y41.336
X28.407 Y41.288
X28.126 Y41.234
X27.847 Y41.172
X27.57 Y41.102
X27.295 Y41.026
X27.022 Y40.942
X26.752 Y40.851
X26.484 Y40.753
X26.218 Y40.647
X25.955 Y40.535
X25.696 Y40.416
X25.439 Y40.29
X25.186 Y40.158
X24.937 Y40.019
X24.691 Y39.873
X24.449 Y39.721
X24.212 Y39.563
X23.978 Y39.399
X23.749 Y39.228
X23.525 Y39.052
X23.305 Y38.87
X23.089 Y38.682
X22.879 Y38.489
X22.674 Y38.29
X22.474 Y38.086
X22.28 Y37.877
X22.091 Y37.662
X21.908 Y37.443
X21.731 Y37.219
X21.559 Y36.991
X21.393 Y36.759
X21.234 Y36.522
X21.08 Y36.281
X20.933 Y36.036
X20.792 Y35.788
X20.658 Y35.535
X20.531 Y35.28
X20.41 Y35.021
X20.296 Y34.759
X20.189 Y34.495
X20.088 Y34.227
X19.994 Y33.958
X19.908 Y33.685
X19.828 Y33.411
X19.756 Y33.135
X19.691 Y32.857
X19.633 Y32.577
X19.582 Y32.296
X19.539 Y32.014
X19.503 Y31.731
X19.474 Y31.446
X19.452 Y31.162
X19.438 Y30.876
X19.431 Y30.591
X19.432 Y30.305
X19.44 Y30.02
X19.455 Y29.735
X19.478 Y29.45
X19.508 Y29.166
X19.545 Y28.883
X19.59 Y28.601
X19.641 Y28.32
X19.7 Y28.04
X19.766 Y27.763
X19.84 Y27.487
X19.92 Y27.213
X20.008 Y26.941
X20.102 Y26.671
X20.203 Y26.404
X20.311 Y26.14
X20.426 Y25.878
X20.548 Y25.62
X20.676 Y25.365
X20.81 Y25.113
X20.952 Y24.865
X21.099 Y24.62
X21.253 Y24.379
X21.413 Y24.143
X21.578 Y23.91
X21.75 Y23.682
X21.927 Y23.458
X22.111 Y23.239
X22.299 Y23.025
X22.494 Y22.815
X22.693 Y22.611
X22.898 Y22.412
X23.108 Y22.218
X23.323 Y22.03
X23.542 Y21.847
X23.766 Y21.67
X23.994 Y21.499
X24.227 Y21.333
X24.464 Y21.174
X24.705 Y21.021
X24.95 Y20.874
X25.199 Y20.734
X25.451 Y20.6
X25.706 Y20.472
X25.965 Y20.351
X26.227 Y20.236
X26.491 Y20.128
X26.758 Y20.028
X27.028 Y19.934
X27.3 Y19.847
X27.574 Y19.767
X27.85 Y19.694
X28.128 Y19.628
X28.408 Y19.57
X28.689 Y19.518
X28.971 Y19.473
X29.254 Y19.436
X29.538 Y19.407
X29.823 Y19.384
X30.108 Y19.369
X30.393 Y19.361
X30.679
X30.964 Y19.368
X31.25 Y19.382
X31.534 Y19.403
X31.819 Y19.431
X32.102 Y19.467
X32.384 Y19.51
X32.665 Y19.56
X32.945 Y19.618
X33.223 Y19.682
X33.5 Y19.753
X33.774 Y19.832
X34.047 Y19.917
X34.317 Y20.009
X34.585 Y20.108
X34.851 Y20.213
X35.113 Y20.325
X35.373 Y20.444
X35.63 Y20.57
X35.883 Y20.701
X36.133 Y20.839
X36.38 Y20.983
X36.623 Y21.133
X36.862 Y21.289
X37.097 Y21.451
X37.329 Y21.619
X37.556 Y21.792
X37.778 Y21.971
X37.996 Y22.155
X38.21 Y22.345
X38.419 Y22.54
X38.623 Y22.739
X38.822 Y22.944
X39.016 Y23.154
X39.205 Y23.368
X39.388 Y23.587
X39.566 Y23.81
X39.739 Y24.037
X39.906 Y24.269
X40.067 Y24.505
X40.223 Y24.744
X40.373 Y24.987
X40.516 Y25.234
X40.654 Y25.484
X40.786 Y25.738
X40.911 Y25.994
X41.03 Y26.254
X41.143 Y26.516
X41.249 Y26.781
X41.349 Y27.049
X41.442 Y27.319
X41.529 Y27.591
X41.609 Y27.865
X41.682 Y28.141
X41.749 Y28.419
X41.808 Y28.698
X41.861 Y28.979
X41.907 Y29.261
X41.946 Y29.544
X41.978 Y29.827
X42.003 Y30.112
X42.021 Y30.397
X42.032 Y30.682
X42.037 Y30.968
X42.034 Y31.253
X42.024 Y31.539
X42.007 Y31.824
X41.983 Y32.108
X41.952 Y32.392
X41.914 Y32.675
X41.869 Y32.957
X41.818 Y33.238
X41.759 Y33.518
X41.694 Y33.796
X41.621 Y34.072
X41.542 Y34.346
X41.456 Y34.619
X41.364 Y34.889
X41.264 Y35.157
X41.159 Y35.422
X41.046 Y35.684
X40.928 Y35.944
X40.802 Y36.201
X40.671 Y36.454
X40.534 Y36.705
X40.39 Y36.952
X40.24 Y37.195
X40.085 Y37.434
X39.923 Y37.67
X39.756 Y37.901
X39.583 Y38.128
X39.404 Y38.351
X39.22 Y38.57
X39.031 Y38.784
X38.837 Y38.993
X38.637 Y39.197
X38.433 Y39.397
X38.223 Y39.591
X38.009 Y39.78
X37.791 Y39.964
X37.568 Y40.142
X37.34 Y40.315
X37.109 Y40.482
X36.873 Y40.644
X36.634 Y40.8
X36.391 Y40.95
X36.144 Y41.093
X35.894 Y41.231
X35.641 Y41.363
X35.384 Y41.488
X35.125 Y41.607
X34.862 Y41.72
X34.597 Y41.827
X34.33 Y41.927
X34.06 Y42.02
X33.788 Y42.107
X33.514 Y42.187
X33.238 Y42.261
X32.96 Y42.328
X32.681 Y42.388
X32.401 Y42.441
X32.119 Y42.488
X31.836 Y42.527
X31.552 Y42.56
X31.268 Y42.587
X30.983 Y42.606
X30.698 Y42.619
X30.412 Y42.624
X30.127 Y42.623
X29.841 Y42.614
X29.556 Y42.599
X29.271 Y42.577
X28.987 Y42.549
X28.704 Y42.513
X28.421 Y42.471
X28.14 Y42.422
X27.86 Y42.367
X27.581 Y42.304
X27.304 Y42.235
X27.029 Y42.16
X26.755 Y42.078
X26.484 Y41.989
X26.214 Y41.894
X25.947 Y41.792
X25.683 Y41.685
X25.421 Y41.571
X25.162 Y41.451
X24.906 Y41.325
X24.653 Y41.192
X24.403 Y41.054
X24.156 Y40.91
X23.913 Y40.76
X23.674 Y40.604
X23.438 Y40.443
X23.206 Y40.276
X22.978 Y40.104
X22.755 Y39.927
X22.535 Y39.744
X22.32 Y39.556
X22.11 Y39.363
X21.904 Y39.165
X21.702 Y38.962
X21.506 Y38.755
X21.315 Y38.543
X21.128 Y38.327
X20.947 Y38.106
X20.77 Y37.882
X20.6 Y37.653
X20.434 Y37.42
X20.275 Y37.183
X20.12 Y36.943
X19.972 Y36.699
X19.829 Y36.451
X19.692 Y36.201
X19.561 Y35.947
X19.436 Y35.69
X19.317 Y35.431
X19.204 Y35.168
X19.097 Y34.904
X18.997 Y34.636
X18.903 Y34.367
X18.815 Y34.095
X18.734 Y33.821
X18.659 Y33.546
X18.59 Y33.268
X18.528 Y32.99
X18.472 Y32.709
X18.423 Y32.428
X18.381 Y32.146
X18.345 Y31.862
X18.316 Y31.578
X18.293 Y31.294
X18.278 Y31.008
X18.268 Y30.723
X18.266 Y30.437
X18.27 Y30.152
X18.281 Y29.866
X18.298 Y29.581
X18.322 Y29.297
X18.353 Y29.013
X18.39 Y28.73
X18.434 Y28.448
X18.484 Y28.167
X18.541 Y27.887
X18.605 Y27.608
X18.675 Y27.331
X18.751 Y27.056
X18.834 Y26.783
X18.923 Y26.511
X19.018 Y26.242
X19.12 Y25.975
X19.227 Y25.711
X19.341 Y25.449
X19.461 Y25.19
X19.588 Y24.934
X19.719 Y24.68
X19.857 Y24.43
X20.001 Y24.183
X20.15 Y23.94
X20.305 Y23.7
X20.465 Y23.464
X20.631 Y23.231
X20.802 Y23.003
X20.979 Y22.778
X21.161 Y22.558
X21.347 Y22.342
X21.539 Y22.13
X21.736 Y21.923
X21.937 Y21.72
X22.143 Y21.523
X22.353 Y21.33
X22.568 Y21.141
X22.788 Y20.959
X23.011 Y20.781
X23.239 Y20.608
X23.47 Y20.441
X23.706 Y20.279
X23.945 Y20.123
X24.187 Y19.972
X24.433 Y19.827
X24.682 Y19.688
X24.935 Y19.554
X25.19 Y19.427
X25.449 Y19.305
X25.71 Y19.19
X25.974 Y19.08
X26.24 Y18.977
X26.508 Y18.88
X26.779 Y18.789
X27.052 Y18.704
X27.327 Y18.626
X27.603 Y18.554
X27.881 Y18.489
X28.161 Y18.43
X28.441 Y18.378
X28.723 Y18.332
X29.006 Y18.293
X29.29 Y18.26
X29.574 Y18.234
X29.859 Y18.215
X30.144 Y18.202
X30.43 Y18.195
X30.715
X31.001 Y18.202
X31.286 Y18.216
X31.571 Y18.236
X31.855 Y18.263
X32.139 Y18.296
X32.422 Y18.336
X32.704 Y18.382
X32.984 Y18.435
X33.264 Y18.494
X33.542 Y18.559
X33.818 Y18.631
X34.093 Y18.709
X34.365 Y18.794
X34.636 Y18.885
X34.905 Y18.982
X35.171 Y19.085
X35.435 Y19.194
X35.697 Y19.309
X35.955 Y19.429
X36.211 Y19.556
X36.464 Y19.688
X36.714 Y19.827
X36.961 Y19.97
X37.205 Y20.12
X37.445 Y20.274
X37.681 Y20.435
X37.914 Y20.6
X38.143 Y20.77
X38.368 Y20.946
X38.589 Y21.127
X38.807 Y21.312
X39.02 Y21.502
X39.228 Y21.697
X39.432 Y21.897
X39.632 Y22.101
X39.827 Y22.31
X40.018 Y22.522
X40.203 Y22.739
X40.384 Y22.96
X40.56 Y23.185
X40.731 Y23.414
X40.897 Y23.647
X41.057 Y23.883
X41.213 Y24.122
X41.363 Y24.366
X41.507 Y24.612
X41.646 Y24.861
X41.78 Y25.114
X41.907 Y25.369
X42.029 Y25.627
X42.146 Y25.888
X42.256 Y26.151
X42.361 Y26.417
X42.46 Y26.685
X42.553 Y26.955
X42.64 Y27.227
X42.721 Y27.501
X42.795 Y27.777
X42.864 Y28.054
X42.926 Y28.333
X42.982 Y28.613
X43.032 Y28.894
X43.076 Y29.176
X43.113 Y29.459
X43.144 Y29.743
X43.169 Y30.028
X43.187 Y30.313
X43.199 Y30.598
X43.205 Y30.884
X43.204 Y31.169
X43.197 Y31.455
X43.183 Y31.74
X43.163 Y32.025
X43.137 Y32.309
X43.105 Y32.593
X43.066 Y32.876
X43.021 Y33.158
X42.969 Y33.439
X42.911 Y33.718
X42.847 Y33.997
X42.777 Y34.273
X42.7 Y34.549
X42.618 Y34.822
X42.529 Y35.093
X42.434 Y35.363
X42.334 Y35.63
X42.227 Y35.895
X42.114 Y36.157
X41.996 Y36.417
X41.872 Y36.674
X41.742 Y36.929
X41.606 Y37.18
X41.465 Y37.428
X41.318 Y37.673
X41.166 Y37.915
X41.008 Y38.153
X40.846 Y38.388
X40.678 Y38.619
X40.504 Y38.846
X40.326 Y39.069
X40.143 Y39.288
X39.955 Y39.503
X39.762 Y39.714
X39.565 Y39.92
X39.363 Y40.122
X39.157 Y40.319
X38.946 Y40.512
X38.731 Y40.7
X38.512 Y40.883
X38.289 Y41.062
X38.062 Y41.235
X37.831 Y41.403
X37.596 Y41.566
X37.358 Y41.723
X37.116 Y41.876
X36.872 Y42.023
X36.624 Y42.164
X36.372 Y42.3
X36.118 Y42.431
X35.861 Y42.555
X35.602 Y42.674
X35.34 Y42.788
X35.075 Y42.895
X34.808 Y42.996
X34.539 Y43.092
X34.268 Y43.182
X33.995 Y43.265
X33.72 Y43.343
X33.443 Y43.414
X33.165 Y43.48
X32.886 Y43.539
X32.606 Y43.592
X32.324 Y43.639
X32.041 Y43.68
X31.758 Y43.715
X31.474 Y43.743
X31.189 Y43.765
X30.904 Y43.781
X30.618 Y43.79
X30.333 Y43.794
X30.047 Y43.791
X29.762 Y43.782
X29.476 Y43.766
X29.192 Y43.745
X28.908 Y43.717
X28.624 Y43.683
X28.341 Y43.643
X28.059 Y43.596
X27.779 Y43.544
X27.499 Y43.485
X27.221 Y43.421
X26.944 Y43.35
X26.669 Y43.274
X26.396 Y43.191
X26.124 Y43.103
X25.855 Y43.008
X25.587 Y42.908
X25.322 Y42.802
X25.059 Y42.691
X24.799 Y42.573
X24.541 Y42.45
X24.286 Y42.322
X24.034 Y42.188
X23.784 Y42.049
X23.538 Y41.904
X23.295 Y41.754
X23.055 Y41.599
X22.819 Y41.439
X22.586 Y41.273
X22.357 Y41.103
X22.132 Y40.927
X21.91 Y40.747
X21.692 Y40.563
X21.478 Y40.373
X21.269 Y40.179
X21.063 Y39.981
X20.862 Y39.778
X20.666 Y39.571
X20.474 Y39.36
X20.286 Y39.144
X20.103 Y38.925
X19.925 Y38.702
X19.752 Y38.475
X19.583 Y38.244
X19.42 Y38.01
X19.261 Y37.773
X19.108 Y37.532
X18.96 Y37.288
X18.817 Y37.04
X18.679 Y36.79
X18.547 Y36.537
X18.42 Y36.281
X18.299 Y36.022
X18.184 Y35.761
X18.074 Y35.498
X17.969 Y35.232
X17.87 Y34.964
X17.777 Y34.694
X17.69 Y34.422
X17.609 Y34.148
X17.534 Y33.873
X17.464 Y33.596
X17.4 Y33.317
X17.343 Y33.038
X17.291 Y32.757
X17.245 Y32.475
X17.205 Y32.192
X17.172 Y31.908
X17.144 Y31.624
X17.122 Y31.339
X17.107 Y31.054
X17.098 Y30.769
X17.094 Y30.483
X17.097 Y30.198
X17.106 Y29.912
X17.121 Y29.627
X17.142 Y29.342
X17.169 Y29.058
X17.202 Y28.774
X17.241 Y28.491
X17.286 Y28.209
X17.337 Y27.928
X17.394 Y27.649
X17.457 Y27.37
X17.526 Y27.093
X17.601 Y26.817
X17.681 Y26.543
X17.768 Y26.271
X17.86 Y26.001
X17.958 Y25.733
X18.061 Y25.466
X18.171 Y25.203
X18.285 Y24.941
X18.406 Y24.682
X18.531 Y24.426
X18.663 Y24.172
X18.799 Y23.921
X18.941 Y23.673
X19.088 Y23.429
X19.241 Y23.187
X19.398 Y22.949
X19.56 Y22.714
X19.727 Y22.482
X19.9 Y22.254
X20.077 Y22.03
X20.258 Y21.81
X20.445 Y21.594
X20.636 Y21.381
X20.831 Y21.173
X21.031 Y20.969
X21.235 Y20.769
X21.443 Y20.574
X21.655 Y20.383
X21.872 Y20.196
X22.092 Y20.014
X22.316 Y19.837
X22.544 Y19.665
X22.775 Y19.497
X23.01 Y19.335
X23.248 Y19.178
X23.49 Y19.025
X23.734 Y18.878
X23.982 Y18.736
X24.233 Y18.599
X24.486 Y18.468
X24.743 Y18.342
X25.002 Y18.221
X25.263 Y18.106
X25.527 Y17.997
X25.793 Y17.893
X26.061 Y17.795
X26.331 Y17.703
X26.603 Y17.616
X26.877 Y17.535
X27.153 Y17.46
X27.43 Y17.391
X27.708 Y17.327
X27.988 Y17.27
X28.269 Y17.218
X28.551 Y17.173
X28.834 Y17.133
X29.117 Y17.1
X29.402 Y17.072
X29.686 Y17.051
X29.972 Y17.036
X30.257 Y17.026
X30.543 Y17.023
X30.828 Y17.025
X31.114 Y17.034
X31.399 Y17.049
X31.684 Y17.069
X31.968 Y17.096
X32.252 Y17.129
X32.535 Y17.167
X32.817 Y17.212
X33.098 Y17.263
X33.378 Y17.319
X33.656 Y17.381
X33.934 Y17.449
X34.21 Y17.523
X34.484 Y17.603
X34.756 Y17.688
X35.027 Y17.779
X35.296 Y17.876
X35.562 Y17.978
X35.827 Y18.086
X36.089 Y18.199
X36.349 Y18.318
X36.606 Y18.442
X36.861 Y18.571
X37.113 Y18.706
X37.362 Y18.845
X37.608 Y18.99
X37.851 Y19.14
X38.091 Y19.295
X38.328 Y19.455
X38.561 Y19.619
X38.791 Y19.789
X39.017 Y19.963
X39.24 Y20.142
X39.459 Y20.325
X39.674 Y20.512
X39.886 Y20.704
X40.093 Y20.901
X40.297 Y21.101
X40.496 Y21.305
X40.691 Y21.514
X40.882 Y21.727
X41.068 Y21.943
X41.25 Y22.163
X41.428 Y22.387
X41.6 Y22.614
X41.769 Y22.845
X41.932 Y23.079
X42.091 Y23.317
X42.245 Y23.557
X42.394 Y23.801
X42.537 Y24.048
X42.676 Y24.297
X42.81 Y24.549
X42.939 Y24.804
X43.062 Y25.062
X43.18 Y25.322
X43.293 Y25.584
X43.4 Y25.849
X43.503 Y26.116
X43.599 Y26.384
X43.691 Y26.655
X43.776 Y26.927
X43.856 Y27.201
X43.931 Y27.477
X44 Y27.754
X44.063 Y28.033
X44.12 Y28.313
X44.172 Y28.593
X44.218 Y28.875
X44.258 Y29.158
X44.293 Y29.442
X44.322 Y29.726
X44.345 Y30.01
X44.362 Y30.295
X44.373 Y30.581
X44.379 Y30.866
X44.378 Y31.152
X44.372 Y31.437
X44.36 Y31.723
X44.342 Y32.008
X44.318 Y32.292
X44.289 Y32.576
X44.254 Y32.86
X44.213 Y33.142
X44.166 Y33.424
X44.113 Y33.705
X44.055 Y33.984
X43.991 Y34.263
X43.921 Y34.539
X43.845 Y34.815
X43.764 Y35.089
X43.677 Y35.361
X43.585 Y35.631
X43.487 Y35.899
X43.384 Y36.166
X43.276 Y36.43
X43.162 Y36.692
X43.042 Y36.951
X42.918 Y37.208
X42.788 Y37.462
X42.652 Y37.714
X42.512 Y37.963
X42.367 Y38.208
X42.216 Y38.451
X42.061 Y38.691
X41.901 Y38.927
X41.736 Y39.16
X41.566 Y39.39
X41.392 Y39.616
X41.213 Y39.839
X41.03 Y40.058
X40.842 Y40.273
X40.649 Y40.484
X40.453 Y40.691
X40.252 Y40.894
X40.047 Y41.093
X39.838 Y41.288
X39.626 Y41.478
X39.409 Y41.665
X39.189 Y41.846
X38.965 Y42.023
X38.737 Y42.196
X38.506 Y42.364
X38.271 Y42.527
X38.034 Y42.685
X37.793 Y42.838
X37.549 Y42.987
X37.302 Y43.13
X37.052 Y43.269
X36.799 Y43.402
X36.544 Y43.53
X36.287 Y43.653
X36.026 Y43.771
X35.764 Y43.883
X35.499 Y43.99
X35.232 Y44.092
X34.963 Y44.188
X34.693 Y44.279
X34.42 Y44.364
X34.146 Y44.444
X33.87 Y44.518
X33.593 Y44.587
X33.314 Y44.65
X33.035 Y44.707
X32.754 Y44.759
X32.472 Y44.805
X32.189 Y44.846
X31.906 Y44.88
X31.622 Y44.909
X31.337 Y44.933
X31.052 Y44.95
X30.767 Y44.962
X30.481 Y44.968
X30.195
X29.91 Y44.963
X29.625 Y44.952
X29.34 Y44.935
X29.055 Y44.913
X28.771 Y44.884
X28.487 Y44.851
X28.204 Y44.811
X27.922 Y44.766
X27.641 Y44.715
X27.361 Y44.658
X27.083 Y44.596
X26.805 Y44.529
X26.529 Y44.456
X26.254 Y44.377
X25.981 Y44.293
X25.71 Y44.204
X25.441 Y44.109
X25.173 Y44.009
X24.908 Y43.903
X24.645 Y43.793
X24.384 Y43.677
X24.125 Y43.556
X23.869 Y43.429
X23.615 Y43.298
X23.364 Y43.162
X23.116 Y43.021
X22.871 Y42.875
X22.628 Y42.724
X22.389 Y42.568
X22.153 Y42.408
X21.92 Y42.242
X21.69 Y42.073
X21.464 Y41.899
X21.241 Y41.72
X21.021 Y41.537
X20.806 Y41.35
X20.594 Y41.158
X20.386 Y40.963
X20.182 Y40.763
X19.982 Y40.559
X19.785 Y40.352
X19.593 Y40.14
X19.406 Y39.925
X19.222 Y39.706
X19.043 Y39.484
X18.868 Y39.258
X18.698 Y39.029
X18.533 Y38.796
X18.371 Y38.56
X18.215 Y38.321
X18.063 Y38.079
X17.916 Y37.834
X17.774 Y37.587
X17.637 Y37.336
X17.505 Y37.083
X17.378 Y36.827
X17.256 Y36.569
X17.139 Y36.309
X17.027 Y36.046
X16.92 Y35.781
X16.819 Y35.514
X16.722 Y35.245
X16.631 Y34.975
X16.546 Y34.702
X16.465 Y34.428
X16.39 Y34.153
X16.321 Y33.875
X16.257 Y33.597
X16.198 Y33.318
X16.145 Y33.037
X16.098 Y32.755
X16.056 Y32.473
X16.019 Y32.19
X15.989 Y31.906
X15.963 Y31.621
X15.943 Y31.336
X15.929 Y31.051
X15.92 Y30.766
X15.917 Y30.48
X15.92 Y30.195
X15.928 Y29.909
X15.942 Y29.624
X15.961 Y29.339
X15.986 Y29.055
X16.017 Y28.771
X16.053 Y28.487
X16.094 Y28.205
X16.141 Y27.923
X16.194 Y27.642
X16.252 Y27.363
X16.315 Y27.084
X16.384 Y26.807
X16.459 Y26.531
X16.538 Y26.257
X16.623 Y25.985
X16.714 Y25.714
X16.809 Y25.445
X16.91 Y25.177
X17.016 Y24.912
X17.128 Y24.649
X17.244 Y24.388
X17.365 Y24.13
X17.492 Y23.874
X17.623 Y23.62
X17.759 Y23.369
X17.901 Y23.121
X18.047 Y22.876
X18.198 Y22.633
X18.353 Y22.394
X18.513 Y22.157
X18.678 Y21.924
X18.847 Y21.694
X19.021 Y21.467
X19.199 Y21.244
X19.381 Y21.024
X19.568 Y20.808
X19.759 Y20.596
X19.954 Y20.387
X20.153 Y20.182
X20.356 Y19.981
X20.563 Y19.785
X20.774 Y19.592
X20.988 Y19.403
X21.206 Y19.219
X21.428 Y19.038
X21.653 Y18.863
X21.881 Y18.691
X22.113 Y18.524
X22.348 Y18.362
X22.586 Y18.204
X22.827 Y18.051
X23.071 Y17.903
X23.318 Y17.759
X23.567 Y17.621
X23.82 Y17.487
X24.075 Y17.358
X24.332 Y17.234
X24.592 Y17.115
X24.853 Y17.001
X25.118 Y16.893
X25.384 Y16.789
X25.652 Y16.691
X25.922 Y16.598
X26.194 Y16.511
X26.467 Y16.428
X26.742 Y16.351
X27.019 Y16.28
X27.296 Y16.213
X27.575 Y16.152
X27.856 Y16.097
X28.137 Y16.047
X28.419 Y16.003
X28.702 Y15.964
X28.985 Y15.93
X29.27 Y15.902
X29.554 Y15.88
X29.839 Y15.863
X30.125 Y15.852
X30.41 Y15.846
X30.696
X30.981 Y15.852
X31.267 Y15.862
X31.552 Y15.879
X31.837 Y15.901
X32.121 Y15.928
X32.405 Y15.961
X32.688 Y16
X32.97 Y16.044
X33.251 Y16.093
X33.531 Y16.148
X33.81 Y16.208
X34.088 Y16.274
X34.365 Y16.345
X34.64 Y16.421
X34.914 Y16.503
X35.186 Y16.589
X35.456 Y16.681
X35.725 Y16.779
X35.991 Y16.881
X36.256 Y16.988
X36.519 Y17.101
X36.779 Y17.218
X37.037 Y17.341
X37.292 Y17.468
X37.546 Y17.6
X37.796 Y17.737
X38.044 Y17.879
X38.289 Y18.025
X38.532 Y18.176
X38.771 Y18.332
X39.008 Y18.492
X39.241 Y18.657
X39.471 Y18.826
X39.698 Y18.999
X39.922 Y19.177
X40.142 Y19.358
X40.359 Y19.544
X40.572 Y19.734
X40.782 Y19.928
X40.988 Y20.126
X41.19 Y20.328
X41.388 Y20.533
X41.583 Y20.742
X41.773 Y20.955
X41.96 Y21.171
X42.142 Y21.391
X42.32 Y21.614
X42.494 Y21.841
X42.664 Y22.07
X42.829 Y22.303
X42.99 Y22.539
X43.147 Y22.778
X43.299 Y23.02
X43.446 Y23.264
X43.589 Y23.512
X43.728 Y23.761
X43.861 Y24.014
X43.99 Y24.269
X44.114 Y24.526
X44.233 Y24.786
X44.347 Y25.048
X44.456 Y25.311
X44.56 Y25.577
X44.659 Y25.845
X44.754 Y26.115
X44.843 Y26.386
X44.927 Y26.659
X45.006 Y26.933
X45.08 Y27.209
X45.148 Y27.486
X45.212 Y27.765
X45.27 Y28.045
X45.322 Y28.325
X45.37 Y28.607
X45.412 Y28.889
X45.449 Y29.172
X45.48 Y29.456
X45.507 Y29.741
X45.528 Y30.025
X45.543 Y30.311
X45.553 Y30.596
X45.558 Y30.882
Y31.167
X45.551 Y31.453
X45.54 Y31.738
X45.523 Y32.023
X45.501 Y32.308
X45.473 Y32.592
X45.441 Y32.876
X45.402 Y33.159
X45.359 Y33.441
X45.31 Y33.722
X45.256 Y34.003
X45.196 Y34.282
X45.132 Y34.56
X45.062 Y34.837
X44.986 Y35.113
X44.906 Y35.387
X44.82 Y35.659
X44.73 Y35.93
X44.634 Y36.199
X44.533 Y36.466
X44.427 Y36.731
X44.316 Y36.994
X44.2 Y37.256
X44.08 Y37.514
X43.954 Y37.771
X43.824 Y38.025
X43.689 Y38.276
X43.549 Y38.525
X43.404 Y38.772
X43.255 Y39.015
X43.101 Y39.256
X42.942 Y39.493
X42.78 Y39.728
X42.612 Y39.959
X42.441 Y40.188
X42.265 Y40.413
X42.085 Y40.635
X41.901 Y40.853
X41.713 Y41.068
X41.52 Y41.279
X41.324 Y41.486
X41.124 Y41.69
X40.92 Y41.89
X40.712 Y42.086
X40.501 Y42.278
X40.286 Y42.466
X40.068 Y42.65
X39.846 Y42.83
X39.621 Y43.006
X39.393 Y43.177
X39.161 Y43.345
X38.927 Y43.507
X38.689 Y43.666
X38.448 Y43.819
X38.205 Y43.969
X37.958 Y44.113
X37.71 Y44.253
X37.458 Y44.389
X37.204 Y44.519
X36.948 Y44.645
X36.689 Y44.766
X36.428 Y44.882
X36.165 Y44.994
X35.9 Y45.1
X35.633 Y45.201
X35.364 Y45.298
X35.094 Y45.389
X34.822 Y45.475
X34.548 Y45.556
X34.272 Y45.632
X33.996 Y45.703
X33.718 Y45.769
X33.439 Y45.829
X33.159 Y45.885
X32.877 Y45.935
X32.595 Y45.98
X32.313 Y46.02
X32.029 Y46.054
X31.745 Y46.083
X31.46 Y46.107
X31.175 Y46.125
X30.89 Y46.138
X30.605 Y46.146
X30.319 Y46.149
X30.034 Y46.146
X29.748 Y46.138
X29.463 Y46.125
X29.178 Y46.107
X28.893 Y46.083
X28.609 Y46.054
X28.326 Y46.02
X28.043 Y45.98
X27.761 Y45.935
X27.48 Y45.885
X27.199 Y45.83
X26.92 Y45.77
X26.642 Y45.705
X26.365 Y45.634
X26.09 Y45.559
X25.816 Y45.478
X25.544 Y45.392
X25.273 Y45.302
X25.004 Y45.206
X24.736 Y45.106
X24.471 Y45
X24.208 Y44.89
X23.946 Y44.775
X23.687 Y44.655
X23.43 Y44.53
X23.176 Y44.401
X22.923 Y44.267
X22.674 Y44.128
X22.427 Y43.985
X22.182 Y43.837
X21.94 Y43.685
X21.701 Y43.529
X21.465 Y43.368
X21.232 Y43.203
X21.002 Y43.033
X20.776 Y42.86
X20.552 Y42.682
X20.332 Y42.5
X20.115 Y42.315
X19.901 Y42.125
X19.691 Y41.931
X19.485 Y41.734
X19.282 Y41.533
X19.083 Y41.328
X18.888 Y41.12
X18.696 Y40.908
X18.508 Y40.693
X18.325 Y40.474
X18.145 Y40.252
X17.97 Y40.027
X17.798 Y39.799
X17.631 Y39.567
X17.468 Y39.333
X17.309 Y39.095
X17.155 Y38.855
X17.005 Y38.612
X16.859 Y38.366
X16.718 Y38.118
X16.582 Y37.867
X16.45 Y37.614
X16.322 Y37.358
X16.2 Y37.1
X16.082 Y36.84
X15.969 Y36.578
X15.86 Y36.314
X15.757 Y36.048
X15.658 Y35.78
X15.564 Y35.51
X15.475 Y35.239
X15.391 Y34.966
X15.312 Y34.691
X15.238 Y34.415
X15.169 Y34.138
X15.105 Y33.86
X15.046 Y33.581
X14.992 Y33.3
X14.944 Y33.019
X14.9 Y32.736
X14.862 Y32.453
X14.828 Y32.17
X14.8 Y31.886
X14.777 Y31.601
X14.759 Y31.316
X14.746 Y31.031
X14.738 Y30.745
X14.736 Y30.46
X14.739 Y30.174
X14.747 Y29.889
X14.76 Y29.603
X14.778 Y29.318
X14.802 Y29.034
X14.83 Y28.75
X14.864 Y28.466
X14.903 Y28.183
X14.947 Y27.901
X14.996 Y27.62
X15.05 Y27.339
X15.109 Y27.06
X15.173 Y26.781
X15.242 Y26.504
X15.316 Y26.229
X15.396 Y25.954
X15.48 Y25.681
X15.569 Y25.41
X15.663 Y25.14
X15.762 Y24.872
X15.865 Y24.606
X15.974 Y24.342
X16.087 Y24.08
X16.205 Y23.82
X16.327 Y23.562
X16.455 Y23.306
X16.586 Y23.053
X16.723 Y22.802
X16.864 Y22.554
X17.009 Y22.308
X17.159 Y22.065
X17.313 Y21.824
X17.472 Y21.587
X17.635 Y21.352
X17.801 Y21.12
X17.973 Y20.892
X18.148 Y20.666
X18.327 Y20.444
X18.51 Y20.225
X18.697 Y20.009
X18.888 Y19.797
X19.083 Y19.588
X19.282 Y19.383
X19.484 Y19.181
X19.69 Y18.983
X19.899 Y18.789
X20.112 Y18.599
X20.329 Y18.412
X20.548 Y18.23
X20.771 Y18.051
X20.997 Y17.877
X21.226 Y17.706
X21.458 Y17.54
X21.693 Y17.378
X21.931 Y17.22
X22.172 Y17.067
X22.416 Y16.918
X22.662 Y16.773
X22.911 Y16.633
X23.162 Y16.497
X23.416 Y16.366
X23.672 Y16.24
X23.93 Y16.118
X24.191 Y16
X24.453 Y15.888
X24.718 Y15.78
X24.984 Y15.677
X25.252 Y15.579
X25.522 Y15.486
X25.794 Y15.398
X26.067 Y15.314
X26.342 Y15.236
X26.618 Y15.162
X26.895 Y15.094
X27.173 Y15.03
X27.453 Y14.971
X27.733 Y14.918
X28.015 Y14.87
X28.297 Y14.826
X28.58 Y14.788
X28.864 Y14.755
X29.148 Y14.727
X29.432 Y14.704
X29.717 Y14.686
X30.003 Y14.674
X30.288 Y14.666
X30.574 Y14.664
X30.859 Y14.667
X31.145 Y14.674
X31.43 Y14.687
X31.715 Y14.706
X32 Y14.729
X32.284 Y14.757
X32.568 Y14.79
X32.851 Y14.829
X33.133 Y14.873
X33.414 Y14.921
X33.695 Y14.975
X33.974 Y15.034
X34.253 Y15.097
X34.53 Y15.166
X34.806 Y15.24
X35.08 Y15.318
X35.353 Y15.401
X35.625 Y15.49
X35.895 Y15.582
X36.163 Y15.68
X36.43 Y15.783
X36.695 Y15.89
X36.957 Y16.002
X37.218 Y16.119
X37.477 Y16.24
X37.733 Y16.366
X37.987 Y16.496
X38.239 Y16.631
X38.488 Y16.77
X38.735 Y16.913
X38.98 Y17.061
X39.221 Y17.213
X39.46 Y17.37
X39.697 Y17.53
X39.93 Y17.695
X40.16 Y17.863
X40.388 Y18.036
X40.612 Y18.213
X40.833 Y18.394
X41.051 Y18.578
X41.266 Y18.766
X41.477 Y18.958
X41.685 Y19.154
X41.89 Y19.353
X42.091 Y19.556
X42.288 Y19.762
X42.482 Y19.972
X42.673 Y20.185
X42.859 Y20.401
X43.042 Y20.621
X43.22 Y20.844
X43.395 Y21.07
X43.566 Y21.298
X43.733 Y21.53
X43.896 Y21.765
X44.054 Y22.002
X44.209 Y22.242
X44.359 Y22.485
X44.506 Y22.73
X44.647 Y22.978
X44.785 Y23.229
X44.918 Y23.481
X45.047 Y23.736
X45.171 Y23.993
X45.291 Y24.253
X45.406 Y24.514
X45.516 Y24.777
X45.622 Y25.042
X45.724 Y25.309
X45.821 Y25.578
X45.913 Y25.848
X46 Y26.12
X46.083 Y26.394
X46.161 Y26.668
X46.234 Y26.944
X46.302 Y27.222
X46.365 Y27.5
X46.424 Y27.78
X46.477 Y28.06
X46.526 Y28.342
X46.57 Y28.624
X46.608 Y28.907
X46.642 Y29.19
X46.671 Y29.474
X46.695 Y29.759
X46.714 Y30.044
X46.729 Y30.329
X46.738 Y30.615
X46.742 Y30.9
X46.741 Y31.186
X46.735 Y31.471
X46.724 Y31.757
X46.708 Y32.042
X46.687 Y32.327
X46.661 Y32.611
X46.63 Y32.895
X46.594 Y33.178
X46.554 Y33.461
X46.508 Y33.743
X46.457 Y34.024
X46.402 Y34.304
X46.342 Y34.583
X46.276 Y34.861
X46.206 Y35.138
X46.131 Y35.414
X46.051 Y35.688
X45.967 Y35.96
X45.877 Y36.232
X45.783 Y36.501
X45.684 Y36.769
X45.58 Y37.035
X45.472 Y37.3
X45.36 Y37.562
X45.242 Y37.822
X45.12 Y38.081
X44.994 Y38.337
X44.863 Y38.591
X44.728 Y38.842
X44.588 Y39.091
X44.444 Y39.338
X44.296 Y39.582
X44.143 Y39.823
X43.986 Y40.062
X43.825 Y40.298
X43.66 Y40.531
X43.491 Y40.761
X43.318 Y40.988
X43.141 Y41.212
X42.96 Y41.433
X42.775 Y41.651
X42.587 Y41.865
X42.395 Y42.077
X42.199 Y42.284
X41.999 Y42.489
X41.796 Y42.689
X41.589 Y42.886
X41.379 Y43.08
X41.166 Y43.27
X40.949 Y43.456
X40.73 Y43.638
X40.507 Y43.817
X40.281 Y43.991
X40.052 Y44.162
X39.82 Y44.329
X39.585 Y44.491
X39.347 Y44.649
X39.107 Y44.804
X38.864 Y44.954
X38.618 Y45.099
X38.37 Y45.241
X38.119 Y45.378
X37.867 Y45.51
X37.611 Y45.639
X37.354 Y45.763
X37.095 Y45.882
X36.833 Y45.997
X36.57 Y46.107
X36.305 Y46.213
X36.037 Y46.314
X35.769 Y46.411
X35.498 Y46.502
X35.226 Y46.589
X34.953 Y46.672
X34.678 Y46.749
X34.402 Y46.822
X34.124 Y46.89
X33.846 Y46.953
X33.566 Y47.012
X33.286 Y47.065
X33.005 Y47.114
X32.722 Y47.158
X32.439 Y47.197
X32.156 Y47.231
X31.872 Y47.26
X31.587 Y47.285
X31.302 Y47.304
X31.017 Y47.318
X30.732 Y47.328
X30.446 Y47.333
X30.161 Y47.332
X29.875 Y47.327
X29.59 Y47.317
X29.304 Y47.302
X29.02 Y47.282
X28.735 Y47.258
X28.451 Y47.228
X28.167 Y47.194
X27.885 Y47.154
X27.603 Y47.11
X27.321 Y47.061
X27.041 Y47.007
X26.761 Y46.948
X26.483 Y46.885
X26.206 Y46.816
X25.929 Y46.743
X25.655 Y46.666
X25.381 Y46.584
X25.109 Y46.497
X24.839 Y46.405
X24.57 Y46.309
X24.303 Y46.208
X24.037 Y46.103
X23.774 Y45.993
X23.512 Y45.878
X23.252 Y45.759
X22.995 Y45.636
X22.739 Y45.508
X22.486 Y45.376
X22.235 Y45.24
X21.986 Y45.1
X21.74 Y44.955
X21.496 Y44.806
X21.255 Y44.653
X21.017 Y44.496
X20.781 Y44.335
X20.548 Y44.17
X20.318 Y44.001
X20.09 Y43.828
X19.866 Y43.651
X19.645 Y43.471
X19.427 Y43.286
X19.212 Y43.098
X19 Y42.907
X18.792 Y42.711
X18.586 Y42.513
X18.385 Y42.311
X18.186 Y42.105
X17.991 Y41.896
X17.8 Y41.684
X17.613 Y41.469
X17.429 Y41.251
X17.249 Y41.029
X17.072 Y40.804
X16.9 Y40.577
X16.731 Y40.346
X16.566 Y40.113
X16.405 Y39.877
X16.249 Y39.638
X16.096 Y39.397
X15.947 Y39.153
X15.803 Y38.907
X15.662 Y38.658
X15.526 Y38.407
X15.394 Y38.154
X15.267 Y37.898
X15.144 Y37.641
X15.025 Y37.381
X14.911 Y37.119
X14.801 Y36.856
X14.695 Y36.59
X14.595 Y36.323
X14.498 Y36.054
X14.406 Y35.784
X14.319 Y35.512
X14.236 Y35.239
X14.158 Y34.964
X14.084 Y34.688
X14.015 Y34.411
X13.951 Y34.133
X13.892 Y33.853
X13.837 Y33.573
X13.787 Y33.292
X13.742 Y33.01
X13.702 Y32.727
X13.666 Y32.444
X13.635 Y32.16
X13.609 Y31.875
X13.588 Y31.591
X13.571 Y31.305
X13.56 Y31.02
X13.553 Y30.735
X13.55 Y30.449
X13.553 Y30.163
X13.561 Y29.878
X13.573 Y29.593
X13.59 Y29.308
X13.612 Y29.023
X13.639 Y28.739
X13.671 Y28.455
X13.707 Y28.171
X13.748 Y27.889
X13.794 Y27.607
X13.844 Y27.326
X13.9 Y27.046
X13.959 Y26.766
X14.024 Y26.488
X14.093 Y26.211
X14.167 Y25.935
X14.246 Y25.661
X14.329 Y25.388
X14.417 Y25.116
X14.51 Y24.846
X14.606 Y24.577
X14.708 Y24.31
X14.814 Y24.045
X14.924 Y23.781
X15.039 Y23.52
X15.158 Y23.26
X15.281 Y23.003
X15.409 Y22.747
X15.541 Y22.494
X15.677 Y22.243
X15.818 Y21.995
X15.962 Y21.748
X16.111 Y21.505
X16.264 Y21.263
X16.421 Y21.025
X16.582 Y20.789
X16.746 Y20.555
X16.915 Y20.325
X17.088 Y20.097
X17.264 Y19.873
X17.444 Y19.651
X17.628 Y19.432
X17.815 Y19.217
X18.006 Y19.005
X18.201 Y18.796
X18.399 Y18.59
X18.6 Y18.388
X18.805 Y18.189
X19.013 Y17.993
X19.225 Y17.801
X19.439 Y17.613
X19.657 Y17.428
X19.878 Y17.247
X20.102 Y17.069
X20.328 Y16.896
X20.558 Y16.726
X20.79 Y16.56
X21.026 Y16.398
X21.264 Y16.24
X21.504 Y16.086
X21.747 Y15.936
X21.993 Y15.791
X22.241 Y15.649
X22.491 Y15.511
X22.744 Y15.378
X22.999 Y15.249
X23.255 Y15.125
X23.514 Y15.004
X23.775 Y14.888
X24.038 Y14.776
X24.303 Y14.669
X24.569 Y14.566
X24.837 Y14.468
X25.107 Y14.375
X25.379 Y14.285
X25.651 Y14.201
X25.926 Y14.121
X26.201 Y14.045
X26.478 Y13.975
X26.755 Y13.909
X27.034 Y13.847
X27.314 Y13.79
X27.595 Y13.738
X27.877 Y13.691
X28.159 Y13.648
X28.442 Y13.61
X28.726 Y13.577
X29.01 Y13.549
X29.294 Y13.525
X29.579 Y13.506
X29.865 Y13.492
X30.15 Y13.483
X30.436 Y13.478
X30.721 Y13.479
X31.007 Y13.484
X31.292 Y13.494
X31.577 Y13.508
X31.862 Y13.527
X32.147 Y13.551
X32.431 Y13.58
X32.715 Y13.614
X32.998 Y13.652
X33.28 Y13.695
X33.561 Y13.743
X33.842 Y13.795
X34.122 Y13.852
X34.401 Y13.914
X34.679 Y13.98
X34.955 Y14.051
X35.231 Y14.127
X35.505 Y14.207
X35.778 Y14.291
X36.049 Y14.38
X36.319 Y14.474
X36.587 Y14.572
X36.854 Y14.674
X37.118 Y14.781
X37.381 Y14.893
X37.643 Y15.008
X37.902 Y15.128
X38.159 Y15.252
X38.414 Y15.381
X38.667 Y15.513
X38.918 Y15.65
X39.166 Y15.791
X39.412 Y15.935
X39.656 Y16.084
X39.897 Y16.237
X40.136 Y16.394
X40.372 Y16.554
X40.606 Y16.719
X40.836 Y16.887
X41.064 Y17.059
X41.289 Y17.235
X41.512 Y17.415
X41.731 Y17.598
X41.947 Y17.784
X42.16 Y17.974
X42.37 Y18.168
X42.577 Y18.365
X42.781 Y18.565
X42.981 Y18.768
X43.178 Y18.975
X43.372 Y19.185
X43.562 Y19.398
X43.748 Y19.614
X43.931 Y19.834
X44.111 Y20.056
X44.287 Y20.281
X44.459 Y20.509
X44.627 Y20.739
X44.792 Y20.973
X44.953 Y21.209
X45.11 Y21.447
X45.263 Y21.688
X45.412 Y21.932
X45.558 Y22.177
X45.699 Y22.426
X45.836 Y22.676
X45.969 Y22.929
X46.098 Y23.183
X46.223 Y23.44
X46.344 Y23.699
X46.46 Y23.96
X46.572 Y24.223
X46.68 Y24.487
X46.783 Y24.753
X46.883 Y25.021
X46.978 Y25.29
X47.068 Y25.561
X47.154 Y25.833
X47.236 Y26.107
X47.313 Y26.382
X47.386 Y26.658
X47.454 Y26.936
X47.518 Y27.214
X47.577 Y27.493
X47.632 Y27.774
X47.682 Y28.055
X47.727 Y28.337
X47.768 Y28.619
X47.804 Y28.903
X47.836 Y29.186
X47.863 Y29.471
X47.886 Y29.755
X47.903 Y30.04
X47.917 Y30.326
X47.925 Y30.611
X47.929 Y30.897
X47.928 Y31.182
X47.923 Y31.468
X47.913 Y31.753
X47.898 Y32.038
X47.878 Y32.323
X47.854 Y32.608
X47.825 Y32.892
X47.792 Y33.176
X47.754 Y33.459
X47.711 Y33.741
X47.664 Y34.023
X47.613 Y34.304
X47.556 Y34.584
X47.496 Y34.863
X47.43 Y35.141
X47.36 Y35.418
X47.286 Y35.693
X47.207 Y35.968
X47.123 Y36.241
X47.035 Y36.512
X46.943 Y36.783
X46.846 Y37.051
X46.745 Y37.318
X46.639 Y37.584
X46.53 Y37.847
X46.416 Y38.109
X46.297 Y38.369
X46.175 Y38.627
X46.048 Y38.883
X45.917 Y39.137
X45.782 Y39.389
X45.643 Y39.638
X45.5 Y39.885
X45.352 Y40.13
X45.201 Y40.372
X45.046 Y40.612
X44.887 Y40.849
X44.724 Y41.084
X44.557 Y41.315
X44.387 Y41.545
X44.213 Y41.771
X44.035 Y41.995
X43.854 Y42.215
X43.669 Y42.433
X43.48 Y42.647
X43.288 Y42.859
X43.093 Y43.067
X42.894 Y43.272
X42.692 Y43.474
X42.487 Y43.672
X42.278 Y43.867
X42.066 Y44.059
X41.852 Y44.247
X41.634 Y44.432
X41.413 Y44.613
X41.189 Y44.79
X40.963 Y44.964
X40.733 Y45.134
X40.501 Y45.301
X40.267 Y45.463
X40.029 Y45.622
X39.789 Y45.777
X39.547 Y45.928
X39.302 Y46.075
X39.055 Y46.218
X38.805 Y46.357
X38.553 Y46.492
X38.3 Y46.622
X38.044 Y46.749
X37.786 Y46.872
X37.526 Y46.99
X37.264 Y47.104
X37 Y47.214
X36.735 Y47.32
X36.468 Y47.421
X36.199 Y47.518
X35.929 Y47.611
X35.658 Y47.699
X35.385 Y47.782
X35.11 Y47.862
X34.835 Y47.937
X34.558 Y48.007
X34.28 Y48.073
X34.001 Y48.135
X33.721 Y48.192
X33.441 Y48.244
X33.159 Y48.292
X32.877 Y48.336
X32.594 Y48.375
X32.31 Y48.409
X32.026 Y48.439
X31.742 Y48.464
X31.457 Y48.485
X31.172 Y48.5
X30.887 Y48.512
X30.601 Y48.519
X30.316 Y48.521
X30.03 Y48.519
X29.745 Y48.512
X29.459 Y48.5
X29.174 Y48.484
X28.889 Y48.464
X28.605 Y48.439
X28.321 Y48.409
X28.037 Y48.375
X27.754 Y48.336
X27.472 Y48.292
X27.19 Y48.244
X26.91 Y48.192
X26.63 Y48.135
X26.351 Y48.074
X26.073 Y48.008
X25.796 Y47.938
X25.521 Y47.863
X25.246 Y47.784
X24.973 Y47.701
X24.701 Y47.613
X24.431 Y47.521
X24.162 Y47.425
X23.895 Y47.324
X23.629 Y47.219
X23.365 Y47.11
X23.103 Y46.997
X22.843 Y46.879
X22.584 Y46.758
X22.328 Y46.632
X22.074 Y46.502
X21.821 Y46.368
X21.571 Y46.231
X21.323 Y46.089
X21.077 Y45.943
X20.834 Y45.794
X20.593 Y45.641
X20.355 Y45.483
X20.119 Y45.322
X19.886 Y45.158
X19.655 Y44.989
X19.427 Y44.817
X19.202 Y44.642
X18.98 Y44.462
X18.76 Y44.28
X18.544 Y44.093
X18.33 Y43.904
X18.119 Y43.711
X17.912 Y43.515
X17.707 Y43.315
X17.506 Y43.113
X17.308 Y42.907
X17.114 Y42.698
X16.922 Y42.486
X16.734 Y42.271
X16.55 Y42.053
X16.369 Y41.832
X16.191 Y41.608
X16.018 Y41.382
X15.847 Y41.152
X15.681 Y40.92
X15.518 Y40.686
X15.358 Y40.449
X15.203 Y40.209
X15.051 Y39.968
X14.903 Y39.723
X14.759 Y39.477
X14.619 Y39.228
X14.483 Y38.977
X14.351 Y38.724
X14.223 Y38.468
X14.099 Y38.211
X13.979 Y37.952
X13.863 Y37.691
X13.751 Y37.428
X13.643 Y37.164
X13.54 Y36.897
X13.441 Y36.63
X13.346 Y36.36
X13.255 Y36.089
X13.169 Y35.817
X13.086 Y35.544
X13.009 Y35.269
X12.935 Y34.993
X12.866 Y34.716
X12.801 Y34.438
X12.741 Y34.159
X12.685 Y33.879
X12.634 Y33.598
X12.587 Y33.316
X12.544 Y33.034
X12.506 Y32.751
X12.472 Y32.467
X12.443 Y32.183
X12.418 Y31.898
X12.398 Y31.614
X12.382 Y31.328
X12.371 Y31.043
X12.364 Y30.758
X12.362 Y30.472
X12.364 Y30.186
X12.37 Y29.901
X12.382 Y29.616
X12.397 Y29.33
X12.418 Y29.045
X12.442 Y28.761
X12.471 Y28.477
X12.505 Y28.193
X12.543 Y27.91
X12.585 Y27.628
X12.632 Y27.346
X12.683 Y27.065
X12.739 Y26.785
X12.799 Y26.506
X12.864 Y26.228
X12.933 Y25.951
X13.006 Y25.675
X13.084 Y25.4
X13.165 Y25.126
X13.252 Y24.854
X13.342 Y24.583
X13.437 Y24.314
X13.536 Y24.046
X13.639 Y23.779
X13.746 Y23.515
X13.857 Y23.252
X13.973 Y22.99
X14.092 Y22.731
X14.216 Y22.474
X14.344 Y22.218
X14.476 Y21.965
X14.611 Y21.714
X14.751 Y21.464
X14.894 Y21.218
X15.042 Y20.973
X15.193 Y20.731
X15.348 Y20.491
X15.507 Y20.253
X15.669 Y20.019
X15.835 Y19.786
X16.005 Y19.557
X16.178 Y19.33
X16.355 Y19.105
X16.535 Y18.884
X16.719 Y18.665
X16.906 Y18.45
X17.097 Y18.237
X17.291 Y18.027
X17.488 Y17.821
X17.689 Y17.617
X17.892 Y17.417
X18.099 Y17.22
X18.309 Y17.026
X18.521 Y16.836
X18.737 Y16.648
X18.956 Y16.465
X19.177 Y16.284
X19.401 Y16.108
X19.628 Y15.934
X19.858 Y15.765
X20.09 Y15.599
X20.325 Y15.436
X20.563 Y15.278
X20.803 Y15.123
X21.045 Y14.972
X21.29 Y14.824
X21.537 Y14.681
X21.786 Y14.542
X22.037 Y14.406
X22.291 Y14.274
X22.546 Y14.147
X22.804 Y14.023
X23.063 Y13.903
X23.324 Y13.788
X23.587 Y13.676
X23.852 Y13.569
X24.118 Y13.466
X24.386 Y13.367
X24.655 Y13.272
X24.926 Y13.182
X25.198 Y13.096
X25.472 Y13.014
X25.747 Y12.936
X26.023 Y12.863
X26.3 Y12.794
X26.578 Y12.729
X26.857 Y12.669
X27.137 Y12.613
X27.418 Y12.562
X27.7 Y12.515
X27.982 Y12.472
X28.265 Y12.434
X28.549 Y12.4
X28.833 Y12.371
X29.118 Y12.346
X29.402 Y12.326
X29.688 Y12.31
X29.973 Y12.298
X30.258 Y12.291
X30.544 Y12.289
X30.83 Y12.291
X31.115 Y12.297
X31.4 Y12.308
X31.686 Y12.323
X31.971 Y12.343
X32.255 Y12.367
X32.539 Y12.395
X32.823 Y12.429
X33.106 Y12.466
X33.388 Y12.508
X33.67 Y12.554
X33.951 Y12.605
X34.232 Y12.66
X34.511 Y12.72
X34.789 Y12.783
X35.067 Y12.851
X35.343 Y12.924
X35.618 Y13
X35.892 Y13.081
X36.165 Y13.166
X36.436 Y13.255
X36.706 Y13.349
X36.974 Y13.447
X37.241 Y13.548
X37.506 Y13.654
X37.769 Y13.765
X38.031 Y13.879
X38.291 Y13.997
X38.549 Y14.119
X38.806 Y14.245
X39.06 Y14.375
X39.312 Y14.509
X39.562 Y14.647
X39.81 Y14.788
X40.056 Y14.934
X40.3 Y15.083
X40.541 Y15.236
X40.78 Y15.392
X41.016 Y15.553
X41.25 Y15.716
X41.481 Y15.884
X41.71 Y16.055
X41.936 Y16.229
X42.16 Y16.407
X42.38 Y16.589
X42.598 Y16.773
X42.813 Y16.961
X43.025 Y17.152
X43.235 Y17.347
X43.441 Y17.544
X43.644 Y17.745
X43.844 Y17.948
X44.041 Y18.155
X44.235 Y18.365
X44.425 Y18.578
X44.613 Y18.793
X44.797 Y19.012
X44.977 Y19.233
X45.154 Y19.457
X45.328 Y19.684
X45.499 Y19.913
X45.665 Y20.145
X45.829 Y20.379
X45.988 Y20.616
X46.145 Y20.855
X46.297 Y21.096
X46.446 Y21.34
X46.591 Y21.586
X46.732 Y21.834
X46.87 Y22.084
X47.003 Y22.337
X47.133 Y22.591
X47.259 Y22.848
X47.381 Y23.106
X47.499 Y23.366
X47.613 Y23.628
X47.723 Y23.891
X47.829 Y24.156
X47.931 Y24.423
X48.029 Y24.691
X48.123 Y24.961
X48.213 Y25.232
X48.299 Y25.504
X48.38 Y25.778
X48.458 Y26.053
X48.531 Y26.329
X48.6 Y26.606
X48.664 Y26.884
X48.725 Y27.164
X48.781 Y27.444
X48.833 Y27.724
X48.88 Y28.006
X48.924 Y28.288
X48.963 Y28.571
X48.997 Y28.855
X49.028 Y29.139
X49.054 Y29.423
X49.076 Y29.708
X49.093 Y29.993
X49.106 Y30.278
X49.115 Y30.563
X49.119 Y30.849
Y31.135
X49.115 Y31.42
X49.106 Y31.706
X49.093 Y31.991
X49.075 Y32.276
X49.053 Y32.561
X49.027 Y32.845
X48.997 Y33.129
X48.962 Y33.412
X48.923 Y33.695
X48.879 Y33.978
X48.832 Y34.259
X48.78 Y34.54
X48.723 Y34.82
X48.663 Y35.099
X48.598 Y35.377
X48.528 Y35.654
X48.455 Y35.93
X48.377 Y36.205
X48.296 Y36.479
X48.21 Y36.751
X48.119 Y37.022
X48.025 Y37.291
X47.927 Y37.56
X47.824 Y37.826
X47.718 Y38.091
X47.608 Y38.355
X47.493 Y38.616
X47.375 Y38.876
X47.252 Y39.134
X47.126 Y39.39
X46.995 Y39.644
X46.861 Y39.896
X46.723 Y40.146
X46.581 Y40.394
X46.435 Y40.64
X46.286 Y40.883
X46.133 Y41.124
X45.976 Y41.363
X45.816 Y41.599
X45.652 Y41.833
X45.485 Y42.064
X45.314 Y42.293
X45.139 Y42.519
X44.961 Y42.743
X44.78 Y42.963
X44.595 Y43.181
X44.407 Y43.396
X44.216 Y43.608
X44.022 Y43.817
X43.824 Y44.024
X43.623 Y44.227
X43.419 Y44.427
X43.213 Y44.624
X43.003 Y44.817
X42.79 Y45.008
X42.575 Y45.195
X42.356 Y45.379
X42.135 Y45.56
X41.911 Y45.737
X41.685 Y45.911
X41.455 Y46.081
X41.224 Y46.248
X40.989 Y46.412
X40.752 Y46.571
X40.513 Y46.727
X40.272 Y46.88
X40.028 Y47.028
X39.782 Y47.173
X39.534 Y47.314
X39.283 Y47.452
X39.031 Y47.586
X38.777 Y47.715
X38.52 Y47.841
X38.262 Y47.963
X38.002 Y48.082
X37.74 Y48.196
X37.477 Y48.306
X37.212 Y48.412
X36.945 Y48.514
X36.677 Y48.612
X36.407 Y48.706
X36.136 Y48.796
X35.864 Y48.882
X35.59 Y48.963
X35.315 Y49.041
X35.039 Y49.114
X34.762 Y49.183
X34.484 Y49.248
X34.205 Y49.309
X33.925 Y49.366
X33.644 Y49.418
X33.363 Y49.466
X33.08 Y49.51
X32.798 Y49.549
X32.514 Y49.585
X32.23 Y49.615
X31.946 Y49.642
X31.661 Y49.664
X31.376 Y49.682
X31.091 Y49.696
X30.806 Y49.706
X30.52 Y49.711
X30.234 Y49.712
X29.949 Y49.709
X29.663 Y49.701
X29.378 Y49.689
X29.093 Y49.673
X28.808 Y49.652
X28.524 Y49.628
X28.24 Y49.598
X27.956 Y49.565
X27.673 Y49.527
X27.39 Y49.485
X27.108 Y49.439
X26.827 Y49.389
X26.547 Y49.334
X26.268 Y49.276
X25.989 Y49.213
X25.711 Y49.146
X25.435 Y49.075
X25.159 Y48.999
X24.885 Y48.92
X24.612 Y48.836
X24.34 Y48.749
X24.07 Y48.657
X23.801 Y48.561
X23.533 Y48.462
X23.267 Y48.358
X23.003 Y48.25
X22.74 Y48.138
X22.479 Y48.023
X22.219 Y47.903
X21.962 Y47.78
X21.706 Y47.653
X21.452 Y47.522
X21.2 Y47.387
X20.95 Y47.249
X20.703 Y47.107
X20.457 Y46.961
X20.214 Y46.812
X19.973 Y46.658
X19.734 Y46.502
X19.498 Y46.341
X19.264 Y46.178
X19.032 Y46.01
X18.803 Y45.84
X18.577 Y45.666
X18.353 Y45.488
X18.132 Y45.308
X17.913 Y45.124
X17.698 Y44.937
X17.485 Y44.746
X17.275 Y44.553
X17.067 Y44.356
X16.863 Y44.157
X16.662 Y43.954
X16.464 Y43.748
X16.269 Y43.54
X16.077 Y43.328
X15.888 Y43.114
X15.702 Y42.897
X15.52 Y42.677
X15.341 Y42.455
X15.165 Y42.229
X14.993 Y42.002
X14.824 Y41.772
X14.658 Y41.539
X14.496 Y41.304
X14.338 Y41.066
X14.183 Y40.827
X14.031 Y40.585
X13.883 Y40.34
X13.739 Y40.094
X13.598 Y39.845
X13.462 Y39.594
X13.328 Y39.342
X13.199 Y39.087
X13.074 Y38.831
X12.952 Y38.572
X12.834 Y38.312
X12.72 Y38.05
X12.61 Y37.787
X12.504 Y37.522
X12.401 Y37.255
X12.303 Y36.987
X12.208 Y36.718
X12.118 Y36.447
X12.031 Y36.175
X11.949 Y35.901
X11.871 Y35.626
X11.797 Y35.351
X11.726 Y35.074
X11.66 Y34.796
X11.599 Y34.517
X11.541 Y34.237
X11.487 Y33.957
X11.438 Y33.676
X11.393 Y33.394
X11.351 Y33.111
X11.314 Y32.828
X11.282 Y32.544
X11.253 Y32.26
X11.228 Y31.976
X11.208 Y31.691
X11.192 Y31.406
X11.18 Y31.12
X11.173 Y30.835
X11.17 Y30.549
X11.171 Y30.264
X11.176 Y29.978
X11.185 Y29.693
X11.199 Y29.407
X11.217 Y29.122
X11.239 Y28.838
X11.265 Y28.553
X11.295 Y28.269
X11.33 Y27.986
X11.368 Y27.703
X11.411 Y27.421
X11.458 Y27.139
X11.509 Y26.858
X11.565 Y26.578
X11.624 Y26.298
X11.688 Y26.02
X11.756 Y25.743
X11.827 Y25.466
X11.903 Y25.191
X11.983 Y24.917
X12.067 Y24.644
X12.155 Y24.372
X12.247 Y24.102
X12.343 Y23.833
X12.443 Y23.565
X12.547 Y23.299
X12.654 Y23.035
X12.766 Y22.772
X12.881 Y22.51
X13.001 Y22.251
X13.124 Y21.993
X13.251 Y21.738
X13.382 Y21.484
X13.516 Y21.232
X13.654 Y20.982
X13.796 Y20.734
X13.942 Y20.488
X14.091 Y20.245
X14.243 Y20.003
X14.399 Y19.764
X14.559 Y19.527
X14.722 Y19.293
X14.889 Y19.061
X15.059 Y18.831
X15.232 Y18.604
X15.408 Y18.38
X15.588 Y18.158
X15.772 Y17.939
X15.958 Y17.723
X16.148 Y17.509
X16.34 Y17.298
X16.536 Y17.091
X16.735 Y16.886
X16.937 Y16.684
X17.142 Y16.485
X17.35 Y16.289
X17.56 Y16.096
X17.773 Y15.906
X17.989 Y15.719
X18.208 Y15.536
X18.43 Y15.355
X18.654 Y15.178
X18.881 Y15.005
X19.11 Y14.835
X19.342 Y14.668
X19.576 Y14.504
X19.813 Y14.344
X20.052 Y14.188
X20.293 Y14.035
X20.536 Y13.886
X20.782 Y13.74
X21.03 Y13.598
X21.279 Y13.46
X21.531 Y13.325
X21.785 Y13.194
X22.041 Y13.066
X22.298 Y12.943
X22.557 Y12.823
X22.818 Y12.707
X23.081 Y12.595
X23.345 Y12.487
X23.611 Y12.383
X23.879 Y12.283
X24.148 Y12.187
X24.418 Y12.094
X24.689 Y12.006
X24.962 Y11.922
X25.236 Y11.841
X25.511 Y11.765
X25.788 Y11.693
X26.065 Y11.624
X26.343 Y11.56
X26.622 Y11.5
X26.903 Y11.444
X27.183 Y11.392
X27.465 Y11.345
X27.747 Y11.301
X28.03 Y11.262
X28.314 Y11.227
X28.597 Y11.196
X28.882 Y11.169
X29.166 Y11.147
X29.451 Y11.128
X29.737 Y11.114
X30.022 Y11.104
X30.308 Y11.098
X30.593 Y11.096
X30.879 Y11.099
X31.164 Y11.105
X31.45 Y11.116
X31.735 Y11.131
X32.02 Y11.151
X32.304 Y11.174
X32.589 Y11.202
X32.872 Y11.233
X33.156 Y11.269
X33.438 Y11.309
X33.721 Y11.354
X34.002 Y11.402
X34.283 Y11.454
X34.563 Y11.511
X34.842 Y11.572
X35.12 Y11.636
X35.397 Y11.705
X35.673 Y11.777
X35.948 Y11.854
X36.222 Y11.935
X36.495 Y12.02
X36.767 Y12.108
X37.037 Y12.201
X37.305 Y12.298
X37.573 Y12.398
X37.839 Y12.502
X38.103 Y12.611
X38.366 Y12.723
X38.627 Y12.839
X38.886 Y12.958
X39.143 Y13.081
X39.399 Y13.208
X39.653 Y13.339
X39.905 Y13.473
X40.155 Y13.611
X40.403 Y13.753
X40.649 Y13.898
X40.893 Y14.047
X41.135 Y14.199
X41.374 Y14.355
X41.611 Y14.514
X41.846 Y14.677
X42.078 Y14.843
X42.308 Y15.012
X42.536 Y15.184
X42.761 Y15.36
X42.983 Y15.539
X43.203 Y15.721
X43.421 Y15.907
X43.635 Y16.095
X43.847 Y16.287
X44.056 Y16.481
X44.263 Y16.678
X44.466 Y16.879
X44.667 Y17.082
X44.864 Y17.288
X45.059 Y17.498
X45.25 Y17.709
X45.439 Y17.924
X45.624 Y18.141
X45.806 Y18.361
X45.986 Y18.583
X46.162 Y18.808
X46.334 Y19.036
X46.504 Y19.266
X46.67 Y19.498
X46.833 Y19.732
X46.992 Y19.969
X47.148 Y20.209
X47.301 Y20.45
X47.45 Y20.693
X47.596 Y20.939
X47.738 Y21.187
X47.876 Y21.437
X48.011 Y21.688
X48.142 Y21.942
X48.27 Y22.197
X48.394 Y22.455
X48.514 Y22.714
X48.631 Y22.974
X48.744 Y23.237
X48.853 Y23.501
X48.958 Y23.766
X49.06 Y24.033
X49.158 Y24.301
X49.252 Y24.571
X49.342 Y24.842
X49.428 Y25.114
X49.51 Y25.388
X49.588 Y25.662
X49.662 Y25.938
X49.733 Y26.215
X49.799 Y26.493
X49.861 Y26.771
X49.92 Y27.051
X49.974 Y27.331
X50.025 Y27.612
X50.071 Y27.894
X50.113 Y28.177
X50.152 Y28.46
X50.186 Y28.743
X50.216 Y29.027
X50.242 Y29.311
X50.265 Y29.596
X50.282 Y29.881
X50.296 Y30.166
X50.306 Y30.452
X50.312 Y30.737
X50.313 Y31.023
X50.31 Y31.309
X50.304 Y31.594
X50.293 Y31.879
X50.278 Y32.165
X50.259 Y32.45
X50.236 Y32.734
X50.209 Y33.019
X50.178 Y33.302
X50.143 Y33.586
X50.104 Y33.869
X50.06 Y34.151
X50.013 Y34.433
X49.961 Y34.714
X49.906 Y34.994
X49.846 Y35.273
X49.783 Y35.551
X49.715 Y35.829
X49.644 Y36.105
X49.568 Y36.381
X49.489 Y36.655
X49.405 Y36.928
X49.318 Y37.2
X49.227 Y37.471
X49.132 Y37.74
X49.033 Y38.008
X48.931 Y38.275
X48.824 Y38.54
X48.714 Y38.803
X48.6 Y39.065
X48.482 Y39.325
X48.36 Y39.583
X48.235 Y39.84
X48.106 Y40.095
X47.973 Y40.348
X47.837 Y40.598
X47.697 Y40.847
X47.554 Y41.094
X47.407 Y41.339
X47.256 Y41.582
X47.102 Y41.823
X46.945 Y42.061
X46.784 Y42.297
X46.62 Y42.531
X46.453 Y42.762
X46.282 Y42.991
X46.108 Y43.218
X45.931 Y43.442
X45.75 Y43.663
X45.567 Y43.882
X45.38 Y44.098
X45.19 Y44.311
X44.997 Y44.521
X44.801 Y44.729
X44.602 Y44.934
X44.401 Y45.136
X44.196 Y45.336
X43.989 Y45.532
X43.779 Y45.725
X43.566 Y45.916
X43.35 Y46.103
X43.132 Y46.287
X42.911 Y46.468
X42.687 Y46.646
X42.461 Y46.82
X42.233 Y46.991
X42.002 Y47.159
X41.768 Y47.324
X41.532 Y47.485
X41.294 Y47.643
X41.054 Y47.797
X40.812 Y47.948
X40.567 Y48.096
X40.321 Y48.24
X40.072 Y48.381
X39.822 Y48.518
X39.569 Y48.651
X39.315 Y48.781
X39.059 Y48.907
X38.801 Y49.03
X38.541 Y49.148
X38.279 Y49.263
X38.016 Y49.375
X37.752 Y49.482
X37.486 Y49.586
X37.218 Y49.686
X36.949 Y49.782
X36.679 Y49.874
X36.407 Y49.962
X36.135 Y50.047
X35.861 Y50.127
X35.586 Y50.204
X35.31 Y50.277
X35.032 Y50.346
X34.754 Y50.411
X34.475 Y50.472
X34.196 Y50.529
X33.915 Y50.582
X33.634 Y50.631
X33.352 Y50.676
X33.069 Y50.717
X32.786 Y50.754
X32.502 Y50.787
X32.218 Y50.816
X31.933 Y50.841
X31.649 Y50.862
X31.364 Y50.879
X31.078 Y50.892
X30.793 Y50.9
X30.507 Y50.905
X30.222 Y50.906
X29.936 Y50.903
X29.651 Y50.895
X29.365 Y50.884
X29.08 Y50.868
X28.795 Y50.849
X28.511 Y50.825
X28.226 Y50.798
X27.943 Y50.766
X27.659 Y50.731
X27.376 Y50.691
X27.094 Y50.647
X26.813 Y50.6
X26.532 Y50.548
X26.252 Y50.493
X25.972 Y50.433
X25.694 Y50.37
X25.416 Y50.303
X25.14 Y50.232
X24.864 Y50.157
X24.59 Y50.078
X24.316 Y49.995
X24.044 Y49.909
X23.773 Y49.818
X23.504 Y49.724
X23.235 Y49.626
X22.969 Y49.524
X22.703 Y49.418
X22.44 Y49.309
X22.177 Y49.196
X21.917 Y49.079
X21.658 Y48.959
X21.4 Y48.835
X21.145 Y48.707
X20.891 Y48.576
X20.639 Y48.442
X20.389 Y48.304
X20.141 Y48.162
X19.895 Y48.017
X19.651 Y47.868
X19.41 Y47.716
X19.17 Y47.561
X18.933 Y47.402
X18.698 Y47.24
X18.465 Y47.075
X18.234 Y46.906
X18.006 Y46.734
X17.78 Y46.559
X17.557 Y46.381
X17.336 Y46.2
X17.118 Y46.016
X16.903 Y45.828
X16.69 Y45.638
X16.479 Y45.445
X16.272 Y45.249
X16.067 Y45.05
X15.865 Y44.848
X15.666 Y44.643
X15.47 Y44.435
X15.277 Y44.225
X15.087 Y44.012
X14.899 Y43.796
X14.715 Y43.578
X14.534 Y43.357
X14.356 Y43.134
X14.181 Y42.908
X14.009 Y42.68
X13.84 Y42.45
X13.675 Y42.217
X13.513 Y41.982
X13.354 Y41.745
X13.198 Y41.505
X13.046 Y41.263
X12.898 Y41.02
X12.752 Y40.774
X12.61 Y40.526
X12.472 Y40.276
X12.337 Y40.024
X12.206 Y39.771
X12.078 Y39.515
X11.954 Y39.258
X11.833 Y38.999
X11.716 Y38.739
X11.603 Y38.477
X11.493 Y38.213
X11.387 Y37.948
X11.285 Y37.681
X11.186 Y37.413
X11.091 Y37.144
X11 Y36.873
X10.913 Y36.601
X10.829 Y36.328
X10.75 Y36.054
X10.674 Y35.779
X10.602 Y35.502
X10.534 Y35.225
X10.47 Y34.947
X10.409 Y34.668
X10.353 Y34.388
X10.3 Y34.107
X10.252 Y33.825
X10.207 Y33.543
X10.166 Y33.261
X10.129 Y32.978
X10.096 Y32.694
X10.067 Y32.41
X10.042 Y32.125
X10.021 Y31.841
X10.004 Y31.556
X9.99 Y31.27
X9.981 Y30.985
X9.976 Y30.699
X9.975 Y30.414
X9.978 Y30.128
X9.985 Y29.843
X9.995 Y29.557
X10.01 Y29.272
X10.028 Y28.987
X10.051 Y28.702
X10.077 Y28.418
X10.108 Y28.134
X10.142 Y27.851
X10.18 Y27.568
X10.223 Y27.285
X10.269 Y27.003
X10.319 Y26.722
X10.373 Y26.442
X10.431 Y26.162
X10.493 Y25.883
X10.559 Y25.605
X10.628 Y25.328
X10.702 Y25.052
X10.779 Y24.777
X10.86 Y24.504
X10.945 Y24.231
X11.033 Y23.959
X11.126 Y23.689
X11.222 Y23.42
X11.321 Y23.153
X11.425 Y22.886
X11.532 Y22.622
X11.643 Y22.359
X11.757 Y22.097
X11.876 Y21.837
X11.997 Y21.579
X12.123 Y21.322
X12.252 Y21.067
X12.384 Y20.814
X12.52 Y20.563
X12.66 Y20.314
X12.802 Y20.067
X12.949 Y19.821
X13.098 Y19.578
X13.251 Y19.337
X13.407 Y19.098
X13.567 Y18.861
X13.73 Y18.626
X13.896 Y18.394
X14.065 Y18.164
X14.238 Y17.937
X14.414 Y17.711
X14.592 Y17.489
X14.774 Y17.269
X14.959 Y17.051
X15.147 Y16.836
X15.338 Y16.624
X15.532 Y16.414
X15.729 Y16.207
X15.928 Y16.002
X16.13 Y15.801
X16.336 Y15.602
X16.543 Y15.406
X16.754 Y15.213
X16.967 Y15.023
X17.183 Y14.836
X17.401 Y14.652
X17.622 Y14.471
X17.846 Y14.294
X18.072 Y14.119
X18.3 Y13.947
X18.531 Y13.779
X18.764 Y13.614
X18.999 Y13.452
X19.236 Y13.293
X19.476 Y13.138
X19.718 Y12.986
X19.962 Y12.837
X20.207 Y12.692
X20.455 Y12.55
X20.705 Y12.412
X20.957 Y12.277
X21.21 Y12.145
X21.466 Y12.017
X21.723 Y11.893
X21.982 Y11.772
X22.242 Y11.655
X22.504 Y11.542
X22.768 Y11.432
X23.033 Y11.326
X23.299 Y11.224
X23.567 Y11.125
X23.837 Y11.03
X24.107 Y10.938
X24.379 Y10.851
X24.652 Y10.767
X24.926 Y10.687
X25.201 Y10.611
X25.478 Y10.538
X25.755 Y10.47
X26.033 Y10.405
X26.312 Y10.344
X26.592 Y10.287
X26.873 Y10.234
X27.154 Y10.185
X27.436 Y10.14
X27.719 Y10.099
X28.002 Y10.061
X28.285 Y10.028
X28.569 Y9.998
X28.854 Y9.973
X29.138 Y9.951
X29.423 Y9.933
X29.709 Y9.919
X29.994 Y9.909
X30.28 Y9.903
X30.565 Y9.901
X30.851 Y9.903
X31.136 Y9.909
X31.422 Y9.919
X31.707 Y9.933
X31.992 Y9.95
X32.277 Y9.972
X32.561 Y9.998
X32.845 Y10.027
X33.129 Y10.061
X33.412 Y10.098
X33.695 Y10.14
X33.977 Y10.185
X34.258 Y10.234
X34.539 Y10.287
X34.818 Y10.343
X35.098 Y10.404
X35.376 Y10.468
X35.653 Y10.536
X35.929 Y10.608
X36.205 Y10.684
X36.479 Y10.764
X36.752 Y10.847
X37.024 Y10.934
X37.295 Y11.025
X37.564 Y11.12
X37.832 Y11.218
X38.099 Y11.32
X38.365 Y11.426
X38.628 Y11.535
X38.891 Y11.648
X39.152 Y11.764
X39.411 Y11.884
X39.668 Y12.007
X39.924 Y12.134
X40.178 Y12.264
X40.431 Y12.398
X40.681 Y12.535
X40.93 Y12.676
X41.176 Y12.82
X41.421 Y12.968
X41.663 Y13.119
X41.904 Y13.273
X42.142 Y13.43
X42.378 Y13.59
X42.612 Y13.754
X42.844 Y13.921
X43.073 Y14.091
X43.301 Y14.264
X43.525 Y14.44
X43.748 Y14.619
X43.968 Y14.802
X44.185 Y14.987
X44.4 Y15.175
X44.612 Y15.366
X44.822 Y15.56
X45.029 Y15.756
X45.234 Y15.956
X45.435 Y16.158
X45.634 Y16.363
X45.83 Y16.571
X46.023 Y16.781
X46.214 Y16.994
X46.401 Y17.209
X46.586 Y17.427
X46.768 Y17.647
X46.946 Y17.87
X47.122 Y18.095
X47.295 Y18.323
X47.464 Y18.552
X47.631 Y18.785
X47.794 Y19.019
X47.954 Y19.255
X48.111 Y19.494
X48.264 Y19.735
X48.415 Y19.978
X48.562 Y20.222
X48.705 Y20.469
X48.846 Y20.718
X48.983 Y20.969
X49.116 Y21.221
X49.247 Y21.475
X49.373 Y21.731
X49.497 Y21.989
X49.616 Y22.248
X49.733 Y22.509
X49.846 Y22.771
X49.955 Y23.035
X50.061 Y23.3
X50.163 Y23.567
X50.261 Y23.835
X50.356 Y24.104
X50.447 Y24.375
X50.535 Y24.647
X50.619 Y24.92
X50.699 Y25.194
X50.775 Y25.469
X50.848 Y25.745
X50.917 Y26.022
X50.982 Y26.3
X51.043 Y26.579
X51.101 Y26.859
X51.155 Y27.139
X51.205 Y27.42
X51.252 Y27.702
X51.294 Y27.985
X51.333 Y28.268
X51.368 Y28.551
X51.399 Y28.835
X51.426 Y29.119
X51.45 Y29.404
X51.469 Y29.689
X51.485 Y29.974
X51.496 Y30.259
X51.503 Y30.493
Y30.507
Y30.977
X51.489 Y31.263
X51.487 Y31.548
X51.48 Y31.834
X51.469 Y32.119
X51.453 Y32.404
X51.434 Y32.689
X51.41 Y32.974
X51.382 Y33.258
X51.35 Y33.542
X51.315 Y33.825
X51.275 Y34.108
X51.231 Y34.39
X51.184 Y34.672
X51.132 Y34.953
X51.077 Y35.233
X51.018 Y35.512
X50.954 Y35.791
X50.888 Y36.068
X50.817 Y36.345
X50.743 Y36.621
X50.664 Y36.895
X50.583 Y37.169
X50.497 Y37.441
X50.408 Y37.713
X50.315 Y37.983
X50.218 Y38.252
X50.118 Y38.519
X50.015 Y38.785
X49.907 Y39.05
X49.796 Y39.313
X49.682 Y39.574
X49.564 Y39.835
X49.442 Y40.093
X49.317 Y40.35
X49.188 Y40.605
X49.056 Y40.858
X48.921 Y41.109
X48.782 Y41.359
X48.64 Y41.606
X48.494 Y41.852
X48.345 Y42.096
X48.193 Y42.338
X48.038 Y42.577
X47.879 Y42.815
X47.717 Y43.05
X47.553 Y43.283
X47.384 Y43.514
X47.213 Y43.743
X47.039 Y43.969
X46.862 Y44.193
X46.681 Y44.414
X46.498 Y44.633
X46.311 Y44.849
X46.122 Y45.063
X45.93 Y45.274
X45.735 Y45.483
X45.537 Y45.689
X45.337 Y45.892
X45.133 Y46.093
X44.927 Y46.291
X44.719 Y46.486
X44.508 Y46.678
X44.294 Y46.868
X44.078 Y47.054
X43.859 Y47.238
X43.638 Y47.418
X43.414 Y47.596
X43.188 Y47.77
X42.959 Y47.941
X42.729 Y48.11
X42.496 Y48.275
X42.26 Y48.437
X42.023 Y48.596
X41.784 Y48.751
X41.542 Y48.904
X41.298 Y49.053
X41.053 Y49.198
X40.805 Y49.341
X40.556 Y49.48
X40.305 Y49.616
X40.052 Y49.748
X39.797 Y49.877
X39.54 Y50.003
X39.282 Y50.125
X39.022 Y50.243
X38.761 Y50.358
X38.498 Y50.47
X38.234 Y50.578
X37.968 Y50.682
X37.701 Y50.783
X37.432 Y50.88
X37.162 Y50.974
X36.891 Y51.063
X36.619 Y51.15
X36.346 Y51.232
X36.071 Y51.311
X35.796 Y51.387
X35.64 Y51.427
X35.58 Y51.44
X35.52 Y51.447
X35.459 Y51.45
X26.354
X26.069 Y51.436
X25.784 Y51.422
X25.5 Y51.396
X25.216 Y51.359
X24.935 Y51.312
X24.655 Y51.257
X24.376 Y51.194
X24.099 Y51.125
X23.823 Y51.05
X23.549 Y50.969
X23.277 Y50.883
X23.006 Y50.792
X22.737 Y50.697
X22.469 Y50.597
X22.203 Y50.494
X21.939 Y50.386
X21.676 Y50.274
X21.415 Y50.159
X21.155 Y50.04
X20.897 Y49.917
X20.641 Y49.791
X20.387 Y49.661
X20.135 Y49.527
X19.884 Y49.39
X19.635 Y49.25
X19.388 Y49.106
X19.143 Y48.96
X18.9 Y48.809
X18.66 Y48.656
X18.421 Y48.499
X18.184 Y48.34
X17.95 Y48.177
X17.717 Y48.011
X17.487 Y47.842
X17.259 Y47.67
X17.033 Y47.494
X16.81 Y47.316
X16.589 Y47.135
X16.371 Y46.952
X16.155 Y46.765
X15.941 Y46.575
X15.73 Y46.383
X15.522 Y46.187
X15.316 Y45.989
X15.113 Y45.789
X14.913 Y45.585
X14.715 Y45.379
X14.52 Y45.17
X14.327 Y44.959
X14.138 Y44.746
X13.951 Y44.529
X13.768 Y44.311
X13.587 Y44.09
X13.409 Y43.867
X13.234 Y43.641
X13.062 Y43.413
X12.893 Y43.183
X12.727 Y42.95
X12.564 Y42.716
X12.404 Y42.479
X12.248 Y42.24
X12.094 Y41.999
X11.944 Y41.756
X11.797 Y41.511
X11.654 Y41.265
X11.513 Y41.016
X11.376 Y40.765
X11.242 Y40.513
X11.112 Y40.259
X10.984 Y40.003
X10.86 Y39.746
X10.74 Y39.487
X10.623 Y39.227
X10.509 Y38.965
X10.399 Y38.701
X10.293 Y38.436
X10.19 Y38.17
X10.09 Y37.902
X9.994 Y37.633
X9.902 Y37.363
X9.813 Y37.092
X9.727 Y36.819
X9.646 Y36.546
X9.631 Y36.492
X9.615 Y36.427
X9.606 Y36.361
X9.603 Y36.294
Y25.774
X9.617 Y25.488
X9.636 Y25.203
X9.669 Y24.92
X9.713 Y24.638
X9.766 Y24.357
X9.829 Y24.078
X9.899 Y23.802
X9.976 Y23.526
X10.058 Y23.253
X10.147 Y22.982
X10.24 Y22.712
X10.339 Y22.444
X10.441 Y22.177
X10.549 Y21.913
X10.66 Y21.65
X10.776 Y21.388
X10.895 Y21.129
X11.018 Y20.871
X11.144 Y20.615
X11.275 Y20.361
X11.408 Y20.109
X11.545 Y19.858
X11.686 Y19.609
X11.83 Y19.363
X11.977 Y19.118
X12.127 Y18.875
X12.281 Y18.634
X12.437 Y18.396
X12.597 Y18.159
X12.76 Y17.925
X12.926 Y17.692
X13.096 Y17.462
X13.268 Y17.234
X13.443 Y17.009
X13.621 Y16.786
X13.802 Y16.565
X13.986 Y16.346
X14.173 Y16.13
X14.363 Y15.917
X14.555 Y15.706
X14.75 Y15.497
X14.948 Y15.291
X15.149 Y15.088
X15.352 Y14.887
X15.558 Y14.689
X15.766 Y14.494
X15.977 Y14.302
X16.19 Y14.112
X16.406 Y13.925
X16.625 Y13.741
X16.845 Y13.56
X17.069 Y13.381
X17.294 Y13.206
X17.522 Y13.034
X17.752 Y12.865
X17.984 Y12.698
X18.218 Y12.535
X18.455 Y12.375
X18.693 Y12.218
X18.934 Y12.064
X19.176 Y11.913
X19.421 Y11.766
X19.667 Y11.621
X19.915 Y11.48
X20.166 Y11.342
X20.417 Y11.207
X20.671 Y11.076
X20.926 Y10.948
X21.183 Y10.824
X21.442 Y10.703
X21.702 Y10.585
X21.964 Y10.471
X22.227 Y10.36
X22.492 Y10.252
X22.758 Y10.148
X23.025 Y10.048
X23.294 Y9.951
X23.564 Y9.858
X23.835 Y9.768
X24.107 Y9.681
X24.38 Y9.599
X24.45 Y9.578
X24.516 Y9.563
X24.583 Y9.553
X24.651 Y9.55
X35.28
X35.566 Y9.564
X35.851 Y9.579
X36.135 Y9.608
X36.417 Y9.649
X36.698 Y9.701
X36.977 Y9.761
X37.255 Y9.83
X37.53 Y9.905
X37.804 Y9.987
X38.076 Y10.074
X38.346 Y10.166
X38.614 Y10.264
X38.881 Y10.366
X39.146 Y10.472
X39.41 Y10.582
X39.671 Y10.697
X39.931 Y10.815
X40.19 Y10.937
X40.446 Y11.062
X40.701 Y11.191
X40.954 Y11.324
X41.205 Y11.46
X41.454 Y11.599
X41.702 Y11.742
X41.947 Y11.888
X42.191 Y12.037
X42.432 Y12.189
X42.672 Y12.345
X42.909 Y12.503
X43.145 Y12.665
X43.378 Y12.829
X43.609 Y12.997
X43.838 Y13.168
X44.065 Y13.341
X44.29 Y13.517
X44.512 Y13.697
X44.732 Y13.879
X44.95 Y14.064
X45.165 Y14.251
X45.378 Y14.442
X45.588 Y14.635
X45.796 Y14.831
X46.001 Y15.03
X46.204 Y15.231
X46.404 Y15.435
X46.601 Y15.641
X46.796 Y15.85
X46.988 Y16.061
X47.178 Y16.275
X47.364 Y16.491
X47.548 Y16.709
X47.729 Y16.93
X47.908 Y17.153
X48.083 Y17.379
X48.256 Y17.606
X48.425 Y17.836
X48.592 Y18.068
X48.755 Y18.302
X48.916 Y18.538
X49.074 Y18.776
X49.228 Y19.016
X49.38 Y19.259
X49.528 Y19.503
X49.673 Y19.749
X49.815 Y19.996
X49.954 Y20.246
X50.09 Y20.497
X50.222 Y20.75
X50.351 Y21.005
X50.477 Y21.261
X50.6 Y21.519
X50.72 Y21.778
X50.836 Y22.039
X50.949 Y22.302
X51.058 Y22.565
X51.164 Y22.831
X51.267 Y23.097
X51.366 Y23.365
X51.461 Y23.634
X51.464 Y23.642
X51.486 Y23.718
X51.499 Y23.796
X51.503 Y23.876
Y30.507
G3 X50.885 Y30.543 I-0.31 J0
X51.212 Y30.504 I0.163 J-0.019
X51.086 Y30.684 I-0.163 J0.019
X50.944 Y30.081 I-0.071 J-0.302
X51.282 Y30.224 I0.071 J0.302
X51.503 Y30.977 I-1.36 J0.809
G1 Y36.925
X51.489 Y37.21
X51.468 Y37.495
X51.431 Y37.778
X51.38 Y38.059
X51.318 Y38.338
X51.247 Y38.614
X51.166 Y38.888
X51.079 Y39.16
X50.985 Y39.43
X50.885 Y39.697
X50.779 Y39.963
X50.669 Y40.226
X50.554 Y40.487
X50.435 Y40.747
X50.311 Y41.004
X50.184 Y41.26
X50.053 Y41.514
X49.918 Y41.765
X49.779 Y42.015
X49.637 Y42.263
X49.492 Y42.509
X49.344 Y42.753
X49.192 Y42.995
X49.037 Y43.235
X48.879 Y43.472
X48.718 Y43.708
X48.553 Y43.942
X48.386 Y44.173
X48.216 Y44.402
X48.042 Y44.629
X47.866 Y44.854
X47.687 Y45.076
X47.505 Y45.296
X47.32 Y45.514
X47.133 Y45.73
X46.942 Y45.942
X46.749 Y46.153
X46.554 Y46.361
X46.355 Y46.566
X46.154 Y46.769
X45.951 Y46.97
X45.745 Y47.167
X45.536 Y47.363
X45.325 Y47.555
X45.112 Y47.745
X44.896 Y47.931
X44.677 Y48.116
X44.457 Y48.297
X44.234 Y48.475
X44.009 Y48.651
X43.781 Y48.824
X43.551 Y48.993
X43.32 Y49.16
X43.086 Y49.324
X42.85 Y49.485
X42.612 Y49.643
X42.372 Y49.797
X42.13 Y49.949
X41.886 Y50.098
X41.64 Y50.243
X41.393 Y50.386
X41.143 Y50.525
X40.892 Y50.661
X40.639 Y50.794
X40.385 Y50.923
X40.129 Y51.05
X39.871 Y51.173
X39.612 Y51.292
X39.399 Y51.387
X39.304 Y51.422
X39.205 Y51.443
X39.104 Y51.45
X35.459
G3 X35.302 Y50.88 I0.011 J-0.31
G1 X35.359 Y50.842 Z-0.992
X35.415 Y50.807 Z-0.969
X35.464 Y50.775 Z-0.932
X35.505 Y50.748 Z-0.883
X35.536 Y50.728 Z-0.825
X35.555 Y50.716 Z-0.759
X35.562 Y50.712 Z-0.69
G0 Z5
X51.123 Y35.905
Z-0.38
G1 Z-0.69 F1000
X51.127 Y35.911 Z-0.759
X51.139 Y35.931 Z-0.825
X51.158 Y35.963 Z-0.883
X51.183 Y36.005 Z-0.932
X51.213 Y36.055 Z-0.969
X51.246 Y36.112 Z-0.992
X51.282 Y36.171 Z-1
G3 X51.503 Y36.925 I-1.36 J0.809
G1 Y39.991
X51.489 Y40.276
X51.459 Y40.56
X51.407 Y40.841
X51.338 Y41.118
X51.255 Y41.392
X51.16 Y41.661
X51.056 Y41.927
X50.942 Y42.189
X50.822 Y42.448
X50.694 Y42.703
X50.562 Y42.956
X50.423 Y43.206
X50.281 Y43.453
X50.133 Y43.698
X49.982 Y43.94
X49.827 Y44.18
X49.668 Y44.417
X49.506 Y44.652
X49.34 Y44.885
X49.171 Y45.115
X48.999 Y45.343
X48.824 Y45.569
X48.646 Y45.792
X48.466 Y46.013
X48.282 Y46.232
X48.096 Y46.449
X47.907 Y46.663
X47.715 Y46.874
X47.521 Y47.084
X47.324 Y47.291
X47.124 Y47.495
X46.923 Y47.697
X46.718 Y47.897
X46.512 Y48.094
X46.302 Y48.288
X46.091 Y48.48
X45.877 Y48.669
X45.661 Y48.856
X45.443 Y49.04
X45.222 Y49.222
X44.999 Y49.4
X44.774 Y49.576
X44.547 Y49.749
X44.318 Y49.92
X44.087 Y50.087
X43.854 Y50.252
X43.619 Y50.414
X43.381 Y50.573
X43.142 Y50.73
X42.901 Y50.883
X42.659 Y51.033
X42.414 Y51.181
X42.168 Y51.325
X42.116 Y51.355
X42.002 Y51.407
X41.882 Y51.439
X41.757 Y51.45
X39.104
G3 X38.947 Y50.88 I0.011 J-0.31
G1 X39.005 Y50.842 Z-0.992
X39.06 Y50.807 Z-0.969
X39.109 Y50.775 Z-0.932
X39.15 Y50.748 Z-0.883
X39.181 Y50.728 Z-0.825
X39.201 Y50.716 Z-0.759
X39.207 Y50.712 Z-0.69
G0 Z5
X51.123 Y38.971
Z-0.38
G1 Z-0.69 F1000
X51.127 Y38.978 Z-0.759
X51.139 Y38.997 Z-0.825
X51.158 Y39.029 Z-0.883
X51.183 Y39.071 Z-0.932
X51.213 Y39.122 Z-0.969
X51.246 Y39.178 Z-0.992
X51.282 Y39.237 Z-1
G3 X51.503 Y39.991 I-1.36 J0.809
G1 Y42.407
X51.489 Y42.692
X51.472 Y42.834
X51.426 Y43.112
X51.357 Y43.389
X51.27 Y43.661
X51.167 Y43.927
X51.053 Y44.189
X50.928 Y44.446
X50.795 Y44.698
X50.654 Y44.947
X50.507 Y45.191
X50.353 Y45.432
X50.195 Y45.67
X50.032 Y45.904
X49.865 Y46.136
X49.693 Y46.364
X49.519 Y46.59
X49.34 Y46.813
X49.159 Y47.034
X48.974 Y47.252
X48.787 Y47.467
X48.596 Y47.68
X48.403 Y47.891
X48.208 Y48.098
X48.009 Y48.304
X47.808 Y48.507
X47.605 Y48.708
X47.399 Y48.906
X47.191 Y49.101
X46.981 Y49.294
X46.768 Y49.485
X46.553 Y49.673
X46.336 Y49.859
X46.117 Y50.042
X45.896 Y50.222
X45.672 Y50.4
X45.447 Y50.575
X45.219 Y50.748
X44.99 Y50.918
X44.758 Y51.085
X44.525 Y51.25
X44.419 Y51.322
X44.292 Y51.392
X44.154 Y51.435
X44.009 Y51.45
X41.757
G3 X41.558 Y50.913 I0.011 J-0.31
G1 X41.597 Y50.876
X50.925 Y42.243
X50.983 Y42.19
X51.028 Y42.155
X51.08 Y42.129
X51.136 Y42.113
X51.193 Y42.108
G3 X51.503 Y42.407 I0 J0.31
G1 Y44.544
X51.49 Y44.811
X51.46 Y45.037
X51.403 Y45.301
X51.322 Y45.575
X51.221 Y45.842
X51.105 Y46.103
X50.976 Y46.358
X50.837 Y46.607
X50.689 Y46.851
X50.533 Y47.091
X50.371 Y47.326
X50.203 Y47.557
X50.031 Y47.785
X49.853 Y48.008
X49.672 Y48.229
X49.486 Y48.446
X49.297 Y48.66
X49.105 Y48.872
X48.91 Y49.08
X48.712 Y49.286
X48.511 Y49.489
X48.308 Y49.689
X48.102 Y49.887
X47.894 Y50.082
X47.683 Y50.275
X47.47 Y50.465
X47.255 Y50.653
X47.037 Y50.838
X46.818 Y51.021
X46.596 Y51.201
X46.48 Y51.293
X46.343 Y51.379
X46.191 Y51.432
X46.03 Y51.45
X44.009
G3 X43.787 Y50.924 I0 J-0.31
G1 X43.828 Y50.881
X50.793 Y43.733
G3 X51.282 Y43.791 I0.222 J0.216
X51.503 Y44.544 I-1.36 J0.809
G1 Y46.496
X51.492 Y46.724
X51.465 Y46.928
X51.414 Y47.165
X51.332 Y47.438
X51.229 Y47.704
X51.109 Y47.963
X50.974 Y48.215
X50.828 Y48.461
X50.673 Y48.701
X50.509 Y48.935
X50.339 Y49.164
X50.162 Y49.388
X49.98 Y49.608
X49.794 Y49.824
X49.603 Y50.037
X49.408 Y50.246
X49.21 Y50.451
X49.008 Y50.654
X48.804 Y50.853
X48.597 Y51.05
X48.387 Y51.244
X48.364 Y51.264
X48.22 Y51.365
X48.055 Y51.429
X47.88 Y51.45
G3 X47.639 Y50.96 I0.011 J-0.31
G1 X47.707 Y50.865
X50.932 Y46.338
X50.941 Y46.327
G3 X51.503 Y46.496 I0.252 J0.18
G1 Y48.261
X51.49 Y48.519
X51.465 Y48.707
X51.419 Y48.925
X51.343 Y49.178
X51.239 Y49.444
X51.117 Y49.702
X50.979 Y49.952
X50.829 Y50.195
X50.668 Y50.431
X50.498 Y50.66
X50.321 Y50.885
X50.138 Y51.104
X50.048 Y51.205
X49.893 Y51.337
X49.708 Y51.421
X49.506 Y51.45
G3 X49.249 Y50.984 I0.011 J-0.31
G1 X49.322 Y50.858
X50.926 Y48.116
G3 X51.503 Y48.261 I0.268 J0.156
G1 Y50.027
X51.494 Y50.216
X51.47 Y50.394
X51.426 Y50.6
X51.361 Y50.817
X51.284 Y51.014
X51.271 Y51.042
X51.158 Y51.21
X51.004 Y51.34
X50.82 Y51.422
X50.62 Y51.45
G3 X50.355 Y50.999 I0.011 J-0.31
G1 X50.429 Y50.854
X50.917 Y49.897
G3 X51.503 Y50.027 I0.276 J0.141
G1 Y51.049
Y51.142
X51.497 Y51.188
X51.484 Y51.235
X51.473 Y51.261
X51.458 Y51.287
X51.429 Y51.328
X51.397 Y51.363
X51.365 Y51.39
X51.339 Y51.407
X51.314 Y51.421
X51.272 Y51.437
X51.226 Y51.447
X51.179 Y51.45
X46.03
G3 X45.873 Y50.88 I0.011 J-0.31
G1 X45.931 Y50.842 Z-0.992
X45.986 Y50.807 Z-0.969
X46.036 Y50.775 Z-0.932
X46.077 Y50.748 Z-0.883
X46.108 Y50.728 Z-0.825
X46.127 Y50.716 Z-0.759
X46.134 Y50.712 Z-0.69
G0 Z5
X34.26 Y9.93
Z-0.38
G1 Z-0.69 F1000
X34.267 Y9.926 Z-0.759
X34.287 Y9.914 Z-0.825
X34.318 Y9.895 Z-0.883
X34.361 Y9.87 Z-0.932
X34.411 Y9.84 Z-0.969
X34.467 Y9.807 Z-0.992
X34.527 Y9.771 Z-1
G3 X35.28 Y9.55 I0.809 J1.36
G1 X38.72
X39.006 Y9.564
X39.29 Y9.59
X39.572 Y9.636
X39.851 Y9.699
X40.126 Y9.775
X40.398 Y9.863
X40.666 Y9.96
X40.931 Y10.066
X41.193 Y10.179
X41.453 Y10.299
X41.709 Y10.424
X41.963 Y10.555
X42.215 Y10.69
X42.464 Y10.829
X42.711 Y10.973
X42.955 Y11.121
X43.198 Y11.272
X43.438 Y11.426
X43.676 Y11.584
X43.911 Y11.746
X44.145 Y11.91
X44.376 Y12.078
X44.605 Y12.248
X44.832 Y12.421
X45.057 Y12.598
X45.28 Y12.777
X45.5 Y12.958
X45.718 Y13.143
X45.933 Y13.33
X46.147 Y13.52
X46.357 Y13.713
X46.566 Y13.908
X46.772 Y14.106
X46.976 Y14.306
X47.177 Y14.509
X47.375 Y14.714
X47.572 Y14.921
X47.765 Y15.131
X47.956 Y15.343
X48.145 Y15.558
X48.331 Y15.775
X48.514 Y15.994
X48.695 Y16.215
X48.873 Y16.438
X49.048 Y16.664
X49.22 Y16.892
X49.39 Y17.121
X49.557 Y17.353
X49.721 Y17.587
X49.882 Y17.823
X50.04 Y18.061
X50.195 Y18.3
X50.348 Y18.542
X50.497 Y18.785
X50.643 Y19.03
X50.787 Y19.277
X50.928 Y19.526
X51.065 Y19.776
X51.2 Y20.028
X51.331 Y20.281
X51.426 Y20.47
X51.468 Y20.574
X51.494 Y20.683
X51.503 Y20.795
Y23.876
G3 X50.933 Y24.033 I-0.31 J-0.011
G1 X50.895 Y23.975 Z-0.992
X50.86 Y23.92 Z-0.969
X50.828 Y23.87 Z-0.932
X50.801 Y23.829 Z-0.883
X50.781 Y23.798 Z-0.825
X50.769 Y23.779 Z-0.759
X50.765 Y23.772 Z-0.69
G0 Z5
X37.7 Y9.93
Z-0.38
G1 Z-0.69 F1000
X37.707 Y9.926 Z-0.759
X37.727 Y9.914 Z-0.825
X37.759 Y9.895 Z-0.883
X37.801 Y9.87 Z-0.932
X37.851 Y9.84 Z-0.969
X37.908 Y9.807 Z-0.992
X37.967 Y9.771 Z-1
G3 X38.72 Y9.55 I0.809 J1.36
G1 X41.324
X41.609 Y9.564
X41.876 Y9.597
X42.156 Y9.654
X42.431 Y9.73
X42.702 Y9.822
X42.967 Y9.927
X43.228 Y10.043
X43.485 Y10.167
X43.738 Y10.3
X43.987 Y10.44
X44.233 Y10.585
X44.476 Y10.736
X44.715 Y10.891
X44.952 Y11.051
X45.186 Y11.215
X45.417 Y11.383
X45.645 Y11.554
X45.871 Y11.729
X46.095 Y11.907
X46.316 Y12.087
X46.535 Y12.271
X46.751 Y12.458
X46.965 Y12.647
X47.176 Y12.839
X47.385 Y13.033
X47.592 Y13.23
X47.796 Y13.43
X47.998 Y13.632
X48.198 Y13.836
X48.395 Y14.043
X48.589 Y14.252
X48.781 Y14.463
X48.971 Y14.677
X49.158 Y14.893
X49.343 Y15.11
X49.525 Y15.331
X49.704 Y15.553
X49.881 Y15.777
X50.055 Y16.003
X50.227 Y16.231
X50.396 Y16.461
X50.562 Y16.694
X50.726 Y16.928
X50.887 Y17.164
X51.045 Y17.401
X51.201 Y17.641
X51.353 Y17.882
X51.395 Y17.95
X51.454 Y18.07
X51.491 Y18.198
X51.503 Y18.33
Y20.795
G3 X50.964 Y20.993 I-0.31 J-0.011
G1 X50.929 Y20.955
X40.595 Y9.603
X40.563 Y9.578
X40.523 Y9.567
X40.482 Y9.572
X40.446 Y9.591
X40.419 Y9.622
X40.405 Y9.661
X40.407 Y9.702
X40.424 Y9.739
X40.453 Y9.768
X40.491 Y9.784
X40.532 Y9.785
X40.57 Y9.771
G3 X41.324 Y9.55 I0.809 J1.36
G1 X43.555
X43.799 Y9.562
X44.034 Y9.593
X44.311 Y9.652
X44.584 Y9.734
X44.852 Y9.834
X45.113 Y9.948
X45.369 Y10.075
X45.62 Y10.211
X45.866 Y10.356
X46.108 Y10.508
X46.345 Y10.667
X46.579 Y10.831
X46.809 Y11
X47.036 Y11.174
X47.259 Y11.352
X47.48 Y11.533
X47.698 Y11.718
X47.912 Y11.906
X48.124 Y12.098
X48.334 Y12.292
X48.541 Y12.489
X48.745 Y12.688
X48.947 Y12.89
X49.146 Y13.095
X49.343 Y13.302
X49.537 Y13.511
X49.729 Y13.722
X49.919 Y13.936
X50.106 Y14.152
X50.29 Y14.37
X50.472 Y14.59
X50.652 Y14.812
X50.829 Y15.036
X51.004 Y15.262
X51.176 Y15.49
X51.345 Y15.72
X51.367 Y15.75
X51.441 Y15.88
X51.487 Y16.023
X51.503 Y16.172
Y18.33
G3 X50.963 Y18.527 I-0.31 J-0.011
G1 X50.93 Y18.49
X43.391 Y10.128
X43.336 Y10.067
G3 X43.555 Y9.55 I0.23 J-0.208
G1 X45.508
X45.768 Y9.563
X45.978 Y9.591
X46.224 Y9.643
X46.497 Y9.725
X46.764 Y9.828
X47.023 Y9.947
X47.276 Y10.079
X47.523 Y10.223
X47.764 Y10.376
X48 Y10.537
X48.231 Y10.704
X48.458 Y10.878
X48.681 Y11.057
X48.9 Y11.24
X49.115 Y11.428
X49.327 Y11.619
X49.535 Y11.814
X49.741 Y12.013
X49.944 Y12.214
X50.144 Y12.417
X50.341 Y12.624
X50.536 Y12.833
X50.728 Y13.045
X50.917 Y13.258
X51.104 Y13.474
X51.288 Y13.692
X51.337 Y13.752
X51.428 Y13.891
X51.484 Y14.048
X51.503 Y14.213
G3 X51.005 Y14.448 I-0.31 J-0.011
G1 X50.92 Y14.383
X45.35 Y10.121
X45.33 Y10.106
G3 X45.508 Y9.55 I0.188 J-0.246
G1 X47.367
X47.598 Y9.562
X47.79 Y9.587
X48.014 Y9.635
X48.275 Y9.713
X48.542 Y9.817
X48.8 Y9.938
X49.051 Y10.075
X49.294 Y10.224
X49.532 Y10.383
X49.763 Y10.55
X49.989 Y10.725
X50.21 Y10.906
X50.426 Y11.092
X50.638 Y11.283
X50.847 Y11.479
X51.051 Y11.678
X51.253 Y11.881
X51.301 Y11.931
X51.411 Y12.079
X51.48 Y12.25
X51.503 Y12.432
G3 X51.02 Y12.679 I-0.31 J-0.011
G1 X50.916 Y12.609
X47.21 Y10.12
X47.205 Y10.117
G3 X47.367 Y9.55 I0.173 J-0.257
G1 X49.134
X49.327 Y9.56
X49.509 Y9.584
X49.719 Y9.628
X49.961 Y9.701
X50.227 Y9.805
X50.485 Y9.928
X50.734 Y10.068
X50.975 Y10.22
X51.209 Y10.384
X51.225 Y10.396
X51.375 Y10.555
X51.47 Y10.751
X51.503 Y10.966
G3 X51.047 Y11.229 I-0.31 J-0.011
G1 X50.908 Y11.155
X48.999 Y10.133
G3 X48.835 Y9.86 I0.146 J-0.273
X49.134 Y9.55 I0.31 J0
G1 X50.808
X50.913 Y9.555
X51.1 Y9.608
X51.265 Y9.712
X51.393 Y9.858
X51.475 Y10.035
X51.503 Y10.228
G3 X50.979 Y10.441 I-0.31 J-0.011
G1 X50.926 Y10.391
X50.647 Y10.124
X50.604 Y10.084
G3 X50.808 Y9.55 I0.214 J-0.224
G1 X51.179
X51.226 Y9.553
X51.272 Y9.563
X51.315 Y9.58
X51.358 Y9.605
X51.365 Y9.61
X51.39 Y9.63
X51.414 Y9.654
X51.448 Y9.698
X51.458 Y9.713
X51.478 Y9.752
X51.492 Y9.791
X51.501 Y9.837
X51.503 Y9.884
Y16.172
G3 X50.933 Y16.33 I-0.31 J-0.011
G1 X50.895 Y16.272 Z-0.992
X50.86 Y16.217 Z-0.969
X50.828 Y16.167 Z-0.932
X50.801 Y16.126 Z-0.883
X50.781 Y16.095 Z-0.825
X50.769 Y16.076 Z-0.759
X50.765 Y16.069 Z-0.69
G0 Z5
X9.983 Y26.794
Z-0.38
G1 Z-0.69 F1000
X9.979 Y26.787 Z-0.759
X9.967 Y26.767 Z-0.825
X9.948 Y26.735 Z-0.883
X9.923 Y26.693 Z-0.932
X9.893 Y26.643 Z-0.969
X9.86 Y26.586 Z-0.992
X9.824 Y26.527 Z-1
G3 X9.603 Y25.774 I1.36 J-0.809
G1 Y22.335
X9.617 Y22.05
X9.648 Y21.766
X9.699 Y21.485
X9.765 Y21.207
X9.845 Y20.933
X9.936 Y20.662
X10.035 Y20.395
X10.143 Y20.13
X10.258 Y19.869
X10.38 Y19.61
X10.506 Y19.355
X10.638 Y19.101
X10.775 Y18.851
X10.916 Y18.602
X11.061 Y18.356
X11.21 Y18.112
X11.363 Y17.871
X11.519 Y17.632
X11.678 Y17.395
X11.841 Y17.16
X12.007 Y16.928
X12.176 Y16.698
X12.348 Y16.47
X12.523 Y16.244
X12.701 Y16.021
X12.881 Y15.8
X13.065 Y15.581
X13.251 Y15.364
X13.44 Y15.15
X13.632 Y14.939
X13.826 Y14.729
X14.024 Y14.523
X14.223 Y14.318
X14.425 Y14.117
X14.63 Y13.917
X14.837 Y13.721
X15.046 Y13.527
X15.258 Y13.335
X15.473 Y13.147
X15.689 Y12.96
X15.908 Y12.777
X16.129 Y12.596
X16.353 Y12.419
X16.578 Y12.243
X16.806 Y12.071
X17.036 Y11.902
X17.268 Y11.735
X17.502 Y11.572
X17.738 Y11.411
X17.976 Y11.253
X18.216 Y11.098
X18.458 Y10.947
X18.702 Y10.798
X18.947 Y10.652
X19.195 Y10.509
X19.444 Y10.37
X19.695 Y10.233
X19.947 Y10.1
X20.202 Y9.97
X20.457 Y9.843
X20.715 Y9.719
X20.931 Y9.618
X21.029 Y9.58
X21.132 Y9.558
X21.237 Y9.55
X24.651
G3 X24.808 Y10.12 I-0.011 J0.31
G1 X24.75 Y10.158 Z-0.992
X24.695 Y10.193 Z-0.969
X24.646 Y10.225 Z-0.932
X24.605 Y10.252 Z-0.883
X24.574 Y10.272 Z-0.825
X24.554 Y10.284 Z-0.759
X24.548 Y10.288 Z-0.69
G0 Z5
X9.983 Y23.355
Z-0.38
G1 Z-0.69 F1000
X9.979 Y23.349 Z-0.759
X9.967 Y23.329 Z-0.825
X9.948 Y23.297 Z-0.883
X9.923 Y23.255 Z-0.932
X9.893 Y23.205 Z-0.969
X9.86 Y23.148 Z-0.992
X9.824 Y23.089 Z-1
G3 X9.603 Y22.335 I1.36 J-0.809
G1 Y19.826
X9.617 Y19.541
X9.646 Y19.281
X9.7 Y19.001
X9.775 Y18.725
X9.865 Y18.454
X9.969 Y18.188
X10.084 Y17.927
X10.208 Y17.669
X10.34 Y17.416
X10.479 Y17.167
X10.625 Y16.921
X10.775 Y16.679
X10.931 Y16.439
X11.091 Y16.203
X11.256 Y15.969
X11.424 Y15.738
X11.596 Y15.51
X11.771 Y15.285
X11.949 Y15.062
X12.13 Y14.841
X12.315 Y14.623
X12.502 Y14.407
X12.692 Y14.194
X12.885 Y13.984
X13.081 Y13.775
X13.279 Y13.57
X13.479 Y13.366
X13.682 Y13.166
X13.888 Y12.967
X14.095 Y12.771
X14.306 Y12.578
X14.518 Y12.387
X14.733 Y12.199
X14.95 Y12.013
X15.169 Y11.83
X15.39 Y11.65
X15.614 Y11.472
X15.839 Y11.296
X16.067 Y11.124
X16.296 Y10.954
X16.528 Y10.787
X16.762 Y10.623
X16.997 Y10.461
X17.235 Y10.303
X17.474 Y10.147
X17.715 Y9.994
X17.958 Y9.844
X18.203 Y9.696
X18.283 Y9.649
X18.398 Y9.595
X18.522 Y9.561
X18.649 Y9.55
X21.237
G3 X21.394 Y10.12 I-0.011 J0.31
G1 X21.336 Y10.158 Z-0.992
X21.281 Y10.193 Z-0.969
X21.232 Y10.225 Z-0.932
X21.19 Y10.252 Z-0.883
X21.159 Y10.272 Z-0.825
X21.14 Y10.284 Z-0.759
X21.133 Y10.288 Z-0.69
G0 Z5
X9.983 Y20.846
Z-0.38
G1 Z-0.69 F1000
X9.979 Y20.84 Z-0.759
X9.967 Y20.82 Z-0.825
X9.948 Y20.788 Z-0.883
X9.923 Y20.746 Z-0.932
X9.893 Y20.696 Z-0.969
X9.86 Y20.639 Z-0.992
X9.824 Y20.58 Z-1
G3 X9.603 Y19.826 I1.36 J-0.809
G1 Y17.596
X9.616 Y17.333
X9.647 Y17.1
X9.705 Y16.825
X9.787 Y16.552
X9.887 Y16.284
X10.002 Y16.023
X10.129 Y15.767
X10.266 Y15.516
X10.411 Y15.27
X10.564 Y15.029
X10.724 Y14.792
X10.888 Y14.559
X11.058 Y14.33
X11.233 Y14.104
X11.412 Y13.881
X11.594 Y13.661
X11.78 Y13.444
X11.969 Y13.23
X12.161 Y13.019
X12.357 Y12.811
X12.555 Y12.605
X12.755 Y12.402
X12.959 Y12.201
X13.164 Y12.003
X13.373 Y11.808
X13.583 Y11.615
X13.796 Y11.424
X14.011 Y11.236
X14.228 Y11.051
X14.447 Y10.868
X14.669 Y10.688
X14.892 Y10.51
X15.118 Y10.335
X15.345 Y10.162
X15.575 Y9.992
X15.806 Y9.825
X16.008 Y9.682
X16.137 Y9.61
X16.278 Y9.565
X16.425 Y9.55
X18.649
G3 X18.844 Y10.092 I-0.011 J0.31
G1 X18.808 Y10.123
X10.182 Y17.761
X10.118 Y17.818
G3 X9.603 Y17.596 I-0.206 J-0.232
G1 Y15.645
X9.616 Y15.375
X9.644 Y15.166
X9.696 Y14.922
X9.778 Y14.648
X9.881 Y14.382
X10 Y14.122
X10.133 Y13.87
X10.277 Y13.623
X10.431 Y13.382
X10.592 Y13.147
X10.761 Y12.916
X10.935 Y12.69
X11.115 Y12.468
X11.3 Y12.25
X11.488 Y12.036
X11.681 Y11.825
X11.877 Y11.617
X12.076 Y11.412
X12.278 Y11.211
X12.483 Y11.012
X12.691 Y10.816
X12.901 Y10.623
X13.114 Y10.432
X13.329 Y10.244
X13.546 Y10.059
X13.765 Y9.876
X13.967 Y9.712
X14.105 Y9.624
X14.26 Y9.569
X14.423 Y9.55
G3 X14.657 Y10.05 I-0.011 J0.31
G1 X14.593 Y10.132
X10.174 Y15.803
X10.157 Y15.825
G3 X9.603 Y15.645 I-0.245 J-0.191
G1 Y13.786
X9.615 Y13.555
X9.64 Y13.364
X9.687 Y13.141
X9.765 Y12.882
X9.868 Y12.616
X9.99 Y12.358
X10.128 Y12.108
X10.277 Y11.864
X10.436 Y11.627
X10.604 Y11.396
X10.78 Y11.171
X10.961 Y10.951
X11.149 Y10.735
X11.341 Y10.524
X11.537 Y10.316
X11.737 Y10.112
X11.941 Y9.912
X12.112 Y9.749
X12.26 Y9.641
X12.429 Y9.573
X12.611 Y9.55
G3 X12.856 Y10.035 I-0.011 J0.31
G1 X12.786 Y10.136
X10.173 Y13.944
X10.168 Y13.951
G3 X9.603 Y13.786 I-0.256 J-0.175
G1 Y12.021
X9.612 Y11.835
X9.636 Y11.654
X9.681 Y11.446
X9.752 Y11.206
X9.856 Y10.94
X9.98 Y10.682
X10.12 Y10.433
X10.273 Y10.192
X10.437 Y9.959
X10.532 Y9.834
X10.691 Y9.681
X10.889 Y9.584
X11.107 Y9.55
G3 X11.368 Y10.009 I-0.011 J0.31
G1 X11.294 Y10.144
X10.184 Y12.159
G3 X9.603 Y12.021 I-0.272 J-0.149
G1 Y10.348
X9.609 Y10.223
X9.615 Y10.179
X9.671 Y9.979
X9.782 Y9.804
X9.938 Y9.667
X10.127 Y9.58
X10.332 Y9.55
G3 X10.557 Y10.061 I-0.011 J0.31
G1 X10.498 Y10.13
X10.175 Y10.507
X10.148 Y10.539
G3 X9.603 Y10.348 I-0.236 J-0.202
G1 Y9.884
X9.605 Y9.837
X9.614 Y9.791
X9.618 Y9.776
X9.634 Y9.737
X9.657 Y9.698
X9.682 Y9.666
X9.711 Y9.634
X9.748 Y9.605
X9.776 Y9.588
X9.804 Y9.574
X9.851 Y9.559
X9.897 Y9.551
X9.99 Y9.55
X16.425
G3 X16.582 Y10.12 I-0.011 J0.31
G1 X16.524 Y10.158 Z-0.992
X16.469 Y10.193 Z-0.969
X16.42 Y10.225 Z-0.932
X16.379 Y10.252 Z-0.883
X16.348 Y10.272 Z-0.825
X16.328 Y10.284 Z-0.759
X16.322 Y10.288 Z-0.69
G0 Z5
X27.374 Y51.07
Z-0.38
G1 Z-0.69 F1000
X27.368 Y51.074 Z-0.759
X27.348 Y51.086 Z-0.825
X27.316 Y51.105 Z-0.883
X27.274 Y51.13 Z-0.932
X27.224 Y51.16 Z-0.969
X27.167 Y51.193 Z-0.992
X27.108 Y51.229 Z-1
G3 X26.354 Y51.45 I-0.809 J-1.36
G1 X22.635
X22.35 Y51.436
X22.066 Y51.406
X21.785 Y51.357
X21.506 Y51.293
X21.231 Y51.216
X20.96 Y51.129
X20.691 Y51.032
X20.425 Y50.927
X20.162 Y50.815
X19.902 Y50.698
X19.645 Y50.574
X19.39 Y50.445
X19.137 Y50.312
X18.887 Y50.175
X18.639 Y50.033
X18.393 Y49.887
X18.15 Y49.738
X17.909 Y49.585
X17.669 Y49.429
X17.433 Y49.27
X17.198 Y49.107
X16.965 Y48.941
X16.735 Y48.772
X16.507 Y48.6
X16.281 Y48.425
X16.058 Y48.248
X15.836 Y48.067
X15.618 Y47.884
X15.401 Y47.697
X15.187 Y47.508
X14.975 Y47.317
X14.766 Y47.122
X14.559 Y46.925
X14.355 Y46.726
X14.153 Y46.523
X13.954 Y46.319
X13.758 Y46.112
X13.564 Y45.902
X13.372 Y45.69
X13.184 Y45.476
X12.998 Y45.259
X12.814 Y45.04
X12.634 Y44.819
X12.456 Y44.595
X12.281 Y44.37
X12.109 Y44.142
X11.94 Y43.912
X11.773 Y43.679
X11.61 Y43.445
X11.45 Y43.209
X11.292 Y42.971
X11.138 Y42.73
X10.986 Y42.488
X10.838 Y42.244
X10.693 Y41.998
X10.55 Y41.751
X10.411 Y41.501
X10.275 Y41.25
X10.142 Y40.998
X10.012 Y40.743
X9.886 Y40.487
X9.762 Y40.23
X9.67 Y40.031
X9.633 Y39.933
X9.611 Y39.831
X9.603 Y39.726
Y36.294
G3 X10.173 Y36.137 I0.31 J0.011
G1 X10.211 Y36.195 Z-0.992
X10.246 Y36.25 Z-0.969
X10.278 Y36.3 Z-0.932
X10.305 Y36.341 Z-0.883
X10.325 Y36.372 Z-0.825
X10.337 Y36.391 Z-0.759
X10.341 Y36.398 Z-0.69
G0 Z5
X23.655 Y51.07
Z-0.38
G1 Z-0.69 F1000
X23.649 Y51.074 Z-0.759
X23.629 Y51.086 Z-0.825
X23.597 Y51.105 Z-0.883
X23.555 Y51.13 Z-0.932
X23.505 Y51.16 Z-0.969
X23.448 Y51.193 Z-0.992
X23.389 Y51.229 Z-1
G3 X22.635 Y51.45 I-0.809 J-1.36
G1 X20.032
X19.747 Y51.436
X19.477 Y51.404
X19.197 Y51.348
X18.921 Y51.273
X18.65 Y51.183
X18.384 Y51.079
X18.122 Y50.965
X17.864 Y50.842
X17.611 Y50.711
X17.361 Y50.573
X17.114 Y50.429
X16.87 Y50.28
X16.63 Y50.126
X16.392 Y49.968
X16.157 Y49.805
X15.925 Y49.639
X15.696 Y49.469
X15.469 Y49.296
X15.244 Y49.119
X15.022 Y48.939
X14.803 Y48.757
X14.586 Y48.571
X14.371 Y48.383
X14.159 Y48.192
X13.949 Y47.998
X13.742 Y47.801
X13.537 Y47.603
X13.335 Y47.401
X13.135 Y47.197
X12.937 Y46.991
X12.742 Y46.782
X12.55 Y46.571
X12.36 Y46.358
X12.173 Y46.142
X11.988 Y45.924
X11.806 Y45.704
X11.626 Y45.482
X11.45 Y45.258
X11.276 Y45.031
X11.104 Y44.803
X10.936 Y44.573
X10.77 Y44.34
X10.607 Y44.106
X10.446 Y43.869
X10.289 Y43.631
X10.134 Y43.391
X9.982 Y43.149
X9.834 Y42.905
X9.705 Y42.688
X9.649 Y42.572
X9.614 Y42.447
X9.603 Y42.319
Y39.726
G3 X10.173 Y39.569 I0.31 J0.011
G1 X10.211 Y39.627 Z-0.992
X10.246 Y39.682 Z-0.969
X10.278 Y39.732 Z-0.932
X10.305 Y39.773 Z-0.883
X10.325 Y39.804 Z-0.825
X10.337 Y39.823 Z-0.759
X10.341 Y39.83 Z-0.69
G0 Z5
X21.052 Y51.07
Z-0.38
G1 Z-0.69 F1000
X21.045 Y51.074 Z-0.759
X21.026 Y51.086 Z-0.825
X20.994 Y51.105 Z-0.883
X20.952 Y51.13 Z-0.932
X20.901 Y51.16 Z-0.969
X20.845 Y51.193 Z-0.992
X20.786 Y51.229 Z-1
G3 X20.032 Y51.45 I-0.809 J-1.36
G1 X17.801
X17.519 Y51.436
X17.282 Y51.405
X17.002 Y51.345
X16.729 Y51.263
X16.461 Y51.164
X16.199 Y51.05
X15.943 Y50.924
X15.692 Y50.788
X15.445 Y50.644
X15.203 Y50.492
X14.965 Y50.334
X14.731 Y50.17
X14.501 Y50.002
X14.274 Y49.829
X14.05 Y49.652
X13.829 Y49.471
X13.611 Y49.286
X13.396 Y49.098
X13.183 Y48.907
X12.973 Y48.714
X12.766 Y48.517
X12.562 Y48.318
X12.36 Y48.116
X12.16 Y47.911
X11.964 Y47.704
X11.769 Y47.495
X11.577 Y47.284
X11.388 Y47.07
X11.201 Y46.854
X11.017 Y46.636
X10.835 Y46.415
X10.656 Y46.193
X10.48 Y45.968
X10.306 Y45.742
X10.134 Y45.514
X9.965 Y45.283
X9.799 Y45.051
X9.733 Y44.956
X9.662 Y44.828
X9.618 Y44.688
X9.603 Y44.542
Y42.319
G3 X10.144 Y42.123 I0.31 J0.011
G1 X10.176 Y42.159
X17.965 Y50.872
X18.021 Y50.934
G3 X17.801 Y51.45 I-0.231 J0.207
G1 X15.755
X15.545 Y51.439
X15.333 Y51.412
X15.086 Y51.359
X14.812 Y51.277
X14.546 Y51.175
X14.286 Y51.056
X14.033 Y50.924
X13.786 Y50.78
X13.545 Y50.628
X13.308 Y50.467
X13.077 Y50.3
X12.85 Y50.126
X12.627 Y49.948
X12.408 Y49.765
X12.193 Y49.577
X11.981 Y49.386
X11.772 Y49.191
X11.566 Y48.993
X11.363 Y48.792
X11.163 Y48.588
X10.966 Y48.382
X10.771 Y48.172
X10.58 Y47.961
X10.39 Y47.747
X10.204 Y47.531
X10.02 Y47.312
X9.838 Y47.092
X9.762 Y46.997
X9.675 Y46.86
X9.621 Y46.706
X9.603 Y46.544
G3 X10.104 Y46.311 I0.31 J0.011
G1 X10.185 Y46.375
X15.913 Y50.879
X15.936 Y50.896
G3 X15.755 Y51.45 I-0.192 J0.244
G1 X13.895
X13.708 Y51.441
X13.515 Y51.415
X13.29 Y51.367
X13.029 Y51.289
X12.763 Y51.185
X12.504 Y51.063
X12.253 Y50.927
X12.01 Y50.778
X11.772 Y50.619
X11.541 Y50.452
X11.315 Y50.277
X11.094 Y50.096
X10.878 Y49.91
X10.665 Y49.719
X10.457 Y49.523
X10.253 Y49.324
X10.052 Y49.121
X9.854 Y48.915
X9.797 Y48.854
X9.691 Y48.708
X9.625 Y48.54
X9.603 Y48.361
G3 X10.09 Y48.118 I0.31 J0.011
G1 X10.189 Y48.187
X14.053 Y50.88
X14.062 Y50.886
G3 X13.895 Y51.45 I-0.177 J0.254
G1 X12.222
X11.97 Y51.437
X11.788 Y51.414
X11.579 Y51.369
X11.337 Y51.296
X11.071 Y51.193
X10.814 Y51.069
X10.565 Y50.929
X10.323 Y50.777
X10.089 Y50.613
X9.889 Y50.461
X9.735 Y50.302
X9.637 Y50.104
X9.603 Y49.885
G3 X10.06 Y49.623 I0.31 J0.011
G1 X10.197 Y49.697
X12.359 Y50.868
G3 X12.222 Y51.45 I-0.148 J0.273
G1 X10.548
X10.331 Y51.439
X10.198 Y51.422
X10.175 Y51.417
X9.991 Y51.35
X9.831 Y51.236
X9.707 Y51.084
X9.63 Y50.904
X9.603 Y50.709
G3 X10.086 Y50.463 I0.31 J0.011
G1 X10.19 Y50.533
X10.706 Y50.88
X10.71 Y50.883
G3 X10.548 Y51.45 I-0.173 J0.257
G1 X9.99
X9.897 Y51.449
X9.851 Y51.441
X9.804 Y51.426
X9.793 Y51.421
X9.752 Y51.398
X9.711 Y51.366
X9.676 Y51.328
X9.659 Y51.305
X9.644 Y51.281
X9.622 Y51.235
X9.618 Y51.224
X9.608 Y51.183
X9.603 Y51.142
Y51.049
Y44.542
G3 X9.912 Y44.243 I0.31 J0.011
G1 X9.913
X9.965 Y44.256 Z-0.995
X10.015 Y44.269 Z-0.981
X10.062 Y44.282 Z-0.957
X10.1 Y44.317 Z-0.919
X10.131 Y44.345 Z-0.871
X10.154 Y44.367 Z-0.815
X10.168 Y44.38 Z-0.754
X10.173 Y44.385 Z-0.69
G0 Z5
X31.287 Y31.777
Z1.5
S5000
G3 X29.819 Y29.223 Z1.338 I-0.734 J-1.277 F333.3
X31.287 Y31.777 Z1.177 I0.734 J1.277
X29.819 Y29.223 Z1.015 I-0.734 J-1.277
X31.287 Y31.777 Z0.854 I0.734 J1.277
X29.819 Y29.223 Z0.692 I-0.734 J-1.277
X31.287 Y31.777 Z0.531 I0.734 J1.277
X29.819 Y29.223 Z0.369 I-0.734 J-1.277
X31.287 Y31.777 Z0.208 I0.734 J1.277
X29.819 Y29.223 Z0.046 I-0.734 J-1.277
X31.287 Y31.777 Z-0.115 I0.734 J1.277
X29.819 Y29.223 Z-0.277 I-0.734 J-1.277
X31.287 Y31.777 Z-0.439 I0.734 J1.277
X29.819 Y29.223 Z-0.6 I-0.734 J-1.277
X31.287 Y31.777 Z-0.762 I0.734 J1.277
X29.819 Y29.223 Z-0.923 I-0.734 J-1.277
X31.287 Y31.777 Z-1.085 I0.734 J1.277
X29.819 Y29.223 Z-1.246 I-0.734 J-1.277
X31.287 Y31.777 Z-1.408 I0.734 J1.277
X29.819 Y29.223 Z-1.569 I-0.734 J-1.277
X31.287 Y31.777 Z-1.731 I0.734 J1.277
X29.819 Y29.223 Z-1.892 I-0.734 J-1.277
X32.025 Y30.5 Z-2 I0.734 J1.277
X29.08 Y30.5 I-1.472 J0
X32.025 Y30.5 I1.472 J0
S10000
G1 X32.027 Y30.643 F1000
X32.085 Y30.922
X32.096 Y30.939
X32.117 Y30.977
X32.137 Y31.021
X32.156 Y31.071
X32.171 Y31.129
X32.184 Y31.192
X32.192 Y31.263
X32.194 Y31.339
X32.19 Y31.421
X32.178 Y31.508
X32.159 Y31.599
X32.13 Y31.694
X32.092 Y31.792
X32.044 Y31.891
X31.985 Y31.99
X31.916 Y32.089
X31.835 Y32.187
X31.743 Y32.28
X31.641 Y32.37
X31.528 Y32.453
X31.405 Y32.53
X31.272 Y32.598
X31.131 Y32.657
X30.982 Y32.706
X30.827 Y32.743
X30.666 Y32.768
X30.501 Y32.78
X30.333 Y32.779
X30.163 Y32.764
X29.992 Y32.736
X29.823 Y32.693
X29.656 Y32.636
X29.493 Y32.566
X29.335 Y32.482
X29.182 Y32.385
X29.038 Y32.275
X28.902 Y32.153
X28.775 Y32.021
X28.659 Y31.878
X28.555 Y31.725
X28.463 Y31.565
X28.384 Y31.396
X28.318 Y31.222
X28.267 Y31.043
X28.23 Y30.859
X28.208 Y30.673
X28.201 Y30.486
X28.208 Y30.298
X28.231 Y30.112
X28.269 Y29.927
X28.322 Y29.747
X28.389 Y29.57
X28.47 Y29.4
X28.564 Y29.237
X28.672 Y29.081
X28.791 Y28.935
X28.922 Y28.799
X29.063 Y28.674
X29.214 Y28.56
X29.374 Y28.459
X29.542 Y28.371
X29.716 Y28.296
X29.895 Y28.236
X30.079 Y28.191
X30.265 Y28.16
X30.454 Y28.144
X30.643
X30.832 Y28.159
X31.019 Y28.189
X31.203 Y28.233
X31.382 Y28.293
X31.557 Y28.367
X31.725 Y28.454
X31.885 Y28.555
X32.037 Y28.668
X32.179 Y28.793
X32.311 Y28.929
X32.431 Y29.075
X32.54 Y29.23
X32.684 Y29.477
X32.815 Y29.731
X32.932 Y29.991
X33.023 Y30.242
X33.088 Y30.475
X33.131 Y30.699
X33.154 Y30.915
X33.16 Y31.125
X33.15 Y31.331
X33.123 Y31.534
X33.08 Y31.732
X33.021 Y31.927
X32.946 Y32.117
X32.856 Y32.302
X32.751 Y32.481
X32.63 Y32.652
X32.494 Y32.815
X32.344 Y32.968
X32.181 Y33.11
X32.004 Y33.24
X31.815 Y33.357
X31.615 Y33.46
X31.404 Y33.548
X31.184 Y33.619
X30.956 Y33.673
X30.722 Y33.709
X30.483 Y33.727
X30.24 Y33.725
X29.996 Y33.703
X29.753 Y33.662
X29.511 Y33.6
X29.274 Y33.519
X29.042 Y33.419
X28.817 Y33.299
X28.602 Y33.161
X28.397 Y33.005
X28.205 Y32.833
X28.026 Y32.644
X27.862 Y32.442
X27.715 Y32.226
X27.585 Y31.998
X27.473 Y31.76
X27.381 Y31.513
X27.309 Y31.259
X27.257 Y31
X27.226 Y30.736
X27.216 Y30.471
X27.228 Y30.205
X27.261 Y29.941
X27.315 Y29.68
X27.39 Y29.423
X27.485 Y29.174
X27.601 Y28.933
X27.735 Y28.701
X27.887 Y28.481
X28.057 Y28.274
X28.243 Y28.081
X28.444 Y27.904
X28.659 Y27.743
X28.885 Y27.6
X29.123 Y27.475
X29.37 Y27.37
X29.625 Y27.285
X29.885 Y27.221
X30.15 Y27.178
X30.418 Y27.156
X30.687
X30.955 Y27.177
X31.22 Y27.22
X31.481 Y27.284
X31.736 Y27.369
X31.983 Y27.474
X32.221 Y27.598
X32.449 Y27.742
X32.667 Y27.905
X32.882 Y28.094
X33.081 Y28.298
X33.266 Y28.516
X33.436 Y28.745
X33.592 Y28.985
X33.732 Y29.234
X33.854 Y29.492
X33.959 Y29.757
X34.045 Y30.03
X34.11 Y30.308
X34.155 Y30.59
X34.179 Y30.874
X34.181 Y31.16
X34.161 Y31.445
