(401)
(Chair back)
(T1  D=3.1 CR=0 - ZMIN=-20 - flat end mill)
G90 G94
G17
G21

(Adaptive1 2)
S5000 M3
G54
G0 Z10
G0 X-14.818 Y41.351
G3 X-13.236 Y38.867 Z2.338 I0.791 J-1.242 F333.3
X-14.818 Y41.351 Z2.177 I-0.791 J1.242
X-13.236 Y38.867 Z2.015 I0.791 J-1.242
X-14.818 Y41.351 Z1.854 I-0.791 J1.242
X-13.236 Y38.867 Z1.692 I0.791 J-1.242
X-14.818 Y41.351 Z1.531 I-0.791 J1.242
X-13.236 Y38.867 Z1.369 I0.791 J-1.242
X-14.818 Y41.351 Z1.208 I-0.791 J1.242
X-13.236 Y38.867 Z1.046 I0.791 J-1.242
X-14.818 Y41.351 Z0.885 I-0.791 J1.242
X-13.236 Y38.867 Z0.723 I0.791 J-1.242
X-14.818 Y41.351 Z0.561 I-0.791 J1.242
X-13.236 Y38.867 Z0.4 I0.791 J-1.242
X-14.818 Y41.351 Z0.238 I-0.791 J1.242
X-13.236 Y38.867 Z0.077 I0.791 J-1.242
X-14.818 Y41.351 Z-0.085 I-0.791 J1.242
X-13.236 Y38.867 Z-0.246 I0.791 J-1.242
X-14.818 Y41.351 Z-0.408 I-0.791 J1.242
X-13.236 Y38.867 Z-0.569 I0.791 J-1.242
X-12.554 Y40.109 Z-0.621 I-0.791 J1.242
X-15.499 Y40.109 I-1.472 J0
X-12.554 Y40.109 I1.472 J0
S10000
G1 X-12.522 Y40.743 F1000
X-12.496 Y40.818
X-12.466 Y40.965
Y41.115
X-12.491 Y41.263
X-12.537 Y41.406
X-12.6 Y41.542
X-12.679 Y41.669
X-12.771 Y41.788
X-12.874 Y41.896
X-12.988 Y41.994
X-13.11 Y42.082
X-13.239 Y42.158
X-13.374 Y42.224
X-13.515 Y42.278
X-13.664 Y42.323
X-13.819 Y42.356
X-13.98 Y42.376
X-14.145 Y42.384
X-14.312 Y42.379
X-14.481 Y42.36
X-14.65 Y42.327
X-14.817 Y42.28
X-14.982 Y42.219
X-15.143 Y42.144
X-15.299 Y42.056
X-15.448 Y41.955
X-15.589 Y41.842
X-15.722 Y41.717
X-15.844 Y41.581
X-15.956 Y41.435
X-16.057 Y41.28
X-16.144 Y41.117
X-16.219 Y40.947
X-16.28 Y40.771
X-16.326 Y40.591
X-16.359 Y40.407
X-16.376 Y40.22
X-16.378 Y40.033
X-16.365 Y39.845
X-16.337 Y39.66
X-16.294 Y39.476
X-16.237 Y39.297
X-16.165 Y39.123
X-16.08 Y38.955
X-15.981 Y38.794
X-15.87 Y38.642
X-15.747 Y38.499
X-15.612 Y38.366
X-15.468 Y38.244
X-15.314 Y38.135
X-15.151 Y38.038
X-14.982 Y37.954
X-14.806 Y37.884
X-14.625 Y37.829
X-14.44 Y37.788
X-14.253 Y37.763
X-14.064 Y37.752
X-13.874 Y37.757
X-13.686 Y37.776
X-13.5 Y37.811
X-13.317 Y37.861
X-13.139 Y37.925
X-12.967 Y38.003
X-12.801 Y38.095
X-12.644 Y38.2
X-12.495 Y38.317
X-12.356 Y38.446
X-12.228 Y38.585
X-12.111 Y38.735
X-12.007 Y38.893
X-11.894 Y39.098
X-11.725 Y39.475
X-11.609 Y39.801
X-11.538 Y40.068
X-11.493 Y40.312
X-11.47 Y40.544
X-11.466 Y40.765
X-11.478 Y40.975
X-11.507 Y41.177
X-11.552 Y41.375
X-11.612 Y41.569
X-11.688 Y41.759
X-11.779 Y41.941
X-11.885 Y42.117
X-12.005 Y42.284
X-12.139 Y42.443
X-12.288 Y42.592
X-12.45 Y42.73
X-12.625 Y42.857
X-12.813 Y42.971
X-13.012 Y43.071
X-13.222 Y43.156
X-13.44 Y43.225
X-13.667 Y43.277
X-13.9 Y43.311
X-14.138 Y43.327
X-14.379 Y43.323
X-14.621 Y43.299
X-14.863 Y43.256
X-15.103 Y43.193
X-15.338 Y43.11
X-15.568 Y43.008
X-15.79 Y42.888
X-16.003 Y42.748
X-16.206 Y42.592
X-16.396 Y42.418
X-16.573 Y42.229
X-16.734 Y42.026
X-16.879 Y41.809
X-17.007 Y41.581
X-17.117 Y41.342
X-17.207 Y41.095
X-17.277 Y40.841
X-17.327 Y40.581
X-17.355 Y40.317
X-17.363 Y40.052
X-17.349 Y39.787
X-17.314 Y39.523
X-17.257 Y39.262
X-17.18 Y39.007
X-17.083 Y38.758
X-16.966 Y38.518
X-16.829 Y38.288
X-16.675 Y38.069
X-16.504 Y37.863
X-16.316 Y37.672
X-16.114 Y37.496
X-15.898 Y37.337
X-15.67 Y37.196
X-15.431 Y37.073
X-15.184 Y36.97
X-14.928 Y36.888
X-14.667 Y36.826
X-14.402 Y36.785
X-14.134 Y36.765
X-13.865 Y36.767
X-13.598 Y36.791
X-13.333 Y36.836
X-13.073 Y36.902
X-12.818 Y36.989
X-12.572 Y37.096
X-12.335 Y37.223
X-12.109 Y37.368
X-11.895 Y37.53
X-11.688 Y37.716
X-11.468 Y37.948
X-11.26 Y38.205
X-11.066 Y38.489
X-10.893 Y38.792
X-10.748 Y39.103
X-10.63 Y39.417
X-10.541 Y39.731
X-10.479 Y40.041
X-10.443 Y40.349
X-10.432 Y40.654
X-10.445 Y40.954
X-10.482 Y41.25
X-10.542 Y41.54
X-10.625 Y41.822
X-10.729 Y42.096
X-10.855 Y42.36
X-11.003 Y42.613
X-11.17 Y42.855
X-11.357 Y43.083
X-11.563 Y43.297
X-11.788 Y43.495
X-12.029 Y43.676
X-12.286 Y43.838
X-12.558 Y43.981
X-12.842 Y44.102
X-13.138 Y44.2
X-13.444 Y44.276
X-13.757 Y44.326
X-14.076 Y44.352
X-14.398
X-14.722 Y44.326
X-15.044 Y44.274
X-15.363 Y44.196
X-15.677 Y44.092
X-15.984 Y43.962
X-16.28 Y43.807
X-16.565 Y43.627
X-16.835 Y43.425
X-17.09 Y43.2
X-17.327 Y42.955
X-17.544 Y42.69
X-17.74 Y42.408
X-17.913 Y42.111
X-18.062 Y41.799
X-18.186 Y41.475
X-18.284 Y41.142
X-18.355 Y40.801
X-18.399 Y40.456
X-18.414 Y40.107
X-18.402 Y39.757
X-18.361 Y39.409
X-18.293 Y39.065
X-18.197 Y38.728
X-18.074 Y38.399
X-17.925 Y38.08
X-17.751 Y37.775
X-17.553 Y37.484
X-17.332 Y37.21
X-17.09 Y36.954
X-16.827 Y36.719
X-16.547 Y36.505
X-16.25 Y36.314
X-15.939 Y36.148
X-15.616 Y36.007
X-15.282 Y35.893
X-14.94 Y35.806
X-14.591 Y35.746
X-14.24 Y35.715
X-13.887 Y35.712
X-13.534 Y35.737
X-13.185 Y35.791
X-12.841 Y35.872
X-12.505 Y35.981
X-12.179 Y36.116
X-11.862 Y36.278
X-11.55 Y36.471
X-11.244 Y36.696
X-10.949 Y36.952
X-10.667 Y37.239
X-10.405 Y37.553
X-10.167 Y37.89
X-9.957 Y38.244
X-9.777 Y38.613
X-9.628 Y38.992
X-9.511 Y39.378
X-9.427 Y39.769
X-9.374 Y40.161
X-9.353 Y40.553
X-9.364 Y40.943
X-9.406 Y41.328
X-9.478 Y41.706
X-9.579 Y42.076
X-9.71 Y42.436
X-9.869 Y42.784
X-10.056 Y43.118
X-10.269 Y43.436
X-10.508 Y43.737
X-10.771 Y44.019
X-11.057 Y44.281
X-11.365 Y44.519
X-11.692 Y44.734
X-12.038 Y44.922
X-12.4 Y45.083
X-12.776 Y45.215
X-13.164 Y45.318
X-13.561 Y45.389
X-13.965 Y45.428
X-14.374 Y45.435
X-14.783 Y45.409
X-15.192 Y45.35
X-15.597 Y45.258
X-15.995 Y45.132
X-16.383 Y44.975
X-16.759 Y44.786
X-17.121 Y44.567
X-17.465 Y44.318
X-17.789 Y44.041
X-18.091 Y43.739
X-18.369 Y43.412
X-18.62 Y43.062
X-18.843 Y42.693
X-19.036 Y42.306
X-19.198 Y41.904
X-19.327 Y41.489
X-19.423 Y41.064
X-19.485 Y40.632
X-19.511 Y40.196
X-19.503 Y39.759
X-19.459 Y39.324
X-19.381 Y38.892
X-19.268 Y38.468
X-19.121 Y38.054
X-18.942 Y37.653
X-18.73 Y37.268
X-18.489 Y36.9
X-18.218 Y36.553
X-17.92 Y36.228
X-17.597 Y35.928
X-17.251 Y35.655
X-16.884 Y35.411
X-16.499 Y35.197
X-16.097 Y35.014
X-15.682 Y34.864
X-15.256 Y34.748
X-14.822 Y34.667
X-14.383 Y34.62
X-13.942 Y34.609
X-13.501 Y34.634
X-13.063 Y34.693
X-12.632 Y34.788
X-12.207 Y34.918
X-11.79 Y35.083
X-11.382 Y35.283
X-10.986 Y35.519
X-10.603 Y35.791
X-10.237 Y36.099
X-9.891 Y36.44
X-9.57 Y36.812
X-9.278 Y37.21
X-9.019 Y37.632
X-8.795 Y38.072
X-8.607 Y38.528
X-8.457 Y38.995
X-8.346 Y39.47
X-8.273 Y39.95
X-8.24 Y40.431
X-8.245 Y40.911
X-8.289 Y41.387
X-8.37 Y41.856
X-8.489 Y42.316
X-8.643 Y42.764
X-8.833 Y43.198
X-9.057 Y43.615
X-9.314 Y44.013
X-9.603 Y44.39
X-9.922 Y44.743
X-10.269 Y45.071
X-10.643 Y45.371
X-11.042 Y45.641
X-11.462 Y45.879
X-11.903 Y46.084
X-12.361 Y46.254
X-12.833 Y46.387
X-13.316 Y46.482
X-13.808 Y46.538
X-14.306 Y46.554
X-14.805 Y46.531
X-15.303 Y46.467
X-15.797 Y46.363
X-16.282 Y46.219
X-16.757 Y46.036
X-17.217 Y45.814
X-17.659 Y45.556
X-18.08 Y45.261
X-18.478 Y44.933
X-18.85 Y44.573
X-19.192 Y44.183
X-19.502 Y43.766
X-19.779 Y43.324
X-20.02 Y42.861
X-20.223 Y42.379
X-20.387 Y41.881
X-20.511 Y41.37
X-20.594 Y40.851
X-20.635 Y40.325
X-20.633 Y39.798
X-20.59 Y39.272
X-20.504 Y38.75
X-20.376 Y38.237
X-20.207 Y37.735
X-19.999 Y37.248
X-19.752 Y36.779
X-19.468 Y36.331
X-19.148 Y35.907
X-18.796 Y35.51
X-18.413 Y35.142
X-18.001 Y34.806
X-17.563 Y34.504
X-17.103 Y34.239
X-16.623 Y34.011
X-16.125 Y33.822
X-15.615 Y33.674
X-15.093 Y33.567
X-14.565 Y33.502
X-14.034 Y33.48
X-13.502 Y33.501
X-12.972 Y33.564
X-12.448 Y33.67
X-11.931 Y33.819
X-11.423 Y34.01
X-10.927 Y34.244
X-10.446 Y34.52
X-9.983 Y34.838
X-9.541 Y35.196
X-9.126 Y35.592
X-8.742 Y36.023
X-8.391 Y36.485
X-8.078 Y36.976
X-7.806 Y37.49
X-7.576 Y38.023
X-7.389 Y38.573
X-7.248 Y39.133
X-7.153 Y39.702
X-7.104 Y40.274
X-7.101 Y40.846
X-7.144 Y41.414
X-7.231 Y41.976
X-7.364 Y42.528
X-7.54 Y43.067
X-7.759 Y43.589
X-8.018 Y44.092
X-8.318 Y44.573
X-8.656 Y45.029
X-9.029 Y45.458
X-9.437 Y45.856
X-9.877 Y46.22
X-10.346 Y46.55
X-10.842 Y46.842
X-11.362 Y47.094
X-11.902 Y47.304
X-12.46 Y47.471
X-13.031 Y47.593
X-13.613 Y47.669
X-14.201 Y47.698
X-14.792 Y47.68
X-15.382 Y47.614
X-15.967 Y47.501
X-16.543 Y47.34
X-17.106 Y47.134
X-17.653 Y46.881
X-18.179 Y46.585
X-18.681 Y46.247
X-19.156 Y45.868
X-19.6 Y45.451
X-20.01 Y44.999
X-20.383 Y44.515
X-20.717 Y44
X-21.009 Y43.46
X-21.258 Y42.897
X-21.46 Y42.315
X-21.616 Y41.717
X-21.723 Y41.109
X-21.781 Y40.492
X-21.79 Y39.873
X-21.749 Y39.254
X-21.658 Y38.64
X-21.518 Y38.034
X-21.329 Y37.442
X-21.094 Y36.866
X-20.813 Y36.31
X-20.488 Y35.778
X-20.121 Y35.275
X-19.715 Y34.802
X-19.272 Y34.362
X-18.795 Y33.96
X-18.287 Y33.597
X-17.752 Y33.276
X-17.192 Y32.999
X-16.612 Y32.768
X-16.015 Y32.584
X-15.405 Y32.449
X-14.787 Y32.363
X-14.162 Y32.326
X-13.537 Y32.34
X-12.912 Y32.405
X-12.293 Y32.519
X-11.681 Y32.684
X-11.084 Y32.898
X-10.506 Y33.159
X-9.95 Y33.464
X-9.419 Y33.813
X-8.918 Y34.201
X-8.448 Y34.627
X-8.012 Y35.088
X-7.613 Y35.581
X-7.252 Y36.103
X-6.932 Y36.651
X-6.654 Y37.221
X-6.419 Y37.811
X-6.23 Y38.416
X-6.088 Y39.035
X-5.992 Y39.662
X-5.945 Y40.294
X-5.946 Y40.929
X-5.995 Y41.561
X-6.093 Y42.188
X-6.239 Y42.806
X-6.432 Y43.41
X-6.671 Y43.998
X-6.954 Y44.566
X-7.28 Y45.11
X-7.648 Y45.627
X-8.054 Y46.114
X-8.497 Y46.568
X-8.974 Y46.987
X-9.481 Y47.367
X-10.017 Y47.708
X-10.576 Y48.007
X-11.157 Y48.263
X-11.755 Y48.474
X-12.367 Y48.64
X-12.99 Y48.759
X-13.621 Y48.832
X-14.255 Y48.857
X-14.889 Y48.836
X-15.519 Y48.767
X-16.144 Y48.653
X-16.757 Y48.492
X-17.357 Y48.286
X-17.94 Y48.036
X-18.503 Y47.743
X-19.043 Y47.41
X-19.558 Y47.039
X-20.044 Y46.632
X-20.5 Y46.191
X-20.923 Y45.718
X-21.311 Y45.216
X-21.663 Y44.688
X-21.974 Y44.135
X-22.244 Y43.561
X-22.471 Y42.969
X-22.656 Y42.362
X-22.797 Y41.743
X-22.893 Y41.116
X-22.945 Y40.484
X-22.953 Y39.849
X-22.916 Y39.216
X-22.833 Y38.587
X-22.703 Y37.966
X-22.53 Y37.356
X-22.313 Y36.759
X-22.055 Y36.18
X-21.757 Y35.62
X-21.42 Y35.082
X-21.047 Y34.569
X-20.638 Y34.084
X-20.195 Y33.63
X-19.721 Y33.209
X-19.217 Y32.823
X-18.687 Y32.474
X-18.134 Y32.163
X-17.561 Y31.892
X-16.97 Y31.661
X-16.364 Y31.472
X-15.746 Y31.326
X-15.12 Y31.227
X-14.488 Y31.172
X-13.853 Y31.163
X-13.22 Y31.198
X-12.591 Y31.278
X-11.968 Y31.4
X-11.356 Y31.566
X-10.756 Y31.773
X-10.173 Y32.023
X-9.609 Y32.314
X-9.066 Y32.642
X-8.547 Y33.007
X-8.054 Y33.406
X-7.588 Y33.837
X-7.152 Y34.298
X-6.748 Y34.787
X-6.378 Y35.302
X-6.044 Y35.842
X-5.747 Y36.402
X-5.487 Y36.981
X-5.266 Y37.576
X-5.084 Y38.183
X-4.943 Y38.802
X-4.842 Y39.428
X-4.784 Y40.06
X-4.771 Y40.694
X-4.8 Y41.328
X-4.871 Y41.959
X-4.984 Y42.583
X-5.138 Y43.198
X-5.332 Y43.802
X-5.566 Y44.392
X-5.841 Y44.964
X-6.155 Y45.515
X-6.505 Y46.044
X-6.89 Y46.548
X-7.309 Y47.025
X-7.758 Y47.473
X-8.236 Y47.891
X-8.74 Y48.275
X-9.27 Y48.625
X-9.822 Y48.936
X-10.394 Y49.21
X-10.983 Y49.446
X-11.587 Y49.643
X-12.201 Y49.799
X-12.825 Y49.916
X-13.455 Y49.992
X-14.088 Y50.027
X-14.723 Y50.018
X-15.355 Y49.968
X-15.983 Y49.877
X-16.604 Y49.745
X-17.214 Y49.574
X-17.813 Y49.363
X-18.397 Y49.115
X-18.963 Y48.829
X-19.509 Y48.506
X-20.033 Y48.148
X-20.533 Y47.757
X-21.007 Y47.336
X-21.454 Y46.885
X-21.871 Y46.408
X-22.259 Y45.905
X-22.613 Y45.379
X-22.933 Y44.831
X-23.215 Y44.263
X-23.46 Y43.678
X-23.667 Y43.078
X-23.837 Y42.467
X-23.968 Y41.846
X-24.061 Y41.218
X-24.115 Y40.586
X-24.129 Y39.952
X-24.102 Y39.318
X-24.034 Y38.687
X-23.925 Y38.062
X-23.778 Y37.445
X-23.591 Y36.839
X-23.368 Y36.245
X-23.109 Y35.666
X-22.814 Y35.104
X-22.485 Y34.562
X-22.122 Y34.042
X-21.726 Y33.546
X-21.299 Y33.076
X-20.844 Y32.634
X-20.362 Y32.222
X-19.855 Y31.84
X-19.326 Y31.49
X-18.776 Y31.174
X-18.207 Y30.893
X-17.621 Y30.649
X-17.022 Y30.442
X-16.41 Y30.274
X-15.789 Y30.144
X-15.161 Y30.053
X-14.529 Y30.002
X-13.894 Y29.989
X-13.261 Y30.016
X-12.63 Y30.084
X-12.004 Y30.191
X-11.387 Y30.336
X-10.779 Y30.519
X-10.185 Y30.74
X-9.604 Y30.996
X-9.041 Y31.288
X-8.496 Y31.612
X-7.971 Y31.97
X-7.47 Y32.359
X-6.994 Y32.778
X-6.543 Y33.224
X-6.119 Y33.696
X-5.725 Y34.193
X-5.36 Y34.712
X-5.027 Y35.252
X-4.726 Y35.811
X-4.459 Y36.386
X-4.227 Y36.977
X-4.03 Y37.58
X-3.87 Y38.194
X-3.745 Y38.816
X-3.658 Y39.444
X-3.608 Y40.077
X-3.596 Y40.711
X-3.621 Y41.345
X-3.684 Y41.976
X-3.786 Y42.602
X-3.925 Y43.221
X-4.101 Y43.831
X-4.312 Y44.429
X-4.559 Y45.014
X-4.841 Y45.582
X-5.156 Y46.133
X-5.503 Y46.664
X-5.882 Y47.173
X-6.291 Y47.657
X-6.729 Y48.116
X-7.194 Y48.549
X-7.683 Y48.953
X-8.196 Y49.327
X-8.729 Y49.669
X-9.283 Y49.98
X-9.853 Y50.257
X-10.439 Y50.501
X-11.039 Y50.708
X-11.65 Y50.879
X-12.269 Y51.015
X-12.896 Y51.114
X-13.527 Y51.177
X-14.161 Y51.203
X-14.795 Y51.192
X-15.428 Y51.144
X-16.057 Y51.06
X-16.68 Y50.939
X-17.294 Y50.78
X-17.898 Y50.587
X-18.49 Y50.359
X-19.068 Y50.098
X-19.63 Y49.803
X-20.174 Y49.477
X-20.699 Y49.12
X-21.202 Y48.734
X-21.683 Y48.319
X-22.138 Y47.878
X-22.568 Y47.411
X-22.971 Y46.921
X-23.345 Y46.408
X-23.689 Y45.876
X-24.003 Y45.324
X-24.284 Y44.755
X-24.533 Y44.172
X-24.748 Y43.575
X-24.928 Y42.967
X-25.073 Y42.349
X-25.184 Y41.724
X-25.259 Y41.094
X-25.3 Y40.461
X-25.304 Y39.827
X-25.273 Y39.193
X-25.206 Y38.562
X-25.103 Y37.936
X-24.965 Y37.317
X-24.791 Y36.707
X-24.583 Y36.108
X-24.342 Y35.521
X-24.068 Y34.948
X-23.764 Y34.392
X-23.429 Y33.853
X-23.064 Y33.334
X-22.67 Y32.836
X-22.249 Y32.362
X-21.801 Y31.912
X-21.328 Y31.489
X-20.833 Y31.093
X-20.316 Y30.726
X-19.779 Y30.387
X-19.225 Y30.079
X-18.654 Y29.802
X-18.068 Y29.558
X-17.47 Y29.346
X-16.861 Y29.169
X-16.242 Y29.028
X-15.617 Y28.922
X-14.986 Y28.851
X-14.353 Y28.815
X-13.719 Y28.814
X-13.085 Y28.849
X-12.454 Y28.918
X-11.829 Y29.023
X-11.21 Y29.162
X-10.599 Y29.335
X-10 Y29.544
X-9.413 Y29.785
X-8.84 Y30.057
X-8.283 Y30.361
X-7.743 Y30.694
X-7.223 Y31.056
X-6.722 Y31.446
X-6.243 Y31.862
X-5.787 Y32.303
X-5.356 Y32.769
X-4.951 Y33.258
X-4.574 Y33.767
X-4.223 Y34.296
X-3.902 Y34.843
X-3.609 Y35.406
X-3.347 Y35.984
X-3.116 Y36.575
X-2.916 Y37.177
X-2.749 Y37.789
X-2.615 Y38.409
X-2.516 Y39.035
X-2.45 Y39.666
X-2.418 Y40.3
X-2.419 Y40.935
X-2.454 Y41.568
X-2.523 Y42.199
X-2.626 Y42.825
X-2.762 Y43.444
X-2.931 Y44.056
X-3.133 Y44.657
X-3.369 Y45.246
X-3.635 Y45.822
X-3.933 Y46.382
X-4.26 Y46.926
X-4.615 Y47.452
X-4.999 Y47.957
X-5.409 Y48.441
X-5.844 Y48.903
X-6.303 Y49.34
X-6.786 Y49.752
X-7.291 Y50.136
X-7.816 Y50.493
X-8.359 Y50.821
X-8.918 Y51.12
X-9.493 Y51.389
X-10.081 Y51.627
X-10.681 Y51.834
X-11.29 Y52.009
X-11.909 Y52.151
X-12.534 Y52.26
X-13.164 Y52.335
X-13.797 Y52.377
X-14.431 Y52.386
X-15.065 Y52.361
X-15.697 Y52.304
X-16.325 Y52.213
X-16.947 Y52.09
X-17.562 Y51.934
X-18.168 Y51.747
X-18.764 Y51.528
X-19.346 Y51.277
X-19.915 Y50.996
X-20.469 Y50.685
X-21.005 Y50.347
X-21.524 Y49.982
X-22.023 Y49.59
X-22.501 Y49.173
X-22.958 Y48.733
X-23.391 Y48.269
X-23.8 Y47.784
X-24.183 Y47.278
X-24.538 Y46.753
X-24.866 Y46.21
X-25.166 Y45.651
X-25.437 Y45.077
X-25.678 Y44.49
X-25.889 Y43.892
X-26.068 Y43.283
X-26.217 Y42.666
X-26.335 Y42.043
X-26.42 Y41.414
X-26.472 Y40.782
X-26.492 Y40.148
X-26.479 Y39.514
X-26.434 Y38.881
X-26.357 Y38.251
X-26.248 Y37.626
X-26.107 Y37.007
X-25.935 Y36.397
X-25.732 Y35.796
X-25.499 Y35.206
X-25.235 Y34.628
X-24.942 Y34.066
X-24.621 Y33.518
X-24.273 Y32.988
X-23.899 Y32.476
X-23.499 Y31.984
X-23.074 Y31.512
X-22.626 Y31.063
X-22.155 Y30.637
X-21.664 Y30.236
X-21.153 Y29.86
X-20.623 Y29.512
X-20.076 Y29.191
X-19.513 Y28.897
X-18.936 Y28.633
X-18.347 Y28.398
X-17.747 Y28.193
X-17.137 Y28.019
X-16.519 Y27.876
X-15.996 Y27.782
X-15.954 Y27.776
X-15.912 Y27.772
X-15.869 Y27.771
X-13.306 Y27.768
X-12.673 Y27.799
X-12.04 Y27.84
X-11.412 Y27.933
X-10.792 Y28.067
X-10.181 Y28.238
X-9.58 Y28.443
X-8.991 Y28.679
X-8.415 Y28.945
X-7.854 Y29.24
X-7.308 Y29.563
X-6.779 Y29.914
X-6.269 Y30.29
X-5.777 Y30.691
X-5.305 Y31.115
X-4.855 Y31.562
X-4.427 Y32.031
X-4.023 Y32.52
X-3.643 Y33.028
X-3.287 Y33.553
X-2.958 Y34.095
X-2.656 Y34.653
X-2.382 Y35.226
X-2.135 Y35.81
X-1.917 Y36.406
X-1.728 Y37.012
X-1.649 Y37.319
X-1.599 Y37.526
X-1.566 Y37.678
X-1.557 Y37.728
X-1.552 Y37.778
X-1.55 Y37.828
Y42.424
X-1.58 Y43.029
X-1.659 Y43.627
X-1.791 Y44.247
X-1.968 Y44.857
X-2.183 Y45.454
X-2.431 Y46.038
X-2.709 Y46.608
X-3.017 Y47.163
X-3.351 Y47.702
X-3.711 Y48.224
X-4.097 Y48.728
X-4.507 Y49.212
X-4.939 Y49.677
X-5.394 Y50.119
X-5.871 Y50.537
X-6.368 Y50.931
X-6.884 Y51.3
X-7.417 Y51.644
X-7.967 Y51.961
X-8.531 Y52.252
X-8.748 Y52.351
X-8.835 Y52.389
X-8.929 Y52.423
X-9.026 Y52.443
X-9.125 Y52.45
X-18.495
X-18.726 Y52.438
X-19.063 Y52.394
X-19.436 Y52.314
X-19.899 Y52.176
X-20.447 Y51.962
X-21.018 Y51.685
X-21.567 Y51.368
X-22.097 Y51.018
X-22.605 Y50.639
X-23.094 Y50.234
X-23.561 Y49.805
X-24.007 Y49.354
X-24.432 Y48.883
X-24.833 Y48.391
X-25.21 Y47.881
X-25.563 Y47.354
X-25.891 Y46.811
X-26.194 Y46.253
X-26.47 Y45.682
X-26.719 Y45.099
X-26.939 Y44.504
X-27.132 Y43.899
X-27.296 Y43.286
X-27.431 Y42.666
X-27.537 Y42.041
X-27.614 Y41.411
X-27.662 Y40.779
X-27.68 Y40.144
X-27.669 Y39.51
X-27.629 Y38.877
X-27.559 Y38.246
X-27.459 Y37.62
X-27.33 Y36.999
X-27.171 Y36.384
X-26.985 Y35.778
X-26.771 Y35.181
X-26.529 Y34.594
X-26.26 Y34.02
X-25.964 Y33.458
X-25.644 Y32.911
X-25.298 Y32.379
X-24.929 Y31.863
X-24.535 Y31.365
X-24.118 Y30.887
X-23.68 Y30.429
X-23.22 Y29.991
X-22.741 Y29.576
X-22.243 Y29.183
X-21.727 Y28.813
X-21.195 Y28.468
X-20.647 Y28.148
X-20.085 Y27.853
X-20.067 Y27.844
X-19.968 Y27.807
X-19.866 Y27.784
X-19.761 Y27.776
X-15.869 Y27.771
G3 X-15.711 Y28.341 I-0.01 J0.31
G1 X-15.769 Y28.379 Z-0.613
X-15.824 Y28.414 Z-0.59
X-15.874 Y28.446 Z-0.553
X-15.915 Y28.473 Z-0.504
X-15.946 Y28.493 Z-0.445
X-15.965 Y28.505 Z-0.38
X-15.972 Y28.51 Z-0.311
G0 Z-0.001
X-1.93 Y41.403
G1 Z-0.311 F1000
X-1.926 Y41.41 Z-0.38
X-1.914 Y41.43 Z-0.445
X-1.895 Y41.462 Z-0.504
X-1.87 Y41.504 Z-0.553
X-1.84 Y41.554 Z-0.59
X-1.807 Y41.611 Z-0.613
X-1.771 Y41.67 Z-0.621
G3 X-1.55 Y42.424 I-1.36 J0.809
G1 Y45.739
X-1.563 Y45.992
X-1.601 Y46.282
X-1.672 Y46.616
X-1.796 Y47.03
X-1.977 Y47.495
X-2.249 Y48.055
X-2.571 Y48.602
X-2.928 Y49.126
X-3.314 Y49.63
X-3.726 Y50.113
X-4.16 Y50.575
X-4.616 Y51.016
X-5.092 Y51.435
X-5.587 Y51.833
X-6.099 Y52.207
X-6.293 Y52.335
X-6.416 Y52.398
X-6.547 Y52.437
X-6.684 Y52.45
X-9.125
G3 X-9.319 Y51.908 I0.011 J-0.31
G1 X-9.285 Y51.877
X-2.129 Y45.574
X-2.065 Y45.517
G3 X-1.55 Y45.739 I0.205 J0.233
G1 Y48.045
X-1.558 Y48.195
X-1.592 Y48.426
X-1.65 Y48.679
X-1.747 Y48.984
X-1.888 Y49.329
X-2.1 Y49.749
X-2.395 Y50.233
X-2.768 Y50.746
X-3.178 Y51.23
X-3.617 Y51.689
X-4.079 Y52.124
X-4.257 Y52.276
X-4.399 Y52.371
X-4.558 Y52.43
X-4.727 Y52.45
G3 X-4.971 Y51.963 I0.011 J-0.31
G1 X-4.902 Y51.864
X-2.12 Y47.888
X-2.114 Y47.878
G3 X-1.55 Y48.045 I0.254 J0.178
G1 Y49.919
X-1.558 Y50.069
X-1.588 Y50.263
X-1.64 Y50.481
X-1.727 Y50.746
X-1.843 Y51.025
X-2.021 Y51.369
X-2.255 Y51.746
X-2.573 Y52.176
X-2.596 Y52.202
X-2.751 Y52.336
X-2.938 Y52.421
X-3.141 Y52.45
G3 X-3.399 Y51.986 I0.011 J-0.31
G1 X-3.326 Y51.858
X-2.129 Y49.775
G3 X-1.55 Y49.919 I0.269 J0.154
G1 Y51.584
X-1.558 Y51.734
X-1.581 Y51.882
X-1.585 Y51.902
X-1.656 Y52.08
X-1.77 Y52.233
X-1.921 Y52.351
X-2.098 Y52.425
X-2.287 Y52.45
G3 X-2.523 Y51.952 I0.011 J-0.31
G1 X-2.458 Y51.867
X-2.121 Y51.426
X-2.106 Y51.407
G3 X-1.55 Y51.584 I0.246 J0.188
G1 Y52.081
X-1.552 Y52.153
X-1.558 Y52.189
X-1.568 Y52.225
X-1.579 Y52.252
X-1.593 Y52.278
X-1.63 Y52.331
X-1.667 Y52.37
X-1.694 Y52.391
X-1.721 Y52.409
X-1.748 Y52.423
X-1.775 Y52.433
X-1.811 Y52.443
X-1.847 Y52.449
X-1.962 Y52.45
X-6.684
G3 X-6.841 Y51.88 I0.011 J-0.31
G1 X-6.783 Y51.842 Z-0.613
X-6.728 Y51.807 Z-0.59
X-6.679 Y51.775 Z-0.553
X-6.638 Y51.748 Z-0.504
X-6.607 Y51.728 Z-0.445
X-6.587 Y51.716 Z-0.38
X-6.581 Y51.712 Z-0.311
G0 Z-0.001
X-14.326 Y28.149
G1 Z-0.311 F1000
X-14.319 Y28.145 Z-0.38
X-14.299 Y28.133 Z-0.445
X-14.268 Y28.114 Z-0.504
X-14.226 Y28.089 Z-0.553
X-14.175 Y28.059 Z-0.59
X-14.119 Y28.025 Z-0.613
X-14.06 Y27.99 Z-0.621
G3 X-13.306 Y27.768 I0.811 J1.359
G1 X-9.414 Y27.763
X-9.058 Y27.78
X-8.749 Y27.82
X-8.395 Y27.895
X-7.957 Y28.026
X-7.452 Y28.222
X-6.881 Y28.498
X-6.333 Y28.818
X-5.806 Y29.171
X-5.3 Y29.553
X-4.813 Y29.96
X-4.347 Y30.39
X-3.901 Y30.842
X-3.476 Y31.313
X-3.073 Y31.803
X-2.692 Y32.31
X-2.333 Y32.833
X-1.999 Y33.373
X-1.69 Y33.927
X-1.626 Y34.053
X-1.584 Y34.157
X-1.559 Y34.265
X-1.55 Y34.377
Y37.169
G3 X-2.098 Y37.357 I-0.31 J-0.011
G1 X-2.122 Y37.328
X-9.581 Y28.343
X-9.642 Y28.27
G3 X-9.414 Y27.763 I0.239 J-0.198
G1 X-7.108 Y27.76
X-6.82 Y27.774
X-6.595 Y27.803
X-6.336 Y27.858
X-6.039 Y27.947
X-5.687 Y28.083
X-5.266 Y28.287
X-4.793 Y28.564
X-4.273 Y28.928
X-3.782 Y29.33
X-3.315 Y29.76
X-2.872 Y30.213
X-2.45 Y30.687
X-2.05 Y31.179
X-1.693 Y31.659
X-1.615 Y31.791
X-1.566 Y31.938
X-1.55 Y32.091
Y33.746
G3 X-2.072 Y33.971 I-0.31 J0
G1 X-2.119 Y33.927
X-7.915 Y28.474
G3 X-7.861 Y27.982 I0.212 J-0.226
X-7.108 Y27.76 I0.811 J1.359
G1 X-5.09 Y27.757
X-4.939 Y27.764
X-4.753 Y27.788
X-4.539 Y27.834
X-4.279 Y27.911
X-4.006 Y28.018
X-3.667 Y28.181
X-3.295 Y28.4
X-2.854 Y28.709
X-2.365 Y29.113
X-1.908 Y29.554
X-1.741 Y29.736
X-1.637 Y29.881
X-1.572 Y30.048
X-1.55 Y30.225
Y32.091
G3 X-2.102 Y32.274 I-0.31 J-0.011
G1 X-2.122 Y32.249
X-5.258 Y28.339
X-5.321 Y28.261
G3 X-5.09 Y27.757 I0.242 J-0.194
G1 X-4.802 Y27.756
X-4.423 Y27.751
X-4.405 Y27.75
X-4.009 Y27.666
X-3.991 Y27.661
X-3.847 Y27.62
X-3.697 Y27.605
X-3.544 Y27.604
X-3.375 Y27.617
X-3.189 Y27.646
X-2.964 Y27.7
X-2.722 Y27.78
X-2.448 Y27.895
X-2.132 Y28.059
X-1.89 Y28.21
X-1.749 Y28.325
X-1.641 Y28.472
X-1.573 Y28.642
X-1.55 Y28.823
Y30.225
G3 X-2.093 Y30.419 I-0.31 J-0.011
G1 X-2.123 Y30.385
X-3.949 Y28.306
X-4.09 Y28.145
G3 X-3.991 Y27.661 I0.233 J-0.205
G1 X-3.799 Y27.577
X-3.649 Y27.482
X-3.579 Y27.432
X-3.538 Y27.396
X-3.421 Y27.302
X-3.289 Y27.231
X-3.148 Y27.179
X-3.003 Y27.143
X-2.854 Y27.121
X-2.701 Y27.112
X-2.524 Y27.115
X-2.355 Y27.131
X-2.18 Y27.163
X-2.089 Y27.186
X-1.914 Y27.258
X-1.763 Y27.373
X-1.647 Y27.523
X-1.575 Y27.698
X-1.55 Y27.886
Y28.823
G3 X-2.055 Y29.053 I-0.31 J-0.011
G1 X-2.131 Y28.991
X-3.319 Y28.024
X-3.52 Y27.861
G3 X-3.538 Y27.396 I0.196 J-0.24
G1 X-3.417 Y27.288
X-3.36 Y27.23
X-3.288 Y27.144
X-3.216 Y27.04
X-3.192 Y27
X-3.113 Y26.872
X-3.007 Y26.767
X-2.885 Y26.679
X-2.753 Y26.608
X-2.613 Y26.554
X-2.468 Y26.517
X-2.319 Y26.496
X-2.289 Y26.495
X-2.062 Y26.527
X-1.856 Y26.628
X-1.692 Y26.788
X-1.586 Y26.992
X-1.55 Y27.219
Y27.886
G3 X-2.038 Y28.129 I-0.31 J-0.011
G1 X-2.136 Y28.06
X-2.808 Y27.589
X-3.091 Y27.391
G3 X-3.192 Y27 I0.178 J-0.254
G1 X-3.115 Y26.856
X-3.072 Y26.754
X-3.057 Y26.712
X-3.014 Y26.568
X-3.006 Y26.524
X-2.971 Y26.378
X-2.887 Y26.254
X-2.78 Y26.149
X-2.658 Y26.061
X-2.524 Y25.995
X-2.494 Y25.985
X-2.271 Y25.951
X-2.048 Y25.987
X-1.847 Y26.09
X-1.687 Y26.25
X-1.585 Y26.451
X-1.55 Y26.674
Y27.219
G3 X-2.047 Y27.455 I-0.31 J-0.011
G1 X-2.133 Y27.389
X-2.525 Y27.091
X-2.887 Y26.816
G3 X-3.006 Y26.524 I0.188 J-0.247
G1 X-2.987 Y26.423
X-2.973 Y26.279
X-2.962 Y26.092
X-2.946 Y25.942
X-2.883 Y25.806
X-2.794 Y25.686
X-2.681 Y25.586
X-2.554 Y25.506
X-2.546 Y25.503
X-2.317 Y25.451
X-2.083 Y25.475
X-1.87 Y25.573
X-1.699 Y25.734
X-1.588 Y25.941
X-1.55 Y26.173
G3 X-1.884 Y26.471 I-0.31 J-0.011
G1 X-2.168 Y26.448
X-2.362 Y26.433
X-2.677 Y26.408
G3 X-2.962 Y26.092 I0.025 J-0.309
G1 X-2.933 Y25.588
X-2.917 Y25.439
X-2.857 Y25.301
X-2.766 Y25.182
X-2.653 Y25.083
X-2.647 Y25.079
X-2.445 Y24.996
X-2.229 Y24.977
X-2.016 Y25.023
X-1.827 Y25.13
X-1.678 Y25.288
X-1.583 Y25.484
X-1.55 Y25.699
G3 X-1.898 Y25.996 I-0.31 J-0.011
G1 X-2.167 Y25.963
X-2.334 Y25.942
X-2.661 Y25.902
G3 X-2.933 Y25.588 I0.038 J-0.308
G1 X-2.908 Y25.126
X-2.892 Y24.977
X-2.835 Y24.838
X-2.747 Y24.717
X-2.548 Y24.592
X-2.319 Y24.539
X-2.085 Y24.562
X-1.871 Y24.659
X-1.699 Y24.819
X-1.588 Y25.026
X-1.55 Y25.258
G3 X-1.908 Y25.554 I-0.31 J-0.011
G1 X-2.166 Y25.513
X-2.309 Y25.491
X-2.646 Y25.438
G3 X-2.908 Y25.126 I0.048 J-0.306
G1 X-2.882 Y24.65
X-2.867 Y24.501
X-2.802 Y24.366
X-2.639 Y24.224
X-2.441 Y24.139
X-2.227 Y24.116
X-2.015 Y24.159
X-1.827 Y24.263
X-1.678 Y24.419
X-1.583 Y24.612
X-1.55 Y24.825
G3 X-1.927 Y25.117 I-0.31 J-0.011
G1 X-2.163 Y25.065
X-2.287 Y25.037
X-2.64 Y24.958
G3 X-2.882 Y24.65 I0.067 J-0.303
G1 X-2.862 Y24.261
X-2.847 Y24.112
X-2.789 Y23.974
X-2.7 Y23.853
X-2.507 Y23.736
X-2.286 Y23.687
X-2.062 Y23.712
X-1.857 Y23.806
X-1.692 Y23.961
X-1.587 Y24.161
X-1.55 Y24.384
G3 X-1.907 Y24.679 I-0.31 J-0.011
G1 X-2.166 Y24.639
X-2.262 Y24.624
X-2.6 Y24.572
G3 X-2.862 Y24.261 I0.047 J-0.306
G1 X-2.839 Y23.785
X-2.825 Y23.636
X-2.757 Y23.502
X-2.597 Y23.37
X-2.405 Y23.29
X-2.198 Y23.272
X-1.995 Y23.316
X-1.814 Y23.418
X-1.672 Y23.569
X-1.581 Y23.756
X-1.55 Y23.961
G3 X-1.933 Y24.252 I-0.31 J-0.011
G1 X-2.162 Y24.196
X-2.244 Y24.177
X-2.602 Y24.09
G3 X-2.839 Y23.785 I0.073 J-0.301
G1 X-2.822 Y23.396
X-2.809 Y23.247
X-2.746 Y23.111
X-2.652 Y22.994
X-2.464 Y22.887
X-2.251 Y22.845
X-2.036 Y22.873
X-1.841 Y22.966
X-1.685 Y23.117
X-1.585 Y23.309
X-1.55 Y23.523
G3 X-1.913 Y23.818 I-0.31 J-0.011
G1 X-2.165 Y23.774
X-2.221 Y23.764
X-2.566 Y23.704
G3 X-2.822 Y23.396 I0.053 J-0.305
G1 X-2.811 Y23.108
X-2.805 Y22.964
X-2.793 Y22.814
X-2.73 Y22.678
X-2.577 Y22.544
X-2.391 Y22.463
X-2.189 Y22.44
X-1.99 Y22.48
X-1.811 Y22.578
X-1.671 Y22.725
X-1.581 Y22.907
X-1.55 Y23.108
G3 X-1.923 Y23.4 I-0.31 J-0.011
G1 X-2.163 Y23.35
X-2.204 Y23.342
X-2.559 Y23.268
G3 X-2.805 Y22.964 I0.063 J-0.303
G1 X-2.795 Y22.676
X-2.796 Y22.596
X-2.79 Y22.446
X-2.736 Y22.307
X-2.648 Y22.185
X-2.464 Y22.072
X-2.254 Y22.024
X-2.04 Y22.046
X-1.843 Y22.136
X-1.686 Y22.284
X-1.585 Y22.474
X-1.55 Y22.687
G3 X-1.905 Y22.983 I-0.31 J-0.011
G1 X-2.166 Y22.944
X-2.178 Y22.942
X-2.532 Y22.889
G3 X-2.796 Y22.596 I0.046 J-0.307
G1 X-2.797 Y22.532
X-2.804 Y22.387
X-2.829 Y22.243
X-2.855 Y22.095
X-2.815 Y21.951
X-2.741 Y21.82
X-2.581 Y21.693
X-2.39 Y21.619
X-2.185 Y21.604
X-1.986 Y21.65
X-1.808 Y21.753
X-1.669 Y21.903
X-1.58 Y22.088
X-1.55 Y22.291
G3 X-1.918 Y22.584 I-0.31 J-0.011
G1 X-2.148 Y22.54
X-2.592 Y22.455
G3 X-2.829 Y22.243 I0.059 J-0.304
G1 X-2.869 Y22.099
X-2.925 Y21.955
X-2.977 Y21.814
X-2.972 Y21.665
X-2.925 Y21.522
X-2.847 Y21.394
X-2.746 Y21.283
X-2.627 Y21.192
X-2.615 Y21.186
X-2.415 Y21.114
X-2.203 Y21.104
X-1.997 Y21.155
X-1.815 Y21.264
X-1.672 Y21.422
X-1.581 Y21.614
X-1.55 Y21.824
G3 X-1.856 Y22.123 I-0.31 J-0.011
G1 X-2.169 Y22.127
X-2.209
X-2.641 Y22.132
G3 X-2.925 Y21.955 I-0.004 J-0.31
G1 X-2.994 Y21.811
X-3.072 Y21.686
X-3.086 Y21.667
X-3.174 Y21.545
X-3.202 Y21.398
X-3.194 Y21.248
X-3.152 Y21.104
X-3.086 Y20.969
X-2.997 Y20.848
X-2.891 Y20.742
X-2.77 Y20.654
X-2.638 Y20.583
X-2.497 Y20.53
X-2.347 Y20.497
X-2.146 Y20.504
X-1.955 Y20.567
X-1.789 Y20.68
X-1.66 Y20.834
X-1.578 Y21.017
X-1.55 Y21.216
Y21.824
G3 X-1.963 Y22.105 I-0.31 J-0.011
G1 X-2.156 Y22.037
X-2.366 Y21.964
X-2.954 Y21.757
X-3.003 Y21.735
X-3.048 Y21.704
X-3.086 Y21.667
X-3.202 Y21.522
X-3.216 Y21.508
X-3.329 Y21.405
X-3.434 Y21.298
X-3.493 Y21.16
X-3.518 Y21.012
X-3.515 Y20.862
X-3.488 Y20.714
X-3.44 Y20.572
X-3.372 Y20.438
X-3.289 Y20.314
X-3.191 Y20.2
X-3.08 Y20.099
X-2.959 Y20.011
X-2.828 Y19.938
X-2.689 Y19.88
X-2.545 Y19.838
X-2.398 Y19.812
X-2.248 Y19.803
X-2.242
X-2.026 Y19.846
X-1.833 Y19.952
X-1.681 Y20.111
X-1.583 Y20.308
X-1.55 Y20.526
Y21.216
G3 X-1.869 Y21.515 I-0.31 J-0.011
G1 X-2.169 Y21.507
X-2.561 Y21.495
X-3.136 Y21.479
X-3.205 Y21.469
X-3.271 Y21.444
X-3.329 Y21.405
X-3.36 Y21.376
X-3.504 Y21.27
X-3.559 Y21.234
X-3.586 Y21.22
X-3.716 Y21.146
X-3.816 Y21.034
X-3.887 Y20.902
X-3.932 Y20.759
X-3.954 Y20.611
X-3.956 Y20.461
X-3.938 Y20.312
X-3.902 Y20.166
X-3.851 Y20.025
X-3.785 Y19.89
X-3.706 Y19.763
X-3.615 Y19.643
X-3.514 Y19.533
X-3.404 Y19.431
X-3.285 Y19.339
X-3.159 Y19.258
X-3.026 Y19.189
X-2.887 Y19.131
X-2.744 Y19.086
X-2.598 Y19.054
X-2.449 Y19.037
X-2.299 Y19.033
X-2.222 Y19.039
X-2.011 Y19.086
X-1.824 Y19.193
X-1.676 Y19.352
X-1.582 Y19.546
X-1.55 Y19.76
Y20.526
G3 X-1.78 Y20.815 I-0.31 J-0.011
G1 X-2.157 Y20.915
X-2.825 Y21.092
X-3.376 Y21.239
X-3.429 Y21.248
X-3.483
X-3.536 Y21.239
X-3.586 Y21.22
X-3.649 Y21.189
X-3.793 Y21.123
X-3.937 Y21.077
X-4.077 Y21.024
X-4.201 Y20.939
X-4.303 Y20.829
X-4.385 Y20.703
X-4.446 Y20.566
X-4.488 Y20.422
X-4.512 Y20.274
X-4.52 Y20.125
X-4.513 Y19.975
X-4.491 Y19.826
X-4.456 Y19.68
X-4.409 Y19.538
X-4.347 Y19.394
X-4.274 Y19.254
X-4.188 Y19.118
X-4.086 Y18.983
X-3.97 Y18.851
X-3.843 Y18.729
X-3.707 Y18.617
X-3.558 Y18.515
X-3.398 Y18.422
X-3.24 Y18.347
X-3.084 Y18.287
X-2.913 Y18.237
X-2.763 Y18.206
X-2.614 Y18.188
X-2.453 Y18.181
X-2.303 Y18.187
X-2.154 Y18.206
X-2.118 Y18.214
X-1.935 Y18.281
X-1.776 Y18.395
X-1.654 Y18.547
X-1.576 Y18.727
X-1.55 Y18.92
Y19.76
G3 X-1.718 Y20.025 I-0.31 J-0.011
G1 X-2.124 Y20.234
X-3.22 Y20.8
X-3.71 Y21.054
X-3.764 Y21.075
X-3.821 Y21.087
X-3.88
X-3.937 Y21.077
X-3.973 Y21.065
X-3.991 Y21.06
X-4.34 Y21.025
X-4.488 Y21.002
X-4.627 Y20.945
X-4.752 Y20.862
X-4.861 Y20.759
X-4.954 Y20.641
X-5.032 Y20.513
X-5.095 Y20.377
X-5.143 Y20.235
X-5.177 Y20.089
X-5.198 Y19.94
X-5.206 Y19.789
X-5.203 Y19.632
X-5.186 Y19.466
X-5.153 Y19.292
X-5.105 Y19.114
X-5.041 Y18.937
X-4.96 Y18.758
X-4.861 Y18.578
X-4.743 Y18.4
X-4.608 Y18.228
X-4.457 Y18.065
X-4.291 Y17.912
X-4.111 Y17.772
X-3.921 Y17.647
X-3.722 Y17.537
X-3.514 Y17.443
X-3.3 Y17.367
X-3.096 Y17.313
X-2.907 Y17.278
X-2.712 Y17.258
X-2.547 Y17.255
X-2.374 Y17.265
X-2.212 Y17.288
X-2.066 Y17.32
X-2.057 Y17.323
X-1.853 Y17.425
X-1.69 Y17.585
X-1.586 Y17.788
X-1.55 Y18.013
Y18.92
G3 X-1.676 Y19.159 I-0.31 J-0.011
G1 X-2.084 Y19.459
X-3.678 Y20.629
X-4.136 Y20.965
X-4.182 Y20.994
X-4.233 Y21.013
X-4.286 Y21.024
X-4.34 Y21.025
X-4.369 Y21.022
X-4.513 Y21.019
X-4.845
X-4.995 Y21.011
X-5.14 Y20.974
X-5.276 Y20.91
X-5.401 Y20.826
X-5.513 Y20.727
X-5.613 Y20.615
X-5.701 Y20.493
X-5.776 Y20.363
X-5.839 Y20.227
X-5.892 Y20.084
X-5.935 Y19.929
X-5.969 Y19.758
X-5.989 Y19.575
X-5.995 Y19.386
X-5.986 Y19.185
X-5.958 Y18.973
X-5.911 Y18.753
X-5.845 Y18.531
X-5.759 Y18.308
X-5.65 Y18.083
X-5.518 Y17.858
X-5.364 Y17.638
X-5.189 Y17.426
X-4.992 Y17.224
X-4.778 Y17.036
X-4.547 Y16.865
X-4.305 Y16.714
X-4.053 Y16.583
X-3.798 Y16.476
X-3.539 Y16.391
X-3.28 Y16.328
X-3.026 Y16.288
X-2.82 Y16.273
X-2.6
X-2.411 Y16.289
X-2.249 Y16.316
X-2.073 Y16.361
X-2.042 Y16.371
X-1.843 Y16.475
X-1.686 Y16.634
X-1.585 Y16.835
X-1.55 Y17.056
Y18.013
X-1.558 Y18.075
X-1.579 Y18.133
X-1.61 Y18.187
X-1.652 Y18.233
X-2.05 Y18.593
X-4.226 Y20.558
X-4.648 Y20.939
X-4.691 Y20.972
X-4.74 Y20.997
X-4.791 Y21.012
X-4.845 Y21.019
X-5.522 Y21.018
X-5.672 Y21.011
X-5.818 Y20.973
X-5.955 Y20.914
X-6.083 Y20.836
X-6.202 Y20.744
X-6.31 Y20.64
X-6.408 Y20.526
X-6.495 Y20.404
X-6.578 Y20.265
X-6.652 Y20.116
X-6.718 Y19.949
X-6.776 Y19.762
X-6.82 Y19.565
X-6.849 Y19.353
X-6.862 Y19.123
X-6.857 Y18.879
X-6.831 Y18.629
X-6.783 Y18.37
X-6.71 Y18.1
X-6.61 Y17.823
X-6.484 Y17.543
X-6.331 Y17.266
X-6.152 Y16.997
X-5.948 Y16.737
X-5.717 Y16.487
X-5.462 Y16.252
X-5.187 Y16.037
X-4.894 Y15.843
X-4.586 Y15.673
X-4.268 Y15.53
X-3.952 Y15.417
X-3.64 Y15.333
X-3.341 Y15.278
X-3.048 Y15.248
X-2.809 Y15.243
X-2.567 Y15.257
X-2.366 Y15.286
X-2.193 Y15.324
X-2.005 Y15.383
X-1.82 Y15.491
X-1.674 Y15.649
X-1.582 Y15.842
X-1.55 Y16.054
Y17.056
X-1.557 Y17.114
X-1.576 Y17.169
X-1.604 Y17.22
X-1.641 Y17.265
X-2.032 Y17.655
X-4.923 Y20.538
X-5.314 Y20.928
X-5.359 Y20.965
X-5.41 Y20.993
X-5.465 Y21.011
X-5.522 Y21.018
X-6.243 Y21.017
X-6.393 Y21.01
X-6.54 Y20.979
X-6.68 Y20.926
X-6.813 Y20.857
X-6.937 Y20.772
X-7.052 Y20.676
X-7.159 Y20.571
X-7.261 Y20.45
X-7.361 Y20.31
X-7.453 Y20.158
X-7.541 Y19.982
X-7.62 Y19.785
X-7.685 Y19.578
X-7.737 Y19.346
X-7.773 Y19.091
X-7.789 Y18.825
X-7.784 Y18.546
X-7.754 Y18.246
X-7.696 Y17.93
X-7.609 Y17.604
X-7.494 Y17.278
X-7.348 Y16.953
X-7.168 Y16.625
X-6.955 Y16.301
X-6.709 Y15.985
X-6.432 Y15.684
X-6.126 Y15.4
X-5.795 Y15.139
X-5.444 Y14.905
X-5.077 Y14.702
X-4.702 Y14.531
X-4.321 Y14.394
X-3.95 Y14.293
X-3.588 Y14.225
X-3.252 Y14.189
X-2.932 Y14.181
X-2.685 Y14.195
X-2.438 Y14.229
X-2.243 Y14.272
X-2.061 Y14.327
X-2.007 Y14.349
X-1.821 Y14.457
X-1.675 Y14.615
X-1.582 Y14.809
X-1.55 Y15.021
Y16.054
X-1.557 Y16.11
X-1.574 Y16.163
X-1.6 Y16.212
X-1.634 Y16.256
X-2.02 Y16.665
X-5.656 Y20.525
X-6.028 Y20.92
X-6.073 Y20.96
X-6.126 Y20.99
X-6.183 Y21.009
X-6.243 Y21.017
X-7.043 Y21.016
X-7.193 Y21.009
X-7.34 Y20.98
X-7.482 Y20.931
X-7.617 Y20.865
X-7.744 Y20.787
X-7.864 Y20.696
X-7.978 Y20.593
X-8.091 Y20.473
X-8.207 Y20.329
X-8.313 Y20.172
X-8.417 Y19.989
X-8.514 Y19.78
X-8.595 Y19.56
X-8.666 Y19.31
X-8.721 Y19.03
X-8.754 Y18.739
X-8.764 Y18.426
X-8.748 Y18.088
X-8.702 Y17.731
X-8.624 Y17.359
X-8.514 Y16.986
X-8.367 Y16.607
X-8.181 Y16.221
X-7.955 Y15.834
X-7.69 Y15.454
X-7.386 Y15.086
X-7.048 Y14.737
X-6.677 Y14.412
X-6.28 Y14.117
X-5.861 Y13.854
X-5.427 Y13.628
X-4.984 Y13.441
X-4.541 Y13.296
X-4.104 Y13.189
X-3.692 Y13.124
X-3.312 Y13.094
X-2.963 Y13.095
X-2.69 Y13.118
X-2.426 Y13.162
X-2.224 Y13.212
X-2.031 Y13.277
X-1.989 Y13.295
X-1.81 Y13.405
X-1.67 Y13.561
X-1.581 Y13.752
X-1.55 Y13.96
Y15.021
X-1.557 Y15.075
X-1.573 Y15.127
X-1.598 Y15.176
X-1.631 Y15.219
X-2.013 Y15.638
X-6.462 Y20.518
X-6.825 Y20.915
X-6.87 Y20.957
X-6.924 Y20.988
X-6.982 Y21.008
X-7.043 Y21.016
X-7.908 Y21.015
X-8.058 Y21.008
X-8.205 Y20.979
X-8.347 Y20.932
X-8.483 Y20.868
X-8.613 Y20.792
X-8.735 Y20.704
X-8.858 Y20.599
X-8.982 Y20.477
X-9.109 Y20.327
X-9.227 Y20.164
X-9.345 Y19.97
X-9.456 Y19.75
X-9.552 Y19.514
X-9.637 Y19.241
X-9.707 Y18.937
X-9.753 Y18.622
X-9.775 Y18.273
X-9.769 Y17.894
X-9.73 Y17.492
X-9.656 Y17.077
X-9.545 Y16.658
X-9.391 Y16.22
X-9.192 Y15.771
X-8.947 Y15.321
X-8.656 Y14.875
X-8.32 Y14.442
X-7.944 Y14.029
X-7.529 Y13.642
X-7.081 Y13.287
X-6.606 Y12.969
X-6.111 Y12.692
X-5.602 Y12.459
X-5.091 Y12.273
X-4.587 Y12.134
X-4.098 Y12.041
X-3.644 Y11.991
X-3.24 Y11.98
X-2.873 Y11.999
X-2.596 Y12.036
X-2.335 Y12.093
X-2.14 Y12.152
X-2.009 Y12.203
X-1.822 Y12.311
X-1.676 Y12.469
X-1.582 Y12.663
X-1.55 Y12.876
Y13.96
X-1.557 Y14.013
X-1.572 Y14.065
X-1.597 Y14.113
X-1.629 Y14.156
X-2.009 Y14.58
X-7.33 Y20.514
X-7.688 Y20.912
X-7.734 Y20.954
X-7.787 Y20.986
X-7.846 Y21.007
X-7.908 Y21.015
X-8.838 Y21.014
X-8.988 Y21.006
X-9.134 Y20.975
X-9.276 Y20.926
X-9.412 Y20.862
X-9.541 Y20.787
X-9.671 Y20.695
X-9.803 Y20.585
X-9.936 Y20.454
X-10.074 Y20.296
X-10.202 Y20.121
X-10.332 Y19.912
X-10.452 Y19.678
X-10.559 Y19.419
X-10.657 Y19.119
X-10.735 Y18.789
X-10.788 Y18.44
X-10.816 Y18.05
X-10.813 Y17.627
X-10.773 Y17.175
X-10.695 Y16.717
X-10.573 Y16.239
X-10.402 Y15.739
X-10.179 Y15.226
X-9.903 Y14.71
X-9.576 Y14.2
X-9.198 Y13.703
X-8.774 Y13.231
X-8.314 Y12.794
X-7.821 Y12.395
X-7.299 Y12.035
X-6.75 Y11.717
X-6.178 Y11.443
X-5.599 Y11.221
X-5.026 Y11.053
X-4.472 Y10.937
X-3.944 Y10.871
X-3.469 Y10.85
X-3.059 Y10.864
X-2.724 Y10.903
X-2.428 Y10.962
X-2.211 Y11.024
X-2.003 Y11.101
X-1.967 Y11.118
X-1.796 Y11.23
X-1.663 Y11.385
X-1.579 Y11.571
X-1.55 Y11.773
Y12.876
X-1.557 Y12.93
X-1.572 Y12.981
X-1.596 Y13.029
X-1.628 Y13.072
X-2.008 Y13.498
X-8.261 Y20.512
X-8.617 Y20.911
X-8.663 Y20.953
X-8.717 Y20.985
X-8.776 Y21.006
X-8.838 Y21.014
X-9.782 Y21.013
X-9.932 Y21.005
X-10.079 Y20.974
X-10.221 Y20.926
X-10.357 Y20.864
X-10.488 Y20.79
X-10.626 Y20.696
X-10.761 Y20.587
X-10.907 Y20.448
X-11.046 Y20.294
X-11.19 Y20.105
X-11.329 Y19.889
X-11.457 Y19.648
X-11.581 Y19.362
X-11.688 Y19.05
X-11.776 Y18.707
X-11.843 Y18.313
X-11.881 Y17.88
X-11.885 Y17.433
X-11.851 Y16.955
X-11.771 Y16.439
X-11.642 Y15.892
X-11.457 Y15.322
X-11.216 Y14.74
X-10.926 Y14.176
X-10.594 Y13.635
X-10.222 Y13.122
X-9.812 Y12.637
X-9.369 Y12.183
X-8.896 Y11.761
X-8.395 Y11.372
X-7.868 Y11.017
X-7.32 Y10.699
X-6.75 Y10.42
X-6.162 Y10.182
X-5.557 Y9.989
X-4.94 Y9.842
X-4.356 Y9.75
X-3.822 Y9.71
X-3.328 Y9.712
X-2.905 Y9.748
X-2.593 Y9.8
X-2.313 Y9.871
X-2.107 Y9.94
X-1.987 Y9.992
X-1.809 Y10.102
X-1.669 Y10.258
X-1.58 Y10.449
X-1.55 Y10.656
Y11.773
X-1.556 Y11.826
X-1.572 Y11.878
X-1.596 Y11.925
X-1.628 Y11.968
X-2.007 Y12.396
X-9.206 Y20.51
X-9.56 Y20.909
X-9.607 Y20.951
X-9.66 Y20.984
X-9.72 Y21.005
X-9.782 Y21.013
X-10.712 Y21.012
X-10.861 Y21.004
X-11.009 Y20.98
X-11.153 Y20.937
X-11.292 Y20.881
X-11.426 Y20.811
X-11.561 Y20.727
X-11.707 Y20.618
X-11.853 Y20.49
X-12.002 Y20.336
X-12.156 Y20.15
X-12.299 Y19.945
X-12.448 Y19.691
X-12.581 Y19.415
X-12.704 Y19.096
X-12.813 Y18.727
X-12.897 Y18.329
X-12.952 Y17.901
X-12.975 Y17.419
X-12.957 Y16.887
X-12.892 Y16.315
X-12.778 Y15.736
X-12.607 Y15.128
X-12.387 Y14.533
X-12.123 Y13.956
X-11.819 Y13.399
X-11.477 Y12.864
X-11.101 Y12.353
X-10.693 Y11.868
X-10.255 Y11.409
X-9.789 Y10.978
X-9.297 Y10.578
X-8.781 Y10.209
X-8.243 Y9.872
X-7.686 Y9.568
X-7.111 Y9.3
X-6.521 Y9.068
X-5.917 Y8.874
X-5.301 Y8.722
X-4.675 Y8.615
X-4.077 Y8.56
X-3.537 Y8.554
X-3.062 Y8.588
X-2.698 Y8.643
X-2.39 Y8.715
X-2.166 Y8.787
X-1.955 Y8.874
X-1.945 Y8.879
X-1.782 Y8.992
X-1.657 Y9.146
X-1.577 Y9.327
X-1.55 Y9.523
Y10.656
X-1.556 Y10.709
X-1.572 Y10.76
X-1.596 Y10.807
X-1.627 Y10.85
X-2.006 Y11.28
X-10.137 Y20.507
X-10.49 Y20.907
X-10.536 Y20.95
X-10.59 Y20.982
X-10.649 Y21.003
X-10.712 Y21.012
X-11.721 Y21.011
X-11.87 Y21.003
X-12.018 Y20.977
X-12.162 Y20.935
X-12.301 Y20.878
X-12.434 Y20.809
X-12.581 Y20.718
X-12.725 Y20.612
X-12.884 Y20.473
X-13.035 Y20.319
X-13.199 Y20.123
X-13.352 Y19.905
X-13.505 Y19.646
X-13.654 Y19.34
X-13.781 Y19.016
X-13.896 Y18.633
X-13.992 Y18.189
X-14.054 Y17.722
X-14.08 Y17.204
X-14.064 Y16.632
X-13.996 Y16.013
X-13.876 Y15.39
X-13.71 Y14.778
X-13.499 Y14.179
X-13.248 Y13.597
X-12.959 Y13.032
X-12.634 Y12.487
X-12.277 Y11.962
X-11.89 Y11.46
X-11.475 Y10.98
X-11.034 Y10.524
X-10.567 Y10.094
X-10.078 Y9.69
X-9.567 Y9.315
X-9.035 Y8.968
X-8.485 Y8.653
X-7.918 Y8.369
X-7.335 Y8.116
X-6.74 Y7.898
X-6.133 Y7.714
X-5.515 Y7.568
X-4.89 Y7.463
X-4.258 Y7.402
X-3.677 Y7.393
X-3.162 Y7.426
X-2.742 Y7.487
X-2.444 Y7.556
X-2.186 Y7.637
X-1.987 Y7.718
X-1.948 Y7.737
X-1.784 Y7.85
X-1.658 Y8.004
X-1.577 Y8.186
X-1.55 Y8.383
Y9.523
X-1.556 Y9.576
X-1.572 Y9.627
X-1.596 Y9.675
X-1.627 Y9.718
X-2.006 Y10.147
X-11.146 Y20.506
X-11.499 Y20.906
X-11.545 Y20.949
X-11.599 Y20.981
X-11.658 Y21.002
X-11.721 Y21.011
X-12.73 Y21.009
X-12.879 Y21.002
X-13.028 Y20.978
X-13.172 Y20.937
X-13.312 Y20.882
X-13.451 Y20.813
X-13.596 Y20.726
X-13.75 Y20.615
X-13.908 Y20.482
X-14.069 Y20.322
X-14.237 Y20.126
X-14.396 Y19.907
X-14.564 Y19.632
X-14.714 Y19.335
X-14.856 Y18.986
X-14.987 Y18.573
X-15.088 Y18.134
X-15.161 Y17.64
X-15.198 Y17.074
X-15.189 Y16.456
X-15.129 Y15.824
X-15.021 Y15.199
X-14.868 Y14.583
X-14.674 Y13.98
X-14.44 Y13.39
X-14.172 Y12.815
X-13.87 Y12.257
X-13.538 Y11.716
X-13.177 Y11.194
X-12.789 Y10.692
X-12.376 Y10.211
X-11.938 Y9.752
X-11.477 Y9.315
X-10.995 Y8.904
X-10.491 Y8.517
X-9.969 Y8.157
X-9.429 Y7.824
X-8.873 Y7.519
X-8.302 Y7.242
X-7.718 Y6.995
X-7.122 Y6.778
X-6.515 Y6.592
X-5.899 Y6.441
X-5.275 Y6.328
X-4.644 Y6.255
X-4.011 Y6.225
X-3.454 Y6.241
X-2.967 Y6.295
X-2.6 Y6.365
X-2.305 Y6.447
X-2.086 Y6.527
X-1.971 Y6.579
X-1.799 Y6.691
X-1.664 Y6.846
X-1.579 Y7.033
X-1.55 Y7.236
Y8.383
G3 X-2.12 Y8.541 I-0.31 J-0.011
G1 X-2.158 Y8.483 Z-0.613
X-2.193 Y8.428 Z-0.59
X-2.225 Y8.378 Z-0.553
X-2.252 Y8.337 Z-0.504
X-2.272 Y8.306 Z-0.445
X-2.284 Y8.287 Z-0.38
X-2.288 Y8.28 Z-0.311
G0 Z-0.001
X-11.709 Y20.631
G1 Z-0.311 F1000
X-11.716 Y20.635 Z-0.38
X-11.736 Y20.647 Z-0.445
X-11.767 Y20.665 Z-0.504
X-11.81 Y20.69 Z-0.553
X-11.86 Y20.72 Z-0.59
X-11.917 Y20.754 Z-0.613
X-11.976 Y20.789 Z-0.621
G3 X-12.73 Y21.009 I-0.807 J-1.361
G1 X-13.818 Y21.008
X-13.968 Y21
X-14.115 Y20.97
X-14.258 Y20.925
X-14.397 Y20.866
X-14.539 Y20.793
X-14.694 Y20.695
X-14.849 Y20.579
X-15.019 Y20.43
X-15.183 Y20.261
X-15.362 Y20.044
X-15.527 Y19.807
X-15.696 Y19.516
X-15.858 Y19.178
X-16 Y18.811
X-16.131 Y18.366
X-16.238 Y17.854
X-16.306 Y17.324
X-16.334 Y16.715
X-16.312 Y16.081
X-16.243 Y15.451
X-16.129 Y14.826
X-15.976 Y14.211
X-15.785 Y13.606
X-15.559 Y13.013
X-15.3 Y12.434
X-15.01 Y11.87
X-14.691 Y11.321
X-14.344 Y10.79
X-13.972 Y10.276
X-13.575 Y9.781
X-13.156 Y9.305
X-12.714 Y8.849
X-12.252 Y8.415
X-11.77 Y8.002
X-11.269 Y7.613
X-10.751 Y7.247
X-10.216 Y6.906
X-9.665 Y6.591
X-9.1 Y6.302
X-8.523 Y6.04
X-7.933 Y5.805
X-7.333 Y5.598
X-6.724 Y5.421
X-6.107 Y5.276
X-5.482 Y5.165
X-4.852 Y5.089
X-4.219 Y5.053
X-3.617 Y5.063
X-3.084 Y5.115
X-2.682 Y5.187
X-2.363 Y5.271
X-2.132 Y5.353
X-1.979 Y5.42
X-1.804 Y5.531
X-1.667 Y5.687
X-1.58 Y5.876
X-1.55 Y6.081
Y7.236
G3 X-2.12 Y7.394 I-0.31 J-0.011
G1 X-2.158 Y7.336 Z-0.613
X-2.193 Y7.281 Z-0.59
X-2.225 Y7.231 Z-0.553
X-2.252 Y7.19 Z-0.504
X-2.272 Y7.159 Z-0.445
X-2.284 Y7.14 Z-0.38
X-2.288 Y7.133 Z-0.311
G0 Z-0.001
X-12.797 Y20.63
G1 Z-0.311 F1000
X-12.804 Y20.633 Z-0.38
X-12.824 Y20.645 Z-0.445
X-12.856 Y20.664 Z-0.504
X-12.898 Y20.689 Z-0.553
X-12.948 Y20.719 Z-0.59
X-13.005 Y20.752 Z-0.613
X-13.064 Y20.788 Z-0.621
G3 X-13.818 Y21.008 I-0.807 J-1.361
G1 X-14.827 Y21.007
X-14.977 Y20.999
X-15.125 Y20.976
X-15.27 Y20.936
X-15.41 Y20.883
X-15.556 Y20.813
X-15.706 Y20.726
X-15.867 Y20.613
X-16.033 Y20.477
X-16.209 Y20.307
X-16.379 Y20.114
X-16.564 Y19.866
X-16.732 Y19.599
X-16.907 Y19.262
X-17.07 Y18.878
X-17.208 Y18.46
X-17.331 Y17.958
X-17.422 Y17.387
X-17.471 Y16.767
Y16.133
X-17.422 Y15.5
X-17.33 Y14.873
X-17.2 Y14.252
X-17.033 Y13.64
X-16.833 Y13.037
X-16.602 Y12.447
X-16.341 Y11.868
X-16.052 Y11.304
X-15.736 Y10.754
X-15.395 Y10.219
X-15.029 Y9.7
X-14.641 Y9.198
X-14.23 Y8.715
X-13.799 Y8.249
X-13.348 Y7.803
X-12.878 Y7.377
X-12.39 Y6.971
X-11.886 Y6.587
X-11.365 Y6.224
X-10.829 Y5.884
X-10.28 Y5.568
X-9.717 Y5.275
X-9.142 Y5.006
X-8.556 Y4.764
X-7.959 Y4.548
X-7.353 Y4.359
X-6.74 Y4.199
X-6.119 Y4.069
X-5.492 Y3.97
X-4.861 Y3.905
X-4.227 Y3.878
X-3.598 Y3.895
X-3.063 Y3.953
X-2.664 Y4.029
X-2.34 Y4.117
X-2.114 Y4.2
X-1.973 Y4.264
X-1.8 Y4.375
X-1.665 Y4.531
X-1.579 Y4.718
X-1.55 Y4.922
Y6.081
G3 X-2.12 Y6.239 I-0.31 J-0.011
G1 X-2.158 Y6.181 Z-0.613
X-2.193 Y6.126 Z-0.59
X-2.225 Y6.076 Z-0.553
X-2.252 Y6.035 Z-0.504
X-2.272 Y6.004 Z-0.445
X-2.284 Y5.985 Z-0.38
X-2.288 Y5.978 Z-0.311
G0 Z-0.001
X-13.807 Y20.628
G1 Z-0.311 F1000
X-13.813 Y20.632 Z-0.38
X-13.833 Y20.644 Z-0.445
X-13.865 Y20.663 Z-0.504
X-13.907 Y20.688 Z-0.553
X-13.957 Y20.718 Z-0.59
X-14.014 Y20.751 Z-0.613
X-14.073 Y20.786 Z-0.621
G3 X-14.827 Y21.007 I-0.807 J-1.361
G1 X-15.901 Y21.005
X-16.051 Y20.998
X-16.199 Y20.975
X-16.344 Y20.935
X-16.484 Y20.883
X-16.633 Y20.812
X-16.783 Y20.725
X-16.952 Y20.609
X-17.117 Y20.474
X-17.3 Y20.298
X-17.477 Y20.099
X-17.661 Y19.855
X-17.845 Y19.565
X-18.017 Y19.237
X-18.192 Y18.83
X-18.342 Y18.383
X-18.468 Y17.875
X-18.565 Y17.289
X-18.617 Y16.657
X-18.621 Y16.023
X-18.58 Y15.39
X-18.5 Y14.76
X-18.382 Y14.137
X-18.229 Y13.521
X-18.044 Y12.914
X-17.829 Y12.317
X-17.586 Y11.731
X-17.316 Y11.157
X-17.02 Y10.596
X-16.7 Y10.048
X-16.357 Y9.514
X-15.992 Y8.996
X-15.606 Y8.493
X-15.199 Y8.006
X-14.773 Y7.536
X-14.327 Y7.084
X-13.864 Y6.65
X-13.384 Y6.236
X-12.887 Y5.841
X-12.376 Y5.466
X-11.849 Y5.112
X-11.31 Y4.778
X-10.757 Y4.466
X-10.193 Y4.176
X-9.617 Y3.91
X-9.031 Y3.666
X-8.436 Y3.447
X-7.832 Y3.253
X-7.22 Y3.086
X-6.601 Y2.947
X-5.976 Y2.837
X-5.347 Y2.757
X-4.714 Y2.711
X-4.079 Y2.702
X-3.449 Y2.736
X-2.948 Y2.803
X-2.572 Y2.885
X-2.266 Y2.977
X-2.05 Y3.062
X-1.955 Y3.108
X-1.789 Y3.221
X-1.66 Y3.375
X-1.578 Y3.559
X-1.55 Y3.758
Y4.922
G3 X-2.12 Y5.079 I-0.31 J-0.011
G1 X-2.158 Y5.021 Z-0.613
X-2.193 Y4.966 Z-0.59
X-2.225 Y4.917 Z-0.553
X-2.252 Y4.876 Z-0.504
X-2.272 Y4.845 Z-0.445
X-2.284 Y4.825 Z-0.38
X-2.288 Y4.819 Z-0.311
G0 Z-0.001
X-14.88 Y20.627
G1 Z-0.311 F1000
X-14.887 Y20.631 Z-0.38
X-14.907 Y20.643 Z-0.445
X-14.939 Y20.661 Z-0.504
X-14.981 Y20.687 Z-0.553
X-15.031 Y20.716 Z-0.59
X-15.088 Y20.75 Z-0.613
X-15.147 Y20.785 Z-0.621
G3 X-15.901 Y21.005 I-0.807 J-1.361
G1 X-16.989 Y21.004
X-17.139 Y20.996
X-17.287 Y20.973
X-17.432 Y20.934
X-17.572 Y20.882
X-17.726 Y20.809
X-17.878 Y20.722
X-18.05 Y20.604
X-18.217 Y20.469
X-18.406 Y20.288
X-18.584 Y20.088
X-18.778 Y19.832
X-18.964 Y19.54
X-19.145 Y19.199
X-19.327 Y18.777
X-19.479 Y18.327
X-19.612 Y17.796
X-19.715 Y17.186
X-19.769 Y16.554
X-19.777 Y15.92
X-19.743 Y15.286
X-19.672 Y14.656
X-19.566 Y14.03
X-19.426 Y13.412
X-19.254 Y12.801
X-19.054 Y12.199
X-18.827 Y11.606
X-18.574 Y11.025
X-18.296 Y10.454
X-17.996 Y9.895
X-17.673 Y9.349
X-17.329 Y8.816
X-16.964 Y8.297
X-16.579 Y7.793
X-16.176 Y7.303
X-15.754 Y6.829
X-15.314 Y6.372
X-14.857 Y5.932
X-14.384 Y5.51
X-13.895 Y5.105
X-13.391 Y4.719
X-12.874 Y4.352
X-12.343 Y4.004
X-11.8 Y3.676
X-11.246 Y3.368
X-10.68 Y3.081
X-10.104 Y2.814
X-9.519 Y2.57
X-8.924 Y2.348
X-8.322 Y2.15
X-7.712 Y1.976
X-7.095 Y1.828
X-6.472 Y1.707
X-5.844 Y1.615
X-5.686 Y1.599
X-5.44 Y1.578
X-5.075 Y1.551
X-5.04 Y1.55
X-4.081
X-3.447 Y1.582
X-2.946 Y1.646
X-2.581 Y1.723
X-2.276 Y1.814
X-2.059 Y1.898
X-1.959 Y1.946
X-1.791 Y2.058
X-1.661 Y2.213
X-1.578 Y2.397
X-1.55 Y2.598
G3 X-1.957 Y2.881 I-0.31 J-0.011
G1 X-2.157 Y2.815
X-4.167 Y2.154
G3 X-4.081 Y1.55 I0.097 J-0.294
G1 X-1.919
X-1.847 Y1.551
X-1.811 Y1.557
X-1.775 Y1.567
X-1.748 Y1.577
X-1.721 Y1.591
X-1.694 Y1.609
X-1.667 Y1.63
X-1.63 Y1.669
X-1.593 Y1.722
X-1.579 Y1.748
X-1.568 Y1.775
X-1.558 Y1.811
X-1.552 Y1.847
X-1.55 Y1.919
Y3.758
G3 X-2.12 Y3.915 I-0.31 J-0.011
G1 X-2.158 Y3.858 Z-0.613
X-2.193 Y3.802 Z-0.59
X-2.225 Y3.753 Z-0.553
X-2.252 Y3.712 Z-0.504
X-2.272 Y3.681 Z-0.445
X-2.284 Y3.662 Z-0.38
X-2.288 Y3.655 Z-0.311
G0 Z-0.001
X-15.969 Y20.626
G1 Z-0.311 F1000
X-15.975 Y20.63 Z-0.38
X-15.995 Y20.641 Z-0.445
X-16.027 Y20.66 Z-0.504
X-16.069 Y20.685 Z-0.553
X-16.12 Y20.715 Z-0.59
X-16.176 Y20.749 Z-0.613
X-16.235 Y20.784 Z-0.621
G3 X-16.989 Y21.004 I-0.807 J-1.361
G1 X-18.063 Y21.003
X-18.213 Y20.995
X-18.362 Y20.975
X-18.507 Y20.938
X-18.648 Y20.889
X-18.801 Y20.82
X-18.954 Y20.736
X-19.125 Y20.622
X-19.296 Y20.489
X-19.484 Y20.315
X-19.669 Y20.115
X-19.87 Y19.859
X-20.053 Y19.581
X-20.247 Y19.23
X-20.43 Y18.824
X-20.593 Y18.369
X-20.74 Y17.825
X-20.855 Y17.204
X-20.92 Y16.573
X-20.94 Y15.939
X-20.92 Y15.305
X-20.863 Y14.673
X-20.771 Y14.045
X-20.647 Y13.423
X-20.493 Y12.807
X-20.312 Y12.199
X-20.104 Y11.6
X-19.871 Y11.01
X-19.615 Y10.43
X-19.336 Y9.86
X-19.035 Y9.301
X-18.714 Y8.754
X-18.372 Y8.219
X-18.012 Y7.697
X-17.633 Y7.189
X-17.235 Y6.694
X-16.82 Y6.215
X-16.387 Y5.75
X-15.939 Y5.302
X-15.474 Y4.869
X-14.995 Y4.454
X-14.502 Y4.055
X-13.995 Y3.673
X-13.476 Y3.309
X-12.944 Y2.963
X-12.401 Y2.635
X-11.846 Y2.326
X-11.282 Y2.037
X-10.708 Y1.767
X-10.455 Y1.658
X-10.317 Y1.602
X-10.23 Y1.573
X-10.14 Y1.556
X-10.048 Y1.55
X-5.955
G3 X-5.798 Y2.12 I-0.011 J0.31
G1 X-5.856 Y2.158 Z-0.613
X-5.911 Y2.193 Z-0.59
X-5.96 Y2.225 Z-0.553
X-6.001 Y2.252 Z-0.504
X-6.032 Y2.272 Z-0.445
X-6.051 Y2.284 Z-0.38
X-6.058 Y2.288 Z-0.311
G0 Z-0.001
X-17.043 Y20.624
G1 Z-0.311 F1000
X-17.049 Y20.628 Z-0.38
X-17.069 Y20.64 Z-0.445
X-17.101 Y20.659 Z-0.504
X-17.143 Y20.684 Z-0.553
X-17.194 Y20.714 Z-0.59
X-17.25 Y20.747 Z-0.613
X-17.309 Y20.782 Z-0.621
G3 X-18.063 Y21.003 I-0.807 J-1.361
G1 X-19.216 Y21.001
X-19.366 Y20.994
X-19.514 Y20.968
X-19.658 Y20.927
X-19.8 Y20.873
X-19.954 Y20.8
X-20.113 Y20.707
X-20.29 Y20.585
X-20.466 Y20.441
X-20.659 Y20.255
X-20.849 Y20.04
X-21.046 Y19.778
X-21.248 Y19.46
X-21.434 Y19.104
X-21.626 Y18.655
X-21.794 Y18.153
X-21.933 Y17.589
X-22.036 Y16.963
X-22.091 Y16.331
X-22.104 Y15.697
X-22.08 Y15.063
X-22.021 Y14.431
X-21.93 Y13.803
X-21.809 Y13.18
X-21.661 Y12.563
X-21.486 Y11.954
X-21.286 Y11.351
X-21.062 Y10.758
X-20.816 Y10.173
X-20.547 Y9.599
X-20.258 Y9.034
X-19.949 Y8.48
X-19.62 Y7.937
X-19.273 Y7.406
X-18.909 Y6.887
X-18.526 Y6.38
X-18.127 Y5.887
X-17.711 Y5.408
X-17.28 Y4.943
X-16.833 Y4.493
X-16.371 Y4.057
X-15.896 Y3.637
X-15.407 Y3.233
X-14.905 Y2.846
X-14.39 Y2.475
X-13.864 Y2.12
X-13.326 Y1.783
X-13.089 Y1.645
X-12.976 Y1.593
X-12.855 Y1.561
X-12.73 Y1.55
X-10.741
G3 X-10.584 Y2.12 I-0.011 J0.31
G1 X-10.642 Y2.158 Z-0.613
X-10.697 Y2.193 Z-0.59
X-10.746 Y2.225 Z-0.553
X-10.787 Y2.252 Z-0.504
X-10.818 Y2.272 Z-0.445
X-10.837 Y2.284 Z-0.38
X-10.844 Y2.288 Z-0.311
G0 Z-0.001
X-18.196 Y20.623
G1 Z-0.311 F1000
X-18.202 Y20.627 Z-0.38
X-18.222 Y20.639 Z-0.445
X-18.254 Y20.657 Z-0.504
X-18.296 Y20.682 Z-0.553
X-18.347 Y20.712 Z-0.59
X-18.403 Y20.746 Z-0.613
X-18.462 Y20.781 Z-0.621
G3 X-19.216 Y21.001 I-0.807 J-1.361
G1 X-20.305 Y21
X-20.454 Y20.992
X-20.603 Y20.97
X-20.748 Y20.933
X-20.889 Y20.882
X-21.041 Y20.813
X-21.205 Y20.723
X-21.375 Y20.61
X-21.557 Y20.466
X-21.744 Y20.293
X-21.942 Y20.077
X-22.144 Y19.819
X-22.343 Y19.517
X-22.551 Y19.137
X-22.733 Y18.731
X-22.91 Y18.234
X-23.066 Y17.652
X-23.18 Y17.028
X-23.247 Y16.398
X-23.274 Y15.764
X-23.264 Y15.129
X-23.219 Y14.497
X-23.143 Y13.867
X-23.037 Y13.241
X-22.905 Y12.621
X-22.747 Y12.006
X-22.565 Y11.398
X-22.359 Y10.798
X-22.132 Y10.206
X-21.883 Y9.622
X-21.614 Y9.048
X-21.326 Y8.483
X-21.019 Y7.927
X-20.693 Y7.383
X-20.351 Y6.849
X-19.991 Y6.326
X-19.614 Y5.816
X-19.221 Y5.318
X-18.812 Y4.833
X-18.388 Y4.361
X-17.949 Y3.903
X-17.497 Y3.458
X-17.03 Y3.028
X-16.551 Y2.613
X-16.059 Y2.212
X-15.555 Y1.827
X-15.351 Y1.681
X-15.223 Y1.609
X-15.082 Y1.565
X-14.936 Y1.55
X-13.407
G3 X-13.25 Y2.12 I-0.011 J0.31
G1 X-13.307 Y2.158 Z-0.613
X-13.363 Y2.193 Z-0.59
X-13.412 Y2.225 Z-0.553
X-13.453 Y2.252 Z-0.504
X-13.484 Y2.272 Z-0.445
X-13.503 Y2.284 Z-0.38
X-13.51 Y2.288 Z-0.311
G0 Z-0.001
X-19.284 Y20.622
G1 Z-0.311 F1000
X-19.291 Y20.626 Z-0.38
X-19.31 Y20.637 Z-0.445
X-19.342 Y20.656 Z-0.504
X-19.384 Y20.681 Z-0.553
X-19.435 Y20.711 Z-0.59
X-19.491 Y20.744 Z-0.613
X-19.551 Y20.78 Z-0.621
G3 X-20.305 Y21 I-0.807 J-1.361
G1 X-21.458 Y20.999
X-21.607 Y20.991
X-21.755 Y20.966
X-21.9 Y20.925
X-22.04 Y20.873
X-22.201 Y20.797
X-22.36 Y20.706
X-22.544 Y20.58
X-22.723 Y20.435
X-22.925 Y20.244
X-23.115 Y20.031
X-23.327 Y19.751
X-23.524 Y19.443
X-23.729 Y19.057
X-23.93 Y18.592
X-24.102 Y18.089
X-24.255 Y17.481
X-24.361 Y16.856
X-24.423 Y16.224
X-24.446 Y15.59
X-24.435 Y14.956
X-24.391 Y14.323
X-24.318 Y13.693
X-24.217 Y13.067
X-24.091 Y12.445
X-23.94 Y11.829
X-23.766 Y11.219
X-23.569 Y10.615
X-23.351 Y10.02
X-23.112 Y9.432
X-22.854 Y8.852
X-22.578 Y8.281
X-22.283 Y7.72
X-21.971 Y7.167
X-21.641 Y6.625
X-21.295 Y6.093
X-20.933 Y5.572
X-20.556 Y5.062
X-20.163 Y4.564
X-19.755 Y4.078
X-19.333 Y3.605
X-18.897 Y3.144
X-18.447 Y2.696
X-17.985 Y2.261
X-17.51 Y1.841
X-17.362 Y1.718
X-17.222 Y1.626
X-17.065 Y1.569
X-16.899 Y1.55
X-14.936
G3 X-14.778 Y2.12 I-0.011 J0.31
G1 X-14.836 Y2.158 Z-0.613
X-14.891 Y2.193 Z-0.59
X-14.941 Y2.225 Z-0.553
X-14.982 Y2.252 Z-0.504
X-15.013 Y2.272 Z-0.445
X-15.032 Y2.284 Z-0.38
X-15.039 Y2.288 Z-0.311
G0 Z-0.001
X-20.437 Y20.62
G1 Z-0.311 F1000
X-20.444 Y20.624 Z-0.38
X-20.464 Y20.636 Z-0.445
X-20.495 Y20.655 Z-0.504
X-20.538 Y20.68 Z-0.553
X-20.588 Y20.71 Z-0.59
X-20.645 Y20.743 Z-0.613
X-20.704 Y20.778 Z-0.621
G3 X-21.458 Y20.999 I-0.807 J-1.361
G1 X-22.611 Y20.997
X-22.761 Y20.99
X-22.908 Y20.962
X-23.052 Y20.92
X-23.194 Y20.865
X-23.355 Y20.788
X-23.519 Y20.692
X-23.7 Y20.566
X-23.887 Y20.412
X-24.085 Y20.219
X-24.288 Y19.989
X-24.503 Y19.7
X-24.702 Y19.383
X-24.915 Y18.973
X-25.11 Y18.512
X-25.285 Y17.98
X-25.435 Y17.364
X-25.537 Y16.737
X-25.598 Y16.106
X-25.621 Y15.472
X-25.611 Y14.838
X-25.571 Y14.204
X-25.503 Y13.574
X-25.409 Y12.946
X-25.29 Y12.323
X-25.147 Y11.705
X-24.982 Y11.092
X-24.794 Y10.486
X-24.586 Y9.887
X-24.359 Y9.295
X-24.112 Y8.71
X-23.848 Y8.133
X-23.566 Y7.565
X-23.267 Y7.006
X-22.951 Y6.455
X-22.62 Y5.914
X-22.273 Y5.383
X-21.91 Y4.862
X-21.533 Y4.352
X-21.142 Y3.853
X-20.736 Y3.365
X-20.317 Y2.889
X-19.885 Y2.425
X-19.439 Y1.973
X-19.2 Y1.744
X-19.054 Y1.639
X-18.886 Y1.573
X-18.707 Y1.55
X-16.899
G3 X-16.742 Y2.12 I-0.011 J0.31
G1 X-16.8 Y2.158 Z-0.613
X-16.855 Y2.193 Z-0.59
X-16.904 Y2.225 Z-0.553
X-16.945 Y2.252 Z-0.504
X-16.976 Y2.272 Z-0.445
X-16.996 Y2.284 Z-0.38
X-17.002 Y2.288 Z-0.311
G0 Z-0.001
X-21.59 Y20.619
G1 Z-0.311 F1000
X-21.597 Y20.623 Z-0.38
X-21.617 Y20.634 Z-0.445
X-21.649 Y20.653 Z-0.504
X-21.691 Y20.678 Z-0.553
X-21.741 Y20.708 Z-0.59
X-21.798 Y20.742 Z-0.613
X-21.857 Y20.777 Z-0.621
G3 X-22.611 Y20.997 I-0.807 J-1.361
G1 X-23.685 Y20.996
X-23.835 Y20.988
X-23.983 Y20.968
X-24.129 Y20.933
X-24.277 Y20.882
X-24.424 Y20.818
X-24.594 Y20.727
X-24.762 Y20.619
X-24.954 Y20.473
X-25.142 Y20.303
X-25.353 Y20.081
X-25.552 Y19.834
X-25.772 Y19.511
X-25.974 Y19.154
X-26.179 Y18.716
X-26.375 Y18.191
X-26.548 Y17.581
X-26.671 Y16.959
X-26.751 Y16.33
X-26.794 Y15.697
X-26.802 Y15.062
X-26.779 Y14.428
X-26.729 Y13.796
X-26.653 Y13.166
X-26.552 Y12.54
X-26.428 Y11.917
X-26.282 Y11.3
X-26.115 Y10.688
X-25.927 Y10.082
X-25.72 Y9.482
X-25.495 Y8.889
X-25.251 Y8.303
X-24.991 Y7.725
X-24.713 Y7.154
X-24.419 Y6.592
X-24.11 Y6.038
X-23.784 Y5.494
X-23.444 Y4.958
X-23.089 Y4.433
X-22.719 Y3.917
X-22.336 Y3.411
X-21.939 Y2.916
X-21.529 Y2.432
X-21.106 Y1.959
X-20.935 Y1.777
X-20.783 Y1.654
X-20.603 Y1.577
X-20.409 Y1.55
X-18.707
G3 X-18.55 Y2.12 I-0.011 J0.31
G1 X-18.608 Y2.158 Z-0.613
X-18.663 Y2.193 Z-0.59
X-18.712 Y2.225 Z-0.553
X-18.753 Y2.252 Z-0.504
X-18.784 Y2.272 Z-0.445
X-18.804 Y2.284 Z-0.38
X-18.81 Y2.288 Z-0.311
G0 Z-0.001
X-22.664 Y20.617
G1 Z-0.311 F1000
X-22.671 Y20.621 Z-0.38
X-22.691 Y20.633 Z-0.445
X-22.722 Y20.652 Z-0.504
X-22.765 Y20.677 Z-0.553
X-22.815 Y20.707 Z-0.59
X-22.872 Y20.74 Z-0.613
X-22.931 Y20.776 Z-0.621
G3 X-23.685 Y20.996 I-0.807 J-1.361
G1 X-24.838 Y20.995
X-24.988 Y20.987
X-25.136 Y20.966
X-25.282 Y20.93
X-25.424 Y20.881
X-25.585 Y20.81
X-25.746 Y20.723
X-25.928 Y20.604
X-26.109 Y20.465
X-26.311 Y20.281
X-26.509 Y20.071
X-26.73 Y19.794
X-26.934 Y19.491
X-27.157 Y19.095
X-27.363 Y18.65
X-27.554 Y18.129
X-27.724 Y17.517
X-27.847 Y16.895
X-27.927 Y16.266
X-27.971 Y15.633
X-27.983 Y14.998
X-27.966 Y14.364
X-27.921 Y13.731
X-27.851 Y13.101
X-27.758 Y12.473
X-27.642 Y11.849
X-27.505 Y11.23
X-27.346 Y10.616
X-27.169 Y10.007
X-26.972 Y9.403
X-26.757 Y8.806
X-26.525 Y8.216
X-26.276 Y7.632
X-26.011 Y7.056
X-25.73 Y6.487
X-25.434 Y5.926
X-25.122 Y5.374
X-24.796 Y4.83
X-24.455 Y4.294
X-24.101 Y3.768
X-23.733 Y3.251
X-23.352 Y2.744
X-22.957 Y2.247
X-22.592 Y1.81
X-22.435 Y1.67
X-22.245 Y1.581
X-22.037 Y1.55
X-20.409
G3 X-20.251 Y2.12 I-0.011 J0.31
G1 X-20.309 Y2.158 Z-0.613
X-20.364 Y2.193 Z-0.59
X-20.414 Y2.225 Z-0.553
X-20.455 Y2.252 Z-0.504
X-20.486 Y2.272 Z-0.445
X-20.505 Y2.284 Z-0.38
X-20.512 Y2.288 Z-0.311
G0 Z-0.001
X-23.817 Y20.616
G1 Z-0.311 F1000
X-23.824 Y20.62 Z-0.38
X-23.844 Y20.632 Z-0.445
X-23.876 Y20.651 Z-0.504
X-23.918 Y20.676 Z-0.553
X-23.968 Y20.706 Z-0.59
X-24.025 Y20.739 Z-0.613
X-24.084 Y20.774 Z-0.621
G3 X-24.838 Y20.995 I-0.807 J-1.361
G1 X-25.991 Y20.994
X-26.141 Y20.986
X-26.289 Y20.965
X-26.435 Y20.928
X-26.576 Y20.879
X-26.737 Y20.808
X-26.899 Y20.72
X-27.08 Y20.602
X-27.269 Y20.456
X-27.469 Y20.275
X-27.674 Y20.055
X-27.893 Y19.781
X-28.102 Y19.47
X-28.328 Y19.067
X-28.532 Y18.625
X-28.728 Y18.09
X-28.898 Y17.479
X-29.021 Y16.856
X-29.103 Y16.227
X-29.151 Y15.595
X-29.167 Y14.96
X-29.155 Y14.326
X-29.117 Y13.693
X-29.054 Y13.061
X-28.968 Y12.433
X-28.86 Y11.808
X-28.731 Y11.187
X-28.582 Y10.57
X-28.414 Y9.958
X-28.227 Y9.352
X-28.023 Y8.751
X-27.802 Y8.156
X-27.565 Y7.568
X-27.312 Y6.986
X-27.044 Y6.411
X-26.76 Y5.844
X-26.462 Y5.284
X-26.15 Y4.731
X-25.823 Y4.187
X-25.483 Y3.652
X-25.13 Y3.125
X-24.764 Y2.607
X-24.385 Y2.098
X-24.17 Y1.825
X-24.012 Y1.677
X-23.817 Y1.583
X-23.602 Y1.55
X-22.037
G3 X-21.88 Y2.12 I-0.011 J0.31
G1 X-21.938 Y2.158 Z-0.613
X-21.993 Y2.193 Z-0.59
X-22.042 Y2.225 Z-0.553
X-22.083 Y2.252 Z-0.504
X-22.114 Y2.272 Z-0.445
X-22.134 Y2.284 Z-0.38
X-22.14 Y2.288 Z-0.311
G0 Z-0.001
X-24.971 Y20.613
G1 Z-0.311 F1000
X-24.978 Y20.617 Z-0.38
X-24.998 Y20.629 Z-0.445
X-25.029 Y20.648 Z-0.504
X-25.072 Y20.673 Z-0.553
X-25.122 Y20.703 Z-0.59
X-25.178 Y20.737 Z-0.613
X-25.238 Y20.772 Z-0.621
G3 X-25.991 Y20.994 I-0.81 J-1.36
G1 X-27.144
X-27.294 Y20.987
X-27.442 Y20.965
X-27.588 Y20.928
X-27.73 Y20.879
X-27.889 Y20.809
X-28.055 Y20.719
X-28.235 Y20.602
X-28.428 Y20.453
X-28.627 Y20.272
X-28.836 Y20.05
X-29.053 Y19.777
X-29.267 Y19.46
X-29.496 Y19.053
X-29.701 Y18.608
X-29.901 Y18.062
X-30.071 Y17.451
X-30.196 Y16.829
X-30.281 Y16.2
X-30.332 Y15.568
X-30.353 Y14.934
X-30.346 Y14.299
X-30.314 Y13.666
X-30.257 Y13.034
X-30.179 Y12.404
X-30.079 Y11.778
X-29.958 Y11.155
X-29.818 Y10.536
X-29.659 Y9.922
X-29.482 Y9.313
X-29.288 Y8.708
X-29.078 Y8.11
X-28.852 Y7.517
X-28.61 Y6.93
X-28.353 Y6.35
X-28.082 Y5.777
X-27.797 Y5.21
X-27.497 Y4.651
X-27.184 Y4.099
X-26.858 Y3.555
X-26.519 Y3.019
X-26.167 Y2.491
X-25.802 Y1.972
X-25.69 Y1.828
X-25.532 Y1.678
X-25.336 Y1.583
X-25.12 Y1.55
X-23.602
G3 X-23.445 Y2.12 I-0.011 J0.31
G1 X-23.503 Y2.158 Z-0.613
X-23.558 Y2.193 Z-0.59
X-23.607 Y2.225 Z-0.553
X-23.648 Y2.252 Z-0.504
X-23.679 Y2.272 Z-0.445
X-23.699 Y2.284 Z-0.38
X-23.705 Y2.288 Z-0.311
G0 Z-0.001
X-26.124 Y20.614
G1 Z-0.311 F1000
X-26.131 Y20.618 Z-0.38
X-26.151 Y20.63 Z-0.445
X-26.183 Y20.649 Z-0.504
X-26.225 Y20.674 Z-0.553
X-26.275 Y20.704 Z-0.59
X-26.332 Y20.737 Z-0.613
X-26.391 Y20.773 Z-0.621
G3 X-27.144 Y20.994 I-0.81 J-1.36
G1 X-28.297 Y20.995
X-28.447 Y20.988
X-28.596 Y20.967
X-28.741 Y20.93
X-28.883 Y20.881
X-29.042 Y20.811
X-29.21 Y20.721
X-29.389 Y20.605
X-29.585 Y20.455
X-29.783 Y20.276
X-29.995 Y20.051
X-30.211 Y19.781
X-30.429 Y19.459
X-30.66 Y19.051
X-30.867 Y18.604
X-31.072 Y18.05
X-31.244 Y17.439
X-31.371 Y16.817
X-31.459 Y16.189
X-31.515 Y15.557
X-31.54 Y14.923
X-31.539 Y14.289
X-31.512 Y13.655
X-31.463 Y13.022
X-31.391 Y12.392
X-31.299 Y11.764
X-31.186 Y11.14
X-31.054 Y10.519
X-30.904 Y9.903
X-30.737 Y9.291
X-30.553 Y8.684
X-30.353 Y8.082
X-30.138 Y7.485
X-29.907 Y6.894
X-29.662 Y6.309
X-29.402 Y5.73
X-29.129 Y5.157
X-28.842 Y4.591
X-28.542 Y4.033
X-28.229 Y3.481
X-27.903 Y2.936
X-27.565 Y2.4
X-27.213 Y1.871
X-27.179 Y1.827
X-27.02 Y1.678
X-26.824 Y1.583
X-26.609 Y1.55
X-25.12
G3 X-24.963 Y2.12 I-0.011 J0.31
G1 X-25.021 Y2.158 Z-0.613
X-25.076 Y2.193 Z-0.59
X-25.125 Y2.225 Z-0.553
X-25.166 Y2.252 Z-0.504
X-25.197 Y2.272 Z-0.445
X-25.217 Y2.284 Z-0.38
X-25.223 Y2.288 Z-0.311
G0 Z-0.001
X-27.278 Y20.615
G1 Z-0.311 F1000
X-27.284 Y20.619 Z-0.38
X-27.304 Y20.631 Z-0.445
X-27.336 Y20.649 Z-0.504
X-27.378 Y20.675 Z-0.553
X-27.428 Y20.705 Z-0.59
X-27.485 Y20.738 Z-0.613
X-27.544 Y20.773 Z-0.621
G3 X-28.297 Y20.995 I-0.81 J-1.36
G1 X-29.451 Y20.996
X-29.6 Y20.988
X-29.749 Y20.968
X-29.895 Y20.932
X-30.037 Y20.884
X-30.195 Y20.815
X-30.364 Y20.725
X-30.543 Y20.61
X-30.74 Y20.46
X-30.938 Y20.283
X-31.152 Y20.058
X-31.368 Y19.79
X-31.59 Y19.466
X-31.822 Y19.058
X-32.032 Y18.61
X-32.242 Y18.051
X-32.416 Y17.441
X-32.546 Y16.82
X-32.638 Y16.192
X-32.698 Y15.56
X-32.728 Y14.927
X-32.732 Y14.292
X-32.712 Y13.658
X-32.669 Y13.025
X-32.604 Y12.394
X-32.519 Y11.765
X-32.415 Y11.14
X-32.291 Y10.517
X-32.15 Y9.899
X-31.992 Y9.284
X-31.818 Y8.674
X-31.627 Y8.069
X-31.422 Y7.469
X-31.202 Y6.874
X-30.968 Y6.284
X-30.72 Y5.7
X-30.458 Y5.122
X-30.183 Y4.551
X-29.895 Y3.985
X-29.595 Y3.427
X-29.282 Y2.875
X-28.956 Y2.33
X-28.676 Y1.886
X-28.64 Y1.839
X-28.48 Y1.684
X-28.281 Y1.584
X-28.062 Y1.55
X-26.609
G3 X-26.452 Y2.12 I-0.011 J0.31
G1 X-26.51 Y2.158 Z-0.613
X-26.565 Y2.193 Z-0.59
X-26.614 Y2.225 Z-0.553
X-26.656 Y2.252 Z-0.504
X-26.687 Y2.272 Z-0.445
X-26.706 Y2.284 Z-0.38
X-26.712 Y2.288 Z-0.311
G0 Z-0.001
X-28.431 Y20.616
G1 Z-0.311 F1000
X-28.437 Y20.619 Z-0.38
X-28.457 Y20.631 Z-0.445
X-28.489 Y20.65 Z-0.504
X-28.531 Y20.675 Z-0.553
X-28.582 Y20.705 Z-0.59
X-28.638 Y20.739 Z-0.613
X-28.697 Y20.774 Z-0.621
G3 X-29.451 Y20.996 I-0.81 J-1.36
G1 X-30.604 Y20.997
X-30.754 Y20.989
X-30.902 Y20.97
X-31.048 Y20.935
X-31.19 Y20.887
X-31.349 Y20.819
X-31.518 Y20.731
X-31.697 Y20.617
X-31.894 Y20.469
X-32.092 Y20.293
X-32.307 Y20.07
X-32.524 Y19.804
X-32.748 Y19.48
X-32.982 Y19.075
X-33.195 Y18.627
X-33.409 Y18.065
X-33.586 Y17.456
X-33.72 Y16.836
X-33.817 Y16.209
X-33.881 Y15.577
X-33.917 Y14.944
X-33.927 Y14.31
X-33.912 Y13.675
X-33.876 Y13.042
X-33.818 Y12.41
X-33.741 Y11.78
X-33.644 Y11.153
X-33.528 Y10.53
X-33.396 Y9.909
X-33.246 Y9.293
X-33.081 Y8.68
X-32.901 Y8.072
X-32.706 Y7.468
X-32.496 Y6.869
X-32.272 Y6.276
X-32.035 Y5.687
X-31.784 Y5.104
X-31.521 Y4.527
X-31.245 Y3.956
X-30.956 Y3.391
X-30.655 Y2.833
X-30.342 Y2.281
X-30.101 Y1.887
X-30.071 Y1.847
X-29.911 Y1.687
X-29.71 Y1.585
X-29.487 Y1.55
X-28.062
G3 X-27.904 Y2.12 I-0.011 J0.31
G1 X-27.962 Y2.158 Z-0.613
X-28.017 Y2.193 Z-0.59
X-28.067 Y2.225 Z-0.553
X-28.108 Y2.252 Z-0.504
X-28.139 Y2.272 Z-0.445
X-28.158 Y2.284 Z-0.38
X-28.165 Y2.288 Z-0.311
G0 Z-0.001
X-29.584 Y20.616
G1 Z-0.311 F1000
X-29.591 Y20.62 Z-0.38
X-29.61 Y20.632 Z-0.445
X-29.642 Y20.651 Z-0.504
X-29.684 Y20.676 Z-0.553
X-29.735 Y20.706 Z-0.59
X-29.791 Y20.74 Z-0.613
X-29.85 Y20.775 Z-0.621
G3 X-30.604 Y20.997 I-0.81 J-1.36
G1 X-31.757
X-31.919 Y20.989
X-32.068 Y20.97
X-32.213 Y20.935
X-32.356 Y20.887
X-32.516 Y20.819
X-32.684 Y20.731
X-32.865 Y20.616
X-33.061 Y20.469
X-33.263 Y20.291
X-33.477 Y20.068
X-33.697 Y19.798
X-33.921 Y19.474
X-34.159 Y19.064
X-34.375 Y18.61
X-34.591 Y18.042
X-34.769 Y17.433
X-34.904 Y16.813
X-35.002 Y16.187
X-35.069 Y15.556
X-35.108 Y14.922
X-35.121 Y14.288
X-35.111 Y13.654
X-35.079 Y13.02
X-35.027 Y12.388
X-34.955 Y11.758
X-34.864 Y11.13
X-34.756 Y10.505
X-34.631 Y9.883
X-34.489 Y9.264
X-34.331 Y8.65
X-34.159 Y8.039
X-33.972 Y7.433
X-33.771 Y6.831
X-33.556 Y6.234
X-33.328 Y5.642
X-33.087 Y5.055
X-32.834 Y4.473
X-32.568 Y3.897
X-32.29 Y3.327
X-32 Y2.763
X-31.697 Y2.206
X-31.476 Y1.846
X-31.316 Y1.687
X-31.115 Y1.585
X-30.892 Y1.55
X-29.487
G3 X-29.33 Y2.12 I-0.011 J0.31
G1 X-29.388 Y2.158 Z-0.613
X-29.443 Y2.193 Z-0.59
X-29.492 Y2.225 Z-0.553
X-29.533 Y2.252 Z-0.504
X-29.564 Y2.272 Z-0.445
X-29.584 Y2.284 Z-0.38
X-29.59 Y2.288 Z-0.311
G0 Z-0.001
X-30.737 Y20.617
G1 Z-0.311 F1000
X-30.744 Y20.621 Z-0.38
X-30.763 Y20.633 Z-0.445
X-30.795 Y20.652 Z-0.504
X-30.837 Y20.677 Z-0.553
X-30.888 Y20.707 Z-0.59
X-30.944 Y20.74 Z-0.613
X-31.003 Y20.776 Z-0.621
G3 X-31.757 Y20.997 I-0.81 J-1.36
G1 X-32.989 Y20.998
X-33.139 Y20.991
X-33.287 Y20.965
X-33.431 Y20.925
X-33.577 Y20.871
X-33.746 Y20.793
X-33.914 Y20.699
X-34.107 Y20.569
X-34.301 Y20.413
X-34.516 Y20.212
X-34.726 Y19.98
X-34.962 Y19.673
X-35.18 Y19.338
X-35.414 Y18.905
X-35.644 Y18.384
X-35.852 Y17.784
X-36.014 Y17.171
X-36.135 Y16.548
X-36.222 Y15.92
X-36.28 Y15.288
X-36.311 Y14.654
X-36.318 Y14.02
X-36.302 Y13.386
X-36.266 Y12.752
X-36.211 Y12.12
X-36.137 Y11.49
X-36.045 Y10.862
X-35.936 Y10.237
X-35.811 Y9.615
X-35.671 Y8.997
X-35.515 Y8.382
X-35.345 Y7.77
X-35.161 Y7.163
X-34.963 Y6.56
X-34.752 Y5.962
X-34.528 Y5.368
X-34.292 Y4.78
X-34.043 Y4.196
X-33.782 Y3.618
X-33.509 Y3.045
X-33.224 Y2.478
X-32.983 Y2.033
X-32.881 Y1.878
X-32.766 Y1.741
X-32.62 Y1.637
X-32.453 Y1.572
X-32.276 Y1.55
X-30.892
G3 X-30.735 Y2.12 I-0.011 J0.31
G1 X-30.793 Y2.158 Z-0.613
X-30.848 Y2.193 Z-0.59
X-30.897 Y2.225 Z-0.553
X-30.938 Y2.252 Z-0.504
X-30.969 Y2.272 Z-0.445
X-30.989 Y2.284 Z-0.38
X-30.995 Y2.288 Z-0.311
G0 Z-0.001
X-31.97 Y20.618
G1 Z-0.311 F1000
X-31.976 Y20.622 Z-0.38
X-31.996 Y20.633 Z-0.445
X-32.028 Y20.652 Z-0.504
X-32.07 Y20.677 Z-0.553
X-32.12 Y20.707 Z-0.59
X-32.177 Y20.741 Z-0.613
X-32.236 Y20.776 Z-0.621
G3 X-32.989 Y20.998 I-0.81 J-1.36
G1 X-33.342 Y21
X-33.487 Y21.001
X-33.631 Y21.008
X-33.919 Y21.055
X-34.067 Y21.08
X-34.217 Y21.073
X-34.365 Y21.05
X-34.51 Y21.013
X-34.669 Y20.958
X-34.832 Y20.885
X-35.013 Y20.788
X-35.201 Y20.666
X-35.404 Y20.509
X-35.615 Y20.317
X-35.84 Y20.077
X-36.067 Y19.792
X-36.315 Y19.424
X-36.357 Y19.35
X-36.408 Y19.237
X-36.439 Y19.118
X-36.45 Y18.995
Y8.405
X-36.426 Y7.929
X-36.349 Y7.337
X-36.216 Y6.717
X-36.047 Y6.105
X-35.852 Y5.502
X-35.638 Y4.904
X-35.407 Y4.314
X-35.162 Y3.728
X-34.904 Y3.149
X-34.632 Y2.575
X-34.376 Y2.076
X-34.261 Y1.892
X-34.146 Y1.75
X-33.998 Y1.641
X-33.828 Y1.573
X-33.647 Y1.55
G3 X-33.368 Y1.97 I-0.011 J0.31
G1 X-33.438 Y2.154
X-35.85 Y8.505
G3 X-36.45 Y8.405 I-0.29 J-0.11
G1 Y4.946
X-36.431 Y4.561
X-36.38 Y4.17
X-36.272 Y3.666
X-36.09 Y3.059
X-35.863 Y2.466
X-35.686 Y2.089
X-35.587 Y1.915
X-35.472 Y1.764
X-35.322 Y1.648
X-35.147 Y1.575
X-34.959 Y1.55
G3 X-34.68 Y1.97 I-0.011 J0.31
G1 X-34.75 Y2.154
X-35.85 Y5.045
G3 X-36.45 Y4.946 I-0.29 J-0.11
G1 Y2.351
X-36.442 Y2.198
X-36.44 Y2.179
X-36.384 Y1.979
X-36.273 Y1.804
X-36.117 Y1.667
X-35.928 Y1.58
X-35.723 Y1.55
G3 X-35.497 Y2.06 I-0.011 J0.31
G1 X-35.556 Y2.13
X-35.878 Y2.51
X-35.904 Y2.541
G3 X-36.45 Y2.351 I-0.237 J-0.2
G1 Y1.919
X-36.448 Y1.847
X-36.442 Y1.811
X-36.432 Y1.775
X-36.421 Y1.748
X-36.407 Y1.722
X-36.37 Y1.669
X-36.333 Y1.63
X-36.306 Y1.609
X-36.279 Y1.591
X-36.252 Y1.577
X-36.225 Y1.567
X-36.189 Y1.557
X-36.153 Y1.551
X-36.038 Y1.55
X-32.276
G3 X-32.118 Y2.12 I-0.011 J0.31
G1 X-32.176 Y2.158 Z-0.613
X-32.231 Y2.193 Z-0.59
X-32.281 Y2.225 Z-0.553
X-32.322 Y2.252 Z-0.504
X-32.353 Y2.272 Z-0.445
X-32.372 Y2.284 Z-0.38
X-32.379 Y2.288 Z-0.311
G0 Z-0.001
X-33.048 Y20.403
G1 Z-0.311 F1000
X-33.053 Y20.409 Z-0.38
X-33.069 Y20.426 Z-0.445
X-33.094 Y20.453 Z-0.504
X-33.127 Y20.489 Z-0.553
X-33.167 Y20.532 Z-0.59
X-33.212 Y20.58 Z-0.613
X-33.259 Y20.63 Z-0.621
G3 X-33.919 Y21.055 I-1.16 J-1.077
G1 X-33.972 Y21.071
X-34.024 Y21.09
X-34.207 Y21.168
X-34.351 Y21.255
X-34.48 Y21.332
X-34.622 Y21.38
X-34.77 Y21.407
X-34.919 Y21.415
X-35.069 Y21.408
X-35.218 Y21.387
X-35.375 Y21.351
X-35.549 Y21.297
X-35.732 Y21.223
X-35.929 Y21.125
X-36.138 Y20.998
X-36.149 Y20.99
X-36.311 Y20.83
X-36.414 Y20.628
X-36.45 Y20.403
Y19.649
G3 X-35.939 Y19.423 I0.31 J0.011
G1 X-35.87 Y19.482
X-34.532 Y20.621
X-34.347 Y20.779
G3 X-34.351 Y21.255 I-0.201 J0.236
G1 X-34.496 Y21.364
X-34.512 Y21.378
X-34.64 Y21.495
X-34.664 Y21.522
X-34.699 Y21.566
X-34.797 Y21.679
X-34.918 Y21.768
X-35.052 Y21.836
X-35.193 Y21.886
X-35.34 Y21.918
X-35.489 Y21.936
X-35.639 Y21.94
X-35.788 Y21.93
X-35.841 Y21.922
X-36.036 Y21.861
X-36.206 Y21.749
X-36.338 Y21.595
X-36.421 Y21.409
X-36.45 Y21.208
Y20.403
G3 X-35.945 Y20.173 I0.31 J0.011
G1 X-35.869 Y20.235
X-34.996 Y20.944
X-34.753 Y21.142
G3 X-34.699 Y21.566 I-0.195 J0.241
G1 X-34.784 Y21.675
X-34.866 Y21.811
X-34.928 Y21.935
X-34.937 Y21.955
X-34.953 Y21.999
X-35.009 Y22.137
X-35.108 Y22.25
X-35.224 Y22.345
X-35.354 Y22.421
X-35.492 Y22.478
X-35.546 Y22.492
X-35.764 Y22.514
X-35.978 Y22.47
X-36.17 Y22.364
X-36.32 Y22.205
X-36.417 Y22.008
X-36.45 Y21.792
G3 X-36.104 Y21.495 I0.31 J0.011
G1 X-35.833 Y21.526
X-35.451 Y21.57
X-35.213 Y21.598
G3 X-34.953 Y21.999 I-0.036 J0.308
G1 X-34.988 Y22.099
X-35.025 Y22.243
X-35.046 Y22.387
X-35.048 Y22.431
X-35.062 Y22.58
X-35.137 Y22.71
X-35.235 Y22.823
X-35.354 Y22.915
X-35.486 Y22.987
X-35.491 Y22.989
X-35.716 Y23.028
X-35.942 Y22.995
X-36.147 Y22.894
X-36.309 Y22.734
X-36.414 Y22.53
X-36.45 Y22.305
G3 X-36.096 Y22.009 I0.31 J0.011
G1 X-35.834 Y22.047
X-35.651 Y22.073
X-35.314 Y22.122
G3 X-35.048 Y22.431 I-0.044 J0.307
G1 X-35.052 Y22.532
Y22.676
X-35.047 Y22.82
X-35.049 Y22.97
X-35.094 Y23.113
X-35.171 Y23.242
X-35.274 Y23.35
X-35.395 Y23.439
X-35.406 Y23.444
X-35.605 Y23.509
X-35.814 Y23.514
X-36.016 Y23.459
X-36.193 Y23.349
X-36.332 Y23.192
X-36.42 Y23.003
X-36.45 Y22.796
G3 X-36.126 Y22.497 I0.31 J0.011
G1 X-35.831 Y22.51
X-35.676 Y22.517
X-35.342 Y22.532
G3 X-35.047 Y22.82 I-0.014 J0.31
G1 X-35.031 Y23.252
X-35.028 Y23.326
X-35.029 Y23.476
X-35.078 Y23.618
X-35.159 Y23.744
X-35.263 Y23.852
X-35.386 Y23.939
X-35.405 Y23.948
X-35.604 Y24.013
X-35.813 Y24.018
X-36.015 Y23.964
X-36.193 Y23.853
X-36.332 Y23.697
X-36.42 Y23.507
X-36.45 Y23.3
G3 X-36.125 Y23.001 I0.31 J0.011
G1 X-35.831 Y23.016
X-35.659 Y23.024
X-35.322 Y23.04
G3 X-35.028 Y23.326 I-0.015 J0.31
G1 X-35.007 Y23.8
X-35.008 Y23.95
X-35.05 Y24.093
X-35.126 Y24.223
X-35.225 Y24.335
X-35.344 Y24.427
X-35.476 Y24.499
X-35.485 Y24.502
X-35.711 Y24.544
X-35.938 Y24.512
X-36.144 Y24.411
X-36.308 Y24.251
X-36.414 Y24.047
X-36.45 Y23.82
G3 X-36.143 Y23.521 I0.31 J0.011
G1 X-35.831 Y23.519
X-35.64 Y23.517
X-35.318 Y23.515
G3 X-35.007 Y23.8 I0.002 J0.31
G1 X-34.983 Y24.305
Y24.455
X-35.023 Y24.599
X-35.096 Y24.731
X-35.193 Y24.845
X-35.309 Y24.939
X-35.439 Y25.015
X-35.472 Y25.027
X-35.699 Y25.073
X-35.929 Y25.044
X-36.138 Y24.945
X-36.305 Y24.784
X-36.413 Y24.579
X-36.45 Y24.35
G3 X-36.151 Y24.051 I0.31 J0.011
G1 X-35.831 Y24.04
X-35.616 Y24.032
X-35.303 Y24.021
G3 X-34.983 Y24.305 I0.011 J0.31
G1 X-34.955 Y24.838
Y24.988
X-34.998 Y25.131
X-35.072 Y25.262
X-35.169 Y25.376
X-35.285 Y25.471
X-35.415 Y25.547
X-35.556 Y25.602
X-35.773 Y25.621
X-35.985 Y25.575
X-36.174 Y25.467
X-36.322 Y25.309
X-36.417 Y25.114
X-36.45 Y24.899
G3 X-36.156 Y24.6 I0.31 J0.011
G1 X-35.831 Y24.584
X-35.59 Y24.571
X-35.28 Y24.556
G3 X-34.955 Y24.838 I0.016 J0.31
G1 X-34.928 Y25.34
X-34.927 Y25.49
X-34.962 Y25.636
X-35.027 Y25.771
X-35.118 Y25.89
X-35.228 Y25.992
X-35.353 Y26.075
X-35.489 Y26.138
X-35.525 Y26.149
X-35.745 Y26.177
X-35.964 Y26.137
X-36.161 Y26.033
X-36.316 Y25.873
X-36.416 Y25.674
X-36.45 Y25.454
G3 X-36.174 Y25.157 I0.31 J0.011
G1 X-35.833 Y25.12
X-35.561 Y25.091
X-35.27 Y25.059
G3 X-34.928 Y25.34 I0.033 J0.308
G1 X-34.897 Y25.89
X-34.896 Y26.04
X-34.931 Y26.186
X-34.997 Y26.321
X-35.086 Y26.441
X-35.195 Y26.544
X-35.319 Y26.629
X-35.454 Y26.695
X-35.6 Y26.74
X-35.81 Y26.746
X-36.012 Y26.692
X-36.191 Y26.582
X-36.331 Y26.425
X-36.42 Y26.235
X-36.45 Y26.027
Y25.454
G3 X-36.005 Y25.186 I0.31 J0.011
G1 X-35.853 Y25.26
X-35.49 Y25.436
X-35.07 Y25.64
G3 X-34.897 Y25.89 I-0.135 J0.279
G1 X-34.891 Y25.991
X-34.86 Y26.423
X-34.849 Y26.573
X-34.879 Y26.72
X-34.939 Y26.858
X-35.023 Y26.982
X-35.126 Y27.09
X-35.245 Y27.182
X-35.377 Y27.254
X-35.517 Y27.308
X-35.566 Y27.319
X-35.781 Y27.335
X-35.991 Y27.287
X-36.178 Y27.179
X-36.324 Y27.021
X-36.418 Y26.827
X-36.45 Y26.614
Y26.027
G3 X-36.013 Y25.756 I0.31 J0.011
G1 X-35.851 Y25.829
X-35.479 Y25.996
X-35.038 Y26.195
G3 X-34.86 Y26.423 I-0.127 J0.283
G1 X-34.839 Y26.568
X-34.801 Y26.712
X-34.784 Y26.761
X-34.764 Y26.813
X-34.716 Y26.955
X-34.714 Y27.105
X-34.744 Y27.252
X-34.8 Y27.392
X-34.878 Y27.52
X-34.975 Y27.634
X-35.086 Y27.734
X-35.211 Y27.818
X-35.345 Y27.885
X-35.487 Y27.934
X-35.634 Y27.964
X-35.661 Y27.967
X-35.86 Y27.957
X-36.049 Y27.894
X-36.214 Y27.781
X-36.342 Y27.627
X-36.422 Y27.444
X-36.45 Y27.247
Y26.614
G3 X-36.055 Y26.327 I0.31 J0.011
G1 X-35.841 Y26.388
X-35.455 Y26.498
X-34.963 Y26.638
G3 X-34.764 Y26.813 I-0.085 J0.298
G1 X-34.747 Y26.856
X-34.675 Y27
X-34.64 Y27.06
X-34.577 Y27.144
X-34.493 Y27.268
X-34.456 Y27.413
X-34.45 Y27.563
X-34.471 Y27.712
X-34.515 Y27.855
X-34.578 Y27.991
X-34.658 Y28.118
X-34.753 Y28.235
X-34.86 Y28.339
X-34.979 Y28.43
X-35.107 Y28.509
X-35.243 Y28.571
X-35.386 Y28.619
X-35.532 Y28.651
X-35.681 Y28.667
X-35.726
X-35.95 Y28.631
X-36.152 Y28.529
X-36.312 Y28.369
X-36.415 Y28.167
X-36.45 Y27.943
Y27.247
G3 X-36.121 Y26.948 I0.31 J0.011
G1 X-35.831 Y26.966
X-35.327 Y26.997
X-34.799 Y27.03
X-34.736 Y27.041
X-34.676 Y27.064
X-34.623 Y27.099
X-34.577 Y27.144
X-34.496 Y27.252
X-34.466 Y27.288
X-34.351 Y27.398
X-34.327 Y27.417
X-34.214 Y27.515
X-34.139 Y27.645
X-34.093 Y27.788
X-34.073 Y27.937
X-34.076 Y28.087
X-34.099 Y28.235
X-34.14 Y28.379
X-34.197 Y28.518
X-34.268 Y28.65
X-34.352 Y28.774
X-34.448 Y28.889
X-34.554 Y28.996
X-34.669 Y29.092
X-34.792 Y29.178
X-34.922 Y29.252
X-35.059 Y29.314
X-35.2 Y29.365
X-35.345 Y29.402
X-35.494 Y29.425
X-35.643 Y29.435
X-35.793 Y29.43
X-35.824 Y29.426
X-36.023 Y29.369
X-36.198 Y29.258
X-36.334 Y29.102
X-36.42 Y28.914
X-36.45 Y28.709
Y27.943
G3 X-36.194 Y27.649 I0.31 J0.011
G1 X-35.836 Y27.586
X-35.092 Y27.456
X-34.563 Y27.363
X-34.501 Y27.358
X-34.44 Y27.366
X-34.381 Y27.386
X-34.327 Y27.417
X-34.207 Y27.511
X-34.103 Y27.577
X-33.991 Y27.638
X-33.862 Y27.714
X-33.759 Y27.823
X-33.68 Y27.951
X-33.625 Y28.09
X-33.59 Y28.236
X-33.574 Y28.385
X-33.575 Y28.535
X-33.593 Y28.684
X-33.625 Y28.831
X-33.671 Y28.974
X-33.729 Y29.112
X-33.799 Y29.245
X-33.882 Y29.377
X-33.98 Y29.507
X-34.088 Y29.629
X-34.208 Y29.745
X-34.342 Y29.854
X-34.488 Y29.955
X-34.642 Y30.044
X-34.799 Y30.119
X-34.944 Y30.174
X-35.108 Y30.222
X-35.261 Y30.254
X-35.41 Y30.272
X-35.565 Y30.278
X-35.715 Y30.271
X-35.864 Y30.252
X-35.885 Y30.247
X-36.068 Y30.18
X-36.225 Y30.066
X-36.347 Y29.914
X-36.424 Y29.735
X-36.45 Y29.542
Y28.709
G3 X-36.255 Y28.432 I0.31 J0.011
G1 X-35.858 Y28.274
X-34.732 Y27.826
X-34.239 Y27.63
X-34.178 Y27.613
X-34.114 Y27.608
X-34.051 Y27.617
X-33.991 Y27.638
X-33.955 Y27.657
X-33.919 Y27.671
X-33.595 Y27.763
X-33.453 Y27.811
X-33.329 Y27.896
X-33.223 Y28.003
X-33.136 Y28.125
X-33.066 Y28.258
X-33.014 Y28.398
X-32.976 Y28.543
X-32.954 Y28.692
X-32.946 Y28.841
X-32.951 Y28.991
X-32.97 Y29.145
X-33.001 Y29.302
X-33.047 Y29.464
X-33.11 Y29.631
X-33.189 Y29.801
X-33.284 Y29.967
X-33.396 Y30.131
X-33.525 Y30.29
X-33.668 Y30.442
X-33.828 Y30.585
X-34.001 Y30.717
X-34.184 Y30.834
X-34.377 Y30.937
X-34.578 Y31.024
X-34.786 Y31.095
X-34.973 Y31.143
X-35.162 Y31.175
X-35.343 Y31.191
X-35.501 Y31.192
X-35.672 Y31.179
X-35.825 Y31.156
X-35.894 Y31.139
X-36.074 Y31.07
X-36.229 Y30.956
X-36.349 Y30.804
X-36.424 Y30.627
X-36.45 Y30.436
Y29.542
G3 X-36.3 Y29.287 I0.31 J0.011
G1 X-35.891 Y29.041
X-34.294 Y28.079
X-33.829 Y27.799
X-33.774 Y27.773
X-33.715 Y27.758
X-33.655 Y27.755
X-33.595 Y27.763
X-33.577 Y27.768
X-33.559 Y27.77
X-33.198 Y27.789
X-33.049 Y27.8
X-32.907 Y27.849
X-32.778 Y27.925
X-32.661 Y28.02
X-32.559 Y28.129
X-32.47 Y28.25
X-32.395 Y28.38
X-32.333 Y28.517
X-32.285 Y28.659
X-32.247 Y28.808
X-32.221 Y28.964
X-32.206 Y29.132
X-32.205 Y29.312
X-32.22 Y29.502
X-32.25 Y29.696
X-32.298 Y29.897
X-32.366 Y30.105
X-32.455 Y30.317
X-32.564 Y30.527
X-32.692 Y30.733
X-32.841 Y30.934
X-33.011 Y31.129
X-33.202 Y31.315
X-33.411 Y31.489
X-33.634 Y31.646
X-33.869 Y31.784
X-34.112 Y31.902
X-34.358 Y31.997
X-34.609 Y32.072
X-34.855 Y32.125
X-35.073 Y32.153
X-35.294 Y32.164
X-35.476 Y32.159
X-35.663 Y32.138
X-35.832 Y32.105
X-35.921 Y32.081
X-36.093 Y32.007
X-36.241 Y31.892
X-36.355 Y31.743
X-36.426 Y31.57
X-36.45 Y31.384
Y30.436
G3 X-36.333 Y30.204 I0.31 J0.011
G1 X-35.928 Y29.881
X-33.842 Y28.218
X-33.388 Y27.856
X-33.33 Y27.82
X-33.266 Y27.797
X-33.198 Y27.789
X-33.054 Y27.792
X-32.622 Y27.793
X-32.472 Y27.8
X-32.327 Y27.837
X-32.189 Y27.898
X-32.063 Y27.978
X-31.947 Y28.073
X-31.842 Y28.181
X-31.749 Y28.299
X-31.667 Y28.424
X-31.596 Y28.557
X-31.529 Y28.708
X-31.473 Y28.871
X-31.427 Y29.046
X-31.394 Y29.239
X-31.374 Y29.448
X-31.372 Y29.662
X-31.387 Y29.891
X-31.424 Y30.133
X-31.482 Y30.384
X-31.563 Y30.637
X-31.667 Y30.89
X-31.797 Y31.147
X-31.955 Y31.404
X-32.139 Y31.656
X-32.348 Y31.899
X-32.581 Y32.129
X-32.834 Y32.342
X-33.106 Y32.535
X-33.393 Y32.707
X-33.688 Y32.853
X-33.989 Y32.972
X-34.287 Y33.063
X-34.583 Y33.129
X-34.873 Y33.168
X-35.121 Y33.183
X-35.364 Y33.177
X-35.557 Y33.156
X-35.757 Y33.119
X-35.925 Y33.074
X-35.971 Y33.057
X-36.165 Y32.951
X-36.318 Y32.792
X-36.416 Y32.594
X-36.45 Y32.376
Y31.384
X-36.442 Y31.324
X-36.422 Y31.266
X-36.392 Y31.213
X-36.352 Y31.168
X-35.955 Y30.798
X-33.234 Y28.261
X-32.822 Y27.876
X-32.778 Y27.842
X-32.729 Y27.816
X-32.677 Y27.8
X-32.622 Y27.793
X-31.901 Y27.792
X-31.751 Y27.799
X-31.606 Y27.836
X-31.468 Y27.895
X-31.338 Y27.97
X-31.218 Y28.06
X-31.107 Y28.161
X-31.006 Y28.271
X-30.911 Y28.394
X-30.819 Y28.536
X-30.735 Y28.691
X-30.658 Y28.864
X-30.59 Y29.061
X-30.536 Y29.268
X-30.496 Y29.494
X-30.473 Y29.741
X-30.469 Y30.005
X-30.487 Y30.275
X-30.529 Y30.558
X-30.597 Y30.856
X-30.695 Y31.165
X-30.824 Y31.479
X-30.98 Y31.789
X-31.167 Y32.094
X-31.385 Y32.395
X-31.635 Y32.686
X-31.914 Y32.963
X-32.218 Y33.22
X-32.545 Y33.454
X-32.889 Y33.66
X-33.245 Y33.836
X-33.61 Y33.982
X-33.972 Y34.094
X-34.325 Y34.172
X-34.658 Y34.219
X-34.975 Y34.237
X-35.231 Y34.232
X-35.485 Y34.206
X-35.688 Y34.168
X-35.869 Y34.12
X-35.97 Y34.083
X-36.165 Y33.978
X-36.318 Y33.819
X-36.416 Y33.621
X-36.45 Y33.402
Y32.376
X-36.443 Y32.319
X-36.425 Y32.264
X-36.397 Y32.213
X-36.36 Y32.169
X-35.97 Y31.775
X-32.499 Y28.275
X-32.11 Y27.883
X-32.065 Y27.846
X-32.014 Y27.818
X-31.959 Y27.799
X-31.901 Y27.792
X-31.137 Y27.791
X-30.987 Y27.798
X-30.841 Y27.831
X-30.7 Y27.885
X-30.567 Y27.954
X-30.442 Y28.037
X-30.326 Y28.131
X-30.218 Y28.235
X-30.109 Y28.359
X-30 Y28.503
X-29.901 Y28.661
X-29.804 Y28.846
X-29.716 Y29.051
X-29.643 Y29.27
X-29.582 Y29.517
X-29.538 Y29.788
X-29.515 Y30.07
Y30.373
X-29.541 Y30.701
X-29.596 Y31.046
X-29.683 Y31.4
X-29.8 Y31.754
X-29.954 Y32.116
X-30.145 Y32.483
X-30.375 Y32.848
X-30.642 Y33.205
X-30.944 Y33.548
X-31.279 Y33.872
X-31.643 Y34.171
X-32.033 Y34.442
X-32.441 Y34.68
X-32.862 Y34.882
X-33.287 Y35.045
X-33.712 Y35.17
X-34.12 Y35.255
X-34.512 Y35.305
X-34.866 Y35.321
X-35.169 Y35.31
X-35.444 Y35.279
X-35.669 Y35.234
X-35.858 Y35.18
X-35.979 Y35.135
X-36.17 Y35.029
X-36.321 Y34.87
X-36.417 Y34.674
X-36.45 Y34.457
Y33.402
X-36.443 Y33.347
X-36.426 Y33.294
X-36.4 Y33.244
X-36.366 Y33.2
X-35.98 Y32.792
X-31.724 Y28.284
X-31.351 Y27.888
X-31.306 Y27.848
X-31.253 Y27.818
X-31.196 Y27.799
X-31.137 Y27.791
X-30.315 Y27.79
X-30.166 Y27.797
X-30.019 Y27.827
X-29.877 Y27.876
X-29.741 Y27.94
X-29.613 Y28.018
X-29.493 Y28.107
X-29.375 Y28.21
X-29.254 Y28.334
X-29.133 Y28.48
X-29.019 Y28.643
X-28.906 Y28.835
X-28.804 Y29.046
X-28.713 Y29.279
X-28.633 Y29.546
X-28.572 Y29.837
X-28.532 Y30.143
X-28.515 Y30.482
X-28.526 Y30.847
X-28.569 Y31.232
X-28.645 Y31.622
X-28.758 Y32.027
X-28.835 Y32.237
X-28.878 Y32.342
X-28.924 Y32.448
X-29.114 Y32.867
X-29.35 Y33.291
X-29.629 Y33.71
X-29.951 Y34.118
X-30.312 Y34.508
X-30.709 Y34.872
X-31.138 Y35.207
X-31.595 Y35.507
X-32.074 Y35.77
X-32.563 Y35.989
X-33.054 Y36.163
X-33.536 Y36.291
X-33.998 Y36.375
X-34.437 Y36.419
X-34.834 Y36.427
X-35.168 Y36.407
X-35.457 Y36.365
X-35.691 Y36.313
X-35.887 Y36.252
X-35.997 Y36.207
X-36.181 Y36.099
X-36.326 Y35.941
X-36.418 Y35.748
X-36.45 Y35.536
Y34.457
X-36.443 Y34.403
X-36.427 Y34.351
X-36.402 Y34.302
X-36.369 Y34.259
X-35.986 Y33.841
X-30.897 Y28.288
X-30.533 Y27.89
X-30.487 Y27.849
X-30.434 Y27.818
X-30.376 Y27.798
X-30.315 Y27.79
X-29.451 Y27.789
X-29.301 Y27.796
X-29.153 Y27.822
X-29.01 Y27.866
X-28.872 Y27.927
X-28.742 Y28
X-28.614 Y28.088
X-28.489 Y28.189
X-28.357 Y28.314
X-28.227 Y28.46
X-28.1 Y28.627
X-27.972 Y28.827
X-27.858 Y29.042
X-27.751 Y29.29
X-27.654 Y29.576
X-27.578 Y29.877
X-27.549 Y30.045
X-27.538 Y30.131
X-27.528 Y30.222
X-27.495 Y30.588
X-27.491 Y30.984
X-27.518 Y31.373
X-27.53 Y31.451
G3 X-28.114 Y31.53 I-0.305 J-0.057
G1 X-28.118 Y31.521
X-29.644 Y28.386
X-29.718 Y28.234
G3 X-29.451 Y27.789 I0.279 J-0.136
G1 X-28.506 Y27.787
X-28.357 Y27.795
X-28.209 Y27.823
X-28.066 Y27.868
X-27.929 Y27.929
X-27.798 Y28.001
X-27.664 Y28.092
X-27.53 Y28.198
X-27.39 Y28.329
X-27.249 Y28.484
X-27.114 Y28.659
X-26.985 Y28.857
X-26.858 Y29.091
X-26.794 Y29.236
X-26.735 Y29.384
X-26.646 Y29.515
X-26.53 Y29.623
X-26.394 Y29.704
X-26.243 Y29.753
X-25.927 Y29.783
X-25.313 Y29.624
X-24.742 Y29.349
X-24.202 Y29.016
X-23.677 Y28.659
X-23.156 Y28.297
X-22.631 Y27.941
X-22.555 Y27.893
X-22.434 Y27.831
X-22.302 Y27.792
X-22.166 Y27.779
X-19.761 Y27.776
G3 X-19.603 Y28.346 I-0.01 J0.31
G1 X-19.661 Y28.384 Z-0.613
X-19.716 Y28.419 Z-0.59
X-19.765 Y28.451 Z-0.553
X-19.806 Y28.478 Z-0.504
X-19.837 Y28.498 Z-0.445
X-19.857 Y28.51 Z-0.38
X-19.863 Y28.515 Z-0.311
G0 Z-0.001
X-17.475 Y52.07
G1 Z-0.311 F1000
X-17.482 Y52.074 Z-0.38
X-17.502 Y52.086 Z-0.445
X-17.534 Y52.105 Z-0.504
X-17.576 Y52.13 Z-0.553
X-17.626 Y52.16 Z-0.59
X-17.683 Y52.193 Z-0.613
X-17.742 Y52.229 Z-0.621
G3 X-18.495 Y52.45 I-0.809 J-1.36
G1 X-20.802
X-21.048 Y52.438
X-21.278 Y52.408
X-21.546 Y52.35
X-21.85 Y52.259
X-22.211 Y52.119
X-22.642 Y51.91
X-23.124 Y51.626
X-23.643 Y51.261
X-24.134 Y50.86
X-24.6 Y50.429
X-25.043 Y49.975
X-25.463 Y49.499
X-25.86 Y49.004
X-26.235 Y48.492
X-26.587 Y47.964
X-26.915 Y47.422
X-27.22 Y46.866
X-27.501 Y46.297
X-27.757 Y45.716
X-27.986 Y45.124
X-28.189 Y44.524
X-28.367 Y43.914
X-28.518 Y43.298
X-28.642 Y42.676
X-28.74 Y42.049
X-28.811 Y41.419
X-28.856 Y40.786
X-28.873 Y40.152
X-28.864 Y39.517
X-28.828 Y38.884
X-28.764 Y38.253
X-28.673 Y37.625
X-28.613 Y37.313
X-28.58 Y37.158
X-28.423 Y36.462
X-28.256 Y35.85
X-28.159 Y35.548
X-28.108 Y35.398
G3 X-27.529 Y35.62 I0.289 J0.111
X-28.127 Y35.537 I-0.289 J-0.111
G1 X-28.778 Y28.406
X-28.804 Y28.125
G3 X-28.506 Y27.787 I0.309 J-0.028
G1 X-27.577 Y27.786
X-27.427 Y27.794
X-27.279 Y27.817
X-26.669 Y27.992
X-26.036 Y28.029
X-25.414 Y27.901
X-25.23 Y27.83
X-25.146 Y27.804
X-25.06 Y27.788
X-24.973 Y27.783
G3 X-24.983 Y28.403 I-0.01 J0.31
G1 X-27.565 Y28.406
G3 X-27.577 Y27.786 I0 J-0.31
G1 X-22.166 Y27.779
G3 X-22.008 Y28.349 I-0.01 J0.31
G1 X-22.066 Y28.387 Z-0.613
X-22.121 Y28.422 Z-0.59
X-22.171 Y28.454 Z-0.553
X-22.212 Y28.481 Z-0.504
X-22.243 Y28.501 Z-0.445
X-22.262 Y28.513 Z-0.38
X-22.269 Y28.518 Z-0.311
G0 Z-0.001
X-19.782 Y52.07
G1 Z-0.311 F1000
X-19.788 Y52.074 Z-0.38
X-19.808 Y52.086 Z-0.445
X-19.84 Y52.105 Z-0.504
X-19.882 Y52.13 Z-0.553
X-19.933 Y52.16 Z-0.59
X-19.989 Y52.193 Z-0.613
X-20.048 Y52.229 Z-0.621
G3 X-20.802 Y52.45 I-0.809 J-1.36
G1 X-22.82
X-22.97 Y52.443
X-23.119 Y52.433
X-23.268 Y52.413
X-23.415 Y52.383
X-23.56 Y52.346
X-23.704 Y52.302
X-23.845 Y52.251
X-23.984 Y52.194
X-24.12 Y52.132
X-24.255 Y52.066
X-24.387 Y51.995
X-24.517 Y51.92
X-24.645 Y51.842
X-24.771 Y51.76
X-24.895 Y51.675
X-25.016 Y51.588
X-25.136 Y51.498
X-25.254 Y51.405
X-25.37 Y51.31
X-25.485 Y51.213
X-25.597 Y51.114
X-25.708 Y51.013
X-25.817 Y50.91
X-25.925 Y50.806
X-26.032 Y50.7
X-26.136 Y50.592
X-26.239 Y50.483
X-26.341 Y50.373
X-26.441 Y50.262
X-26.54 Y50.149
X-26.637 Y50.035
X-26.733 Y49.919
X-26.828 Y49.803
X-26.921 Y49.685
X-27.013 Y49.567
X-27.103 Y49.447
X-27.193 Y49.327
X-27.281 Y49.205
X-27.367 Y49.083
X-27.453 Y48.959
X-27.537 Y48.835
X-27.619 Y48.71
X-27.701 Y48.584
X-27.781 Y48.457
X-27.86 Y48.33
X-27.937 Y48.201
X-28.014 Y48.072
X-28.089 Y47.942
X-28.163 Y47.812
X-28.235 Y47.68
X-28.306 Y47.548
X-28.376 Y47.416
X-28.445 Y47.282
X-28.512 Y47.148
X-28.578 Y47.013
X-28.643 Y46.878
X-28.706 Y46.742
X-28.768 Y46.606
X-28.829 Y46.468
X-28.888 Y46.331
X-28.946 Y46.192
X-29.003 Y46.053
X-29.058 Y45.914
X-29.112 Y45.774
X-29.165 Y45.634
X-29.216 Y45.493
X-29.266 Y45.351
X-29.315 Y45.209
X-29.362 Y45.067
X-29.408 Y44.924
X-29.453 Y44.781
X-29.496 Y44.637
X-29.538 Y44.493
X-29.578 Y44.349
X-29.618 Y44.204
X-29.655 Y44.059
X-29.692 Y43.914
X-29.727 Y43.768
X-29.761 Y43.622
X-29.793 Y43.475
X-29.824 Y43.328
X-29.854 Y43.181
X-29.882 Y43.034
X-29.909 Y42.886
X-29.935 Y42.739
X-29.959 Y42.591
X-29.981 Y42.442
X-30.003 Y42.294
X-30.023 Y42.145
X-30.041 Y41.996
X-30.059 Y41.847
X-30.074 Y41.698
X-30.089 Y41.549
X-30.102 Y41.399
X-30.114 Y41.25
X-30.124 Y41.1
X-30.133 Y40.951
X-30.141 Y40.801
X-30.147 Y40.651
X-30.152 Y40.501
X-30.155 Y40.351
X-30.157 Y40.201
X-30.158 Y40.051
X-30.157 Y39.901
X-30.155 Y39.751
X-30.152 Y39.601
X-30.147 Y39.451
X-30.141 Y39.301
X-30.133 Y39.151
X-30.123 Y39.002
X-30.113 Y38.852
X-30.101 Y38.703
X-30.088 Y38.553
X-30.073 Y38.404
X-30.056 Y38.255
X-30.038 Y38.106
X-30.018 Y37.957
X-29.997 Y37.809
X-29.974 Y37.652
X-29.985 Y37.494
X-30.031 Y37.342
X-30.108 Y37.203
X-30.214 Y37.085
X-30.343 Y36.993
X-30.489 Y36.931
X-30.645 Y36.903
X-31.279 Y36.927
X-31.42 Y36.98
X-31.56 Y37.032
X-31.702 Y37.083
X-31.843 Y37.132
X-31.985 Y37.18
X-32.128 Y37.226
X-32.271 Y37.27
X-32.415 Y37.312
X-32.56 Y37.353
X-32.705 Y37.391
X-32.851 Y37.426
X-32.997 Y37.46
X-33.144 Y37.491
X-33.291 Y37.519
X-33.439 Y37.544
X-33.587 Y37.567
X-33.736 Y37.587
X-33.885 Y37.603
X-34.034 Y37.617
X-34.184 Y37.627
X-34.334 Y37.634
X-34.484 Y37.637
X-34.634 Y37.636
X-34.784 Y37.631
X-34.933 Y37.622
X-35.083 Y37.609
X-35.232 Y37.591
X-35.38 Y37.567
X-35.527 Y37.537
X-35.673 Y37.502
X-35.817 Y37.46
X-35.958 Y37.411
X-36.004 Y37.392
X-36.186 Y37.282
X-36.328 Y37.125
X-36.419 Y36.933
X-36.45 Y36.724
Y35.536
G3 X-35.88 Y35.379 I0.31 J0.011
G1 X-35.842 Y35.437 Z-0.613
X-35.807 Y35.492 Z-0.59
X-35.775 Y35.541 Z-0.553
X-35.748 Y35.583 Z-0.504
X-35.728 Y35.614 Z-0.445
X-35.716 Y35.633 Z-0.38
X-35.712 Y35.64 Z-0.311
G0 Z5
X-21.8 Y52.07
Z-0.001
G1 Z-0.311 F1000
X-21.807 Y52.074 Z-0.38
X-21.826 Y52.086 Z-0.445
X-21.858 Y52.105 Z-0.504
X-21.9 Y52.13 Z-0.553
X-21.951 Y52.16 Z-0.59
X-22.007 Y52.193 Z-0.613
X-22.066 Y52.229 Z-0.621
G3 X-22.82 Y52.45 I-0.809 J-1.36
G1 X-24.629
X-24.779 Y52.443
X-24.955 Y52.417
X-25.154 Y52.371
X-25.38 Y52.3
X-25.637 Y52.196
X-25.928 Y52.049
X-26.262 Y51.847
X-26.642 Y51.571
X-27.079 Y51.198
X-27.527 Y50.748
X-27.942 Y50.268
X-28.328 Y49.765
X-28.688 Y49.243
X-29.025 Y48.705
X-29.339 Y48.154
X-29.63 Y47.59
X-29.898 Y47.015
X-30.144 Y46.43
X-30.368 Y45.837
X-30.569 Y45.235
X-30.748 Y44.626
X-30.904 Y44.011
X-31.037 Y43.391
X-31.147 Y42.766
X-31.235 Y42.138
X-31.299 Y41.507
X-31.341 Y40.874
X-31.359 Y40.239
X-31.358 Y40.081
X-31.391 Y39.926
X-31.458 Y39.782
X-31.554 Y39.655
X-31.796 Y39.451
X-32.372 Y39.184
X-32.992 Y39.048
X-33.622 Y38.977
X-34.254 Y38.924
X-34.885 Y38.854
X-35.317 Y38.775
X-35.645 Y38.687
X-35.871 Y38.607
X-36.022 Y38.539
X-36.197 Y38.428
X-36.334 Y38.272
X-36.42 Y38.084
X-36.45 Y37.879
Y36.724
G3 X-35.88 Y36.566 I0.31 J0.011
G1 X-35.842 Y36.624 Z-0.613
X-35.807 Y36.679 Z-0.59
X-35.775 Y36.729 Z-0.553
X-35.748 Y36.77 Z-0.504
X-35.728 Y36.801 Z-0.445
X-35.716 Y36.82 Z-0.38
X-35.712 Y36.827 Z-0.311
G0 Z5
X-23.609 Y52.07
Z-0.001
G1 Z-0.311 F1000
X-23.616 Y52.074 Z-0.38
X-23.635 Y52.086 Z-0.445
X-23.667 Y52.105 Z-0.504
X-23.709 Y52.13 Z-0.553
X-23.76 Y52.16 Z-0.59
X-23.816 Y52.193 Z-0.613
X-23.875 Y52.229 Z-0.621
G3 X-24.629 Y52.45 I-0.809 J-1.36
G1 X-26.214
X-26.364 Y52.443
X-26.539 Y52.416
X-26.72 Y52.374
X-26.926 Y52.308
X-27.175 Y52.206
X-27.426 Y52.079
X-27.736 Y51.889
X-28.059 Y51.653
X-28.442 Y51.324
X-28.878 Y50.882
X-29.287 Y50.397
X-29.663 Y49.886
X-30.011 Y49.356
X-30.335 Y48.81
X-30.635 Y48.251
X-30.912 Y47.68
X-31.167 Y47.099
X-31.4 Y46.509
X-31.612 Y45.911
X-31.803 Y45.306
X-31.973 Y44.695
X-32.121 Y44.078
X-32.248 Y43.456
X-32.353 Y42.831
X-32.437 Y42.202
X-32.469 Y41.886
X-32.58 Y41.589
X-32.763 Y41.33
X-33.218 Y40.888
X-33.776 Y40.585
X-34.371 Y40.366
X-34.978 Y40.181
X-35.544 Y40.001
X-35.858 Y39.872
X-36.054 Y39.773
X-36.217 Y39.659
X-36.343 Y39.506
X-36.423 Y39.324
X-36.45 Y39.127
Y37.879
G3 X-35.88 Y37.722 I0.31 J0.011
G1 X-35.842 Y37.78 Z-0.613
X-35.807 Y37.835 Z-0.59
X-35.775 Y37.884 Z-0.553
X-35.748 Y37.925 Z-0.504
X-35.728 Y37.957 Z-0.445
X-35.716 Y37.976 Z-0.38
X-35.712 Y37.982 Z-0.311
G0 Z5
X-25.194 Y52.07
Z-0.001
G1 Z-0.311 F1000
X-25.201 Y52.074 Z-0.38
X-25.221 Y52.086 Z-0.445
X-25.253 Y52.105 Z-0.504
X-25.295 Y52.13 Z-0.553
X-25.345 Y52.16 Z-0.59
X-25.402 Y52.193 Z-0.613
X-25.461 Y52.229 Z-0.621
G3 X-26.214 Y52.45 I-0.809 J-1.36
G1 X-27.721
X-27.871 Y52.443
X-28.027 Y52.42
X-28.196 Y52.381
X-28.4 Y52.316
X-28.62 Y52.226
X-28.859 Y52.106
X-29.141 Y51.934
X-29.437 Y51.719
X-29.78 Y51.425
X-30.172 Y51.031
X-30.581 Y50.547
X-30.954 Y50.033
X-31.295 Y49.499
X-31.61 Y48.948
X-31.9 Y48.383
X-32.166 Y47.808
X-32.411 Y47.223
X-32.635 Y46.629
X-32.839 Y46.028
X-33.022 Y45.421
X-33.185 Y44.808
X-33.328 Y44.189
X-33.451 Y43.567
X-33.529 Y43.259
X-33.786 Y42.679
X-34.218 Y42.215
X-34.738 Y41.851
X-35.295 Y41.548
X-35.861 Y41.261
X-36.099 Y41.118
X-36.244 Y41.003
X-36.356 Y40.854
X-36.426 Y40.682
X-36.45 Y40.498
Y39.127
G3 X-35.88 Y38.97 I0.31 J0.011
G1 X-35.842 Y39.028 Z-0.613
X-35.807 Y39.083 Z-0.59
X-35.775 Y39.133 Z-0.553
X-35.748 Y39.174 Z-0.504
X-35.728 Y39.205 Z-0.445
X-35.716 Y39.224 Z-0.38
X-35.712 Y39.231 Z-0.311
G0 Z-0.001
X-26.701 Y52.07
G1 Z-0.311 F1000
X-26.707 Y52.074 Z-0.38
X-26.727 Y52.086 Z-0.445
X-26.759 Y52.105 Z-0.504
X-26.801 Y52.13 Z-0.553
X-26.852 Y52.16 Z-0.59
X-26.908 Y52.193 Z-0.613
X-26.967 Y52.229 Z-0.621
G3 X-27.721 Y52.45 I-0.809 J-1.36
G1 X-29.162
X-29.312 Y52.443
X-29.461 Y52.422
X-29.63 Y52.383
X-29.825 Y52.322
X-30.023 Y52.241
X-30.263 Y52.121
X-30.516 Y51.968
X-30.803 Y51.76
X-31.114 Y51.495
X-31.473 Y51.135
X-31.872 Y50.666
X-32.242 Y50.151
X-32.578 Y49.612
X-32.885 Y49.057
X-33.166 Y48.489
X-33.424 Y47.909
X-33.66 Y47.32
X-33.876 Y46.723
X-34.071 Y46.12
X-34.247 Y45.51
X-34.404 Y44.895
X-34.579 Y44.285
X-34.902 Y43.739
X-35.336 Y43.277
X-35.828 Y42.876
X-36.165 Y42.62
X-36.318 Y42.461
X-36.416 Y42.263
X-36.45 Y42.045
Y40.498
G3 X-35.88 Y40.341 I0.31 J0.011
G1 X-35.842 Y40.399 Z-0.613
X-35.807 Y40.454 Z-0.59
X-35.775 Y40.503 Z-0.553
X-35.748 Y40.544 Z-0.504
X-35.728 Y40.575 Z-0.445
X-35.716 Y40.595 Z-0.38
X-35.712 Y40.601 Z-0.311
G0 Z-0.001
X-28.142 Y52.07
G1 Z-0.311 F1000
X-28.149 Y52.074 Z-0.38
X-28.169 Y52.086 Z-0.445
X-28.2 Y52.105 Z-0.504
X-28.243 Y52.13 Z-0.553
X-28.293 Y52.16 Z-0.59
X-28.349 Y52.193 Z-0.613
X-28.409 Y52.229 Z-0.621
G3 X-29.162 Y52.45 I-0.809 J-1.36
G1 X-30.604
X-30.754 Y52.443
X-30.903 Y52.418
X-31.079 Y52.373
X-31.256 Y52.314
X-31.465 Y52.223
X-31.701 Y52.099
X-31.944 Y51.944
X-32.231 Y51.727
X-32.53 Y51.461
X-32.869 Y51.106
X-33.25 Y50.638
X-33.609 Y50.115
X-33.933 Y49.569
X-34.226 Y49.007
X-34.494 Y48.432
X-34.739 Y47.846
X-34.963 Y47.253
X-35.166 Y46.652
X-35.35 Y46.045
X-35.554 Y45.444
X-35.865 Y44.891
X-36.259 Y44.394
X-36.267 Y44.384
X-36.367 Y44.241
X-36.429 Y44.077
X-36.45 Y43.904
Y42.045
G3 X-35.88 Y41.887 I0.31 J0.011
G1 X-35.842 Y41.945 Z-0.613
X-35.807 Y42.001 Z-0.59
X-35.775 Y42.05 Z-0.553
X-35.748 Y42.091 Z-0.504
X-35.728 Y42.122 Z-0.445
X-35.716 Y42.141 Z-0.38
X-35.712 Y42.148 Z-0.311
G0 Z-0.001
X-29.584 Y52.07
G1 Z-0.311 F1000
X-29.59 Y52.074 Z-0.38
X-29.61 Y52.086 Z-0.445
X-29.642 Y52.105 Z-0.504
X-29.684 Y52.13 Z-0.553
X-29.735 Y52.16 Z-0.59
X-29.791 Y52.193 Z-0.613
X-29.85 Y52.229 Z-0.621
G3 X-30.604 Y52.45 I-0.809 J-1.36
G1 X-31.98
X-32.13 Y52.443
X-32.278 Y52.418
X-32.448 Y52.375
X-32.624 Y52.316
X-32.822 Y52.23
X-33.056 Y52.106
X-33.285 Y51.96
X-33.563 Y51.749
X-33.843 Y51.499
X-34.169 Y51.157
X-34.529 Y50.712
X-34.888 Y50.189
X-35.208 Y49.641
X-35.497 Y49.076
X-35.758 Y48.498
X-35.996 Y47.91
X-36.406 Y46.781
X-36.43 Y46.701
X-36.445 Y46.618
X-36.45 Y46.534
G3 X-35.891 Y46.36 I0.31 J0.011
G1 X-35.879 Y46.376
X-31.808 Y51.866
X-31.742 Y51.956
G3 X-31.98 Y52.45 I-0.249 J0.185
G1 X-33.342
X-33.492 Y52.443
X-33.64 Y52.417
X-33.809 Y52.373
X-33.978 Y52.314
X-34.179 Y52.226
X-34.399 Y52.107
X-34.63 Y51.957
X-34.901 Y51.748
X-35.175 Y51.499
X-35.488 Y51.167
X-35.834 Y50.732
X-36.189 Y50.206
X-36.319 Y49.978
X-36.363 Y49.896
X-36.411 Y49.787
X-36.44 Y49.671
X-36.45 Y49.553
G3 X-35.93 Y49.336 I0.31 J0.011
G1 X-35.873 Y49.389
X-33.182 Y51.876
X-33.143 Y51.913
G3 X-33.342 Y52.45 I-0.21 J0.228
G1 X-34.64
X-34.79 Y52.443
X-34.938 Y52.42
X-35.1 Y52.381
X-35.264 Y52.328
X-35.452 Y52.249
X-35.668 Y52.137
X-35.884 Y52.002
X-36.147 Y51.808
X-36.203 Y51.759
X-36.336 Y51.604
X-36.421 Y51.417
X-36.45 Y51.214
G3 X-35.978 Y50.961 I0.31 J0.011
G1 X-35.86 Y51.034
X-34.488 Y51.876
G3 X-34.64 Y52.45 I-0.162 J0.264
G1 X-35.937
X-35.981
X-36.011
X-36.161 Y52.443
X-36.182 Y52.437
X-36.268 Y52.401
X-36.345 Y52.348
X-36.407 Y52.278
X-36.416 Y52.245
X-36.41 Y52.211
X-36.393 Y52.182
X-36.365 Y52.162
X-36.332 Y52.155
X-36.298 Y52.161
X-35.983 Y52.284
X-35.955 Y52.302
X-35.935 Y52.329
X-35.928 Y52.362
X-35.934 Y52.395
X-35.951 Y52.423
X-35.979 Y52.442
X-36.011 Y52.45
X-36.121 Y52.449
X-36.153
X-36.189 Y52.443
X-36.225 Y52.433
X-36.252 Y52.423
X-36.279 Y52.409
X-36.306 Y52.391
X-36.333 Y52.37
X-36.37 Y52.331
X-36.407 Y52.278
X-36.421 Y52.252
X-36.432 Y52.225
X-36.442 Y52.189
X-36.448 Y52.153
X-36.45 Y52.081
Y43.904
G3 X-36.141 Y43.605 I0.31 J0.011
G1 X-36.14
X-36.088 Y43.618 Z-0.616
X-36.038 Y43.631 Z-0.601
X-35.991 Y43.643 Z-0.578
X-35.953 Y43.678 Z-0.54
X-35.922 Y43.707 Z-0.492
X-35.899 Y43.729 Z-0.436
X-35.885 Y43.742 Z-0.375
X-35.88 Y43.747 Z-0.311
G0 Z5
X-1.72 Y21.842
Z0.074
G1 Z-0.236 F1000
X-1.727 Y21.84 Z-0.305
X-1.75 Y21.836 Z-0.37
X-1.786 Y21.828 Z-0.429
X-1.834 Y21.819 Z-0.478
X-1.892 Y21.807 Z-0.515
X-1.956 Y21.794 Z-0.538
X-2.024 Y21.78 Z-0.546
G3 X-3.649 Y21.264 I1.57 J-7.757
G1 X-3.71 Y21.234
X-3.793 Y21.198
X-3.955 Y21.145
X-3.973 Y21.142
X-4.369 Y21.096
X-4.513 Y21.093
X-16.477 Y21.079
X-33.198 Y21.09
X-33.577 Y21.093
X-33.595 Y21.094
X-33.775 Y21.13
G0 Z5
X-35.833 Y24.519
Z0.074
G1 Z-0.236 F1000
X-35.828 Y24.525 Z-0.305
X-35.813 Y24.542 Z-0.37
X-35.789 Y24.57 Z-0.429
X-35.756 Y24.607 Z-0.478
X-35.718 Y24.651 Z-0.515
X-35.675 Y24.701 Z-0.538
X-35.63 Y24.753 Z-0.546
G3 X-34.87 Y26.279 I-2.599 J2.247
G1 X-34.844 Y26.423
X-34.804 Y26.568
X-34.784 Y26.623
X-34.747 Y26.712
X-34.713 Y26.784
X-34.673 Y26.856
X-34.575 Y27
X-34.496 Y27.095
X-34.378 Y27.222
X-34.365 Y27.235
X-33.971 Y27.488
X-33.577 Y27.606
X-33.559 Y27.608
X-33.198 Y27.625
X-33.054 Y27.628
X-23.396 Y27.641
X-4.946 Y27.617
X-4.658 Y27.614
X-4.423 Y27.612
X-4.405 Y27.611
X-4.242 Y27.577
G3 X-3.886 Y27.818 I0.053 J0.306
G1 X-3.88 Y27.882 Z-0.539
X-3.894 Y27.937 Z-0.52
X-3.907 Y27.988 Z-0.492
X-3.918 Y28.032 Z-0.453
X-3.941 Y28.062 Z-0.407
X-3.958 Y28.084 Z-0.353
X-3.969 Y28.098 Z-0.296
X-3.972 Y28.103 Z-0.236
G0 Z5
X-1.644 Y21.98
Z0.147
G1 Z-0.163 F1000
X-1.651 Y21.978 Z-0.232
X-1.674 Y21.974 Z-0.297
X-1.71 Y21.966 Z-0.356
X-1.758 Y21.956 Z-0.405
X-1.815 Y21.943 Z-0.442
X-1.879 Y21.929 Z-0.465
X-1.947 Y21.915 Z-0.473
G3 X-3.565 Y21.378 I1.666 J-7.737
G1 X-3.649 Y21.337
X-3.793 Y21.27
X-3.937 Y21.223
X-4.081 Y21.192
X-4.225 Y21.173
X-4.369 Y21.166
X-4.802 Y21.165
X-7.54 Y21.162
X-33.198 Y21.178
X-33.577 Y21.182
X-33.595
X-33.775 Y21.219
G0 Z5
X-35.717 Y24.162
Z0.147
G1 Z-0.163 F1000
X-35.713 Y24.168 Z-0.232
X-35.699 Y24.187 Z-0.297
X-35.677 Y24.216 Z-0.356
X-35.648 Y24.256 Z-0.405
X-35.613 Y24.303 Z-0.442
X-35.574 Y24.356 Z-0.465
X-35.533 Y24.411 Z-0.473
G3 X-34.891 Y25.991 I-2.763 J2.042
G1 X-34.877 Y26.135
X-34.849 Y26.279
X-34.807 Y26.423
X-34.784 Y26.484
X-34.746 Y26.568
X-34.669 Y26.712
X-34.64 Y26.758
X-34.572 Y26.856
X-34.496 Y26.95
X-34.445 Y27
X-34.351 Y27.088
X-34.207 Y27.197
X-34.05 Y27.288
X-33.985 Y27.324
X-33.583 Y27.442
X-33.567 Y27.445
X-33.198 Y27.462
X-33.054 Y27.465
X-12.441 Y27.491
X-4.802 Y27.48
X-4.423 Y27.476
X-4.405
X-4.225 Y27.439
G3 X-3.87 Y27.682 I0.051 J0.306
G1 X-3.864 Y27.745 Z-0.466
X-3.878 Y27.799 Z-0.448
X-3.891 Y27.85 Z-0.42
X-3.902 Y27.894 Z-0.382
X-3.926 Y27.925 Z-0.335
X-3.943 Y27.947 Z-0.281
X-3.954 Y27.961 Z-0.223
X-3.957 Y27.966 Z-0.163
G0 Z5
X-1.628 Y23.234
Z0.221
G1 Z-0.09 F1000
X-1.634 Y23.23 Z-0.158
X-1.653 Y23.216 Z-0.224
X-1.682 Y23.194 Z-0.283
X-1.721 Y23.164 Z-0.332
X-1.768 Y23.128 Z-0.369
X-1.82 Y23.089 Z-0.392
X-1.875 Y23.047 Z-0.4
G3 X-3.117 Y21.878 I4.774 J-6.312
G1 X-3.17 Y21.811
X-3.316 Y21.667
X-3.36 Y21.624
X-3.54 Y21.493
X-3.558 Y21.483
X-3.973 Y21.315
X-4.081 Y21.301
X-4.369 Y21.268
X-4.513 Y21.264
X-17.054 Y21.256
X-33.198 Y21.266
X-33.577 Y21.27
X-33.595 Y21.271
X-33.775 Y21.308
G3 X-34.042 Y20.78 I-0.051 J-0.306
G1 X-33.993 Y20.732 Z-0.392
X-33.946 Y20.686 Z-0.369
X-33.904 Y20.645 Z-0.332
X-33.869 Y20.611 Z-0.283
X-33.843 Y20.585 Z-0.224
X-33.826 Y20.569 Z-0.158
X-33.821 Y20.563 Z-0.09
G0 Z5
X-35.736 Y24.023
Z0.221
G1 Z-0.09 F1000
X-35.731 Y24.029 Z-0.158
X-35.717 Y24.047 Z-0.224
X-35.695 Y24.077 Z-0.283
X-35.666 Y24.116 Z-0.332
X-35.631 Y24.163 Z-0.369
X-35.591 Y24.216 Z-0.392
X-35.55 Y24.271 Z-0.4
G3 X-34.899 Y25.847 I-2.751 J2.059
G1 X-34.884 Y25.991
X-34.853 Y26.135
X-34.809 Y26.279
X-34.784 Y26.344
X-34.748 Y26.423
X-34.669 Y26.568
X-34.64 Y26.609
X-34.496 Y26.796
X-34.435 Y26.856
X-34.351 Y26.932
X-34.207 Y27.04
X-34.063 Y27.123
X-33.971 Y27.172
X-33.945 Y27.183
X-33.919 Y27.191
X-33.577 Y27.283
X-33.198 Y27.299
X-33.054 Y27.301
X-7.252 Y27.334
X-4.802 Y27.326
X-4.423 Y27.322
X-4.405 Y27.321
X-4.242 Y27.288
G3 X-3.888 Y27.533 I0.05 J0.306
G1 X-3.882 Y27.594 Z-0.393
X-3.896 Y27.649 Z-0.376
X-3.909 Y27.7 Z-0.348
X-3.921 Y27.744 Z-0.31
X-3.944 Y27.775 Z-0.263
X-3.962 Y27.798 Z-0.209
X-3.973 Y27.812 Z-0.151
X-3.976 Y27.817 Z-0.09
G0 Z5
X-36.173 Y25.337
Z0.283
G1 Z-0.027 F1000
X-36.166 Y25.341 Z-0.096
X-36.147 Y25.354 Z-0.162
X-36.116 Y25.373 Z-0.221
X-36.074 Y25.4 Z-0.27
X-36.025 Y25.431 Z-0.307
X-35.969 Y25.466 Z-0.33
X-35.911 Y25.503 Z-0.337
G3 X-34.579 Y26.568 I-4.245 J6.68
G1 X-34.386 Y26.773
X-34.207 Y26.906
X-34.063 Y26.988
X-33.995 Y27.024
X-33.98 Y27.03
X-33.576 Y27.144
X-33.198 Y27.16
X-33.054 Y27.162
X-16.622 Y27.183
X-15.757 Y27.18
X-4.802 Y27.143
X-4.405 Y27.139
X-4.225 Y27.104
G3 X-3.963 Y27.635 I0.048 J0.306
G1 X-4.012 Y27.682 Z-0.33
X-4.06 Y27.728 Z-0.307
X-4.102 Y27.768 Z-0.27
X-4.138 Y27.802 Z-0.221
X-4.164 Y27.828 Z-0.162
X-4.181 Y27.844 Z-0.096
X-4.187 Y27.849 Z-0.027
G0 Z5
X-4.935 Y18.96
Z0.283
G1 Z-0.027 F1000
X-4.929 Y18.966 Z-0.096
X-4.912 Y18.981 Z-0.162
X-4.885 Y19.006 Z-0.221
X-4.849 Y19.039 Z-0.27
X-4.805 Y19.079 Z-0.307
X-4.757 Y19.123 Z-0.33
X-4.706 Y19.17 Z-0.337
G3 X-3.17 Y21.91 I-3.369 J3.688
G1 X-3.36 Y21.724
X-3.437 Y21.667
X-3.504 Y21.62
X-3.649 Y21.531
X-3.665 Y21.522
X-3.793 Y21.475
X-3.955 Y21.416
X-3.973 Y21.41
X-4.369 Y21.363
X-4.513 Y21.36
X-32.478 Y21.341
X-33.198 Y21.342
X-33.577 Y21.345
X-33.595 Y21.346
X-33.752 Y21.378
G3 X-34.107 Y21.135 I-0.051 J-0.306
G1 X-34.113 Y21.073 Z-0.331
X-34.099 Y21.018 Z-0.313
X-34.086 Y20.967 Z-0.284
X-34.075 Y20.923 Z-0.246
X-34.051 Y20.892 Z-0.199
X-34.034 Y20.87 Z-0.146
X-34.024 Y20.856 Z-0.088
X-34.02 Y20.851 Z-0.028
G0 Z5
X-35.863 Y27.399
Z0.345
G1 Z0.035 F1000
X-35.855 Y27.397 Z-0.034
X-35.833 Y27.391 Z-0.1
X-35.797 Y27.382 Z-0.159
X-35.75 Y27.37 Z-0.208
X-35.693 Y27.355 Z-0.245
X-35.629 Y27.339 Z-0.268
X-35.562 Y27.322 Z-0.275
G3 X-33.875 Y27.079 I1.964 J7.667
G1 X-33.716
X-33.567 Y27.046
X-33.489 Y27.027
X-33.411 Y27.017
X-33.331 Y27.016
X-33.198 Y27.021
X-33.054 Y27.023
X-25.847 Y27.032
X-4.802 Y26.961
X-4.405 Y26.958
X-4.225 Y26.924
G3 X-3.966 Y27.456 I0.046 J0.307
G1 X-4.016 Y27.503 Z-0.268
X-4.063 Y27.548 Z-0.245
X-4.106 Y27.588 Z-0.208
X-4.142 Y27.622 Z-0.159
X-4.168 Y27.648 Z-0.1
X-4.185 Y27.663 Z-0.034
X-4.191 Y27.669 Z0.035
G0 Z5
X-1.646 Y23.219
Z0.345
G1 Z0.035 F1000
X-1.653 Y23.215 Z-0.034
X-1.672 Y23.202 Z-0.1
X-1.703 Y23.182 Z-0.159
X-1.744 Y23.155 Z-0.208
X-1.793 Y23.122 Z-0.245
X-1.847 Y23.086 Z-0.268
X-1.905 Y23.048 Z-0.275
G3 X-3.216 Y21.958 I4.374 J-6.596
G1 X-3.375 Y21.811
X-3.504 Y21.716
X-3.581 Y21.667
X-3.793 Y21.572
X-3.908 Y21.522
X-3.937 Y21.514
X-4.081 Y21.493
X-4.369 Y21.458
X-4.513 Y21.455
X-21.955 Y21.443
X-33.054 Y21.456
X-33.342 Y21.459
X-33.595 Y21.462
X-33.775 Y21.496
G3 X-34.127 Y21.249 I-0.048 J-0.306
G1 X-34.133 Y21.19 Z-0.27
X-34.119 Y21.136 Z-0.252
X-34.106 Y21.085 Z-0.225
X-34.094 Y21.04 Z-0.188
X-34.07 Y21.009 Z-0.14
X-34.052 Y20.985 Z-0.086
X-34.041 Y20.971 Z-0.027
X-34.037 Y20.966 Z0.034
G0 Z5
X-35.693 Y23.016
Z0.407
G1 Z0.097 F1000
X-35.689 Y23.023 Z0.028
X-35.676 Y23.042 Z-0.038
X-35.655 Y23.072 Z-0.097
X-35.628 Y23.113 Z-0.146
X-35.595 Y23.162 Z-0.183
X-35.559 Y23.216 Z-0.205
X-35.521 Y23.274 Z-0.213
G3 X-34.953 Y24.881 I-2.854 J1.912
G1 X-34.924 Y25.414
X-34.908 Y25.559
X-34.878 Y25.703
X-34.832 Y25.847
X-34.784 Y25.966
X-34.691 Y26.135
X-34.64 Y26.207
X-34.587 Y26.279
X-34.496 Y26.38
X-34.389 Y26.487
X-34.377 Y26.496
X-34.041 Y26.712
X-34.01 Y26.73
X-33.98 Y26.74
X-33.577 Y26.85
X-33.198 Y26.864
X-33.054 Y26.866
X-31.613 Y26.869
X-30.027 Y26.864
X-4.802 Y26.779
X-4.513 Y26.777
X-4.369 Y26.77
X-4.225 Y26.744
G3 X-3.979 Y26.805 I0.055 J0.305
G2 X-3.518 Y26.714 I0.192 J-0.244
G1 X-1.723 Y23.559
G2 X-1.83 Y23.142 I-0.269 J-0.153
G3 X-3.18 Y22.099 I4.137 J-6.747
G1 X-3.319 Y21.955
X-3.36 Y21.923
X-3.565 Y21.774
X-3.581 Y21.765
X-3.973 Y21.603
X-3.991 Y21.6
X-4.369 Y21.553
X-4.513 Y21.55
X-8.982 Y21.547
X-33.054 Y21.576
X-33.342 Y21.578
X-33.577 Y21.581
X-33.595 Y21.582
X-33.775 Y21.62
G3 X-34.131 Y21.379 I-0.053 J-0.305
G1 X-34.138 Y21.315 Z-0.206
X-34.124 Y21.26 Z-0.188
X-34.111 Y21.209 Z-0.159
X-34.099 Y21.165 Z-0.121
X-34.077 Y21.135 Z-0.074
X-34.06 Y21.113 Z-0.021
X-34.049 Y21.099 Z0.037
X-34.046 Y21.094 Z0.097
G0 Z5
X-4.056 Y18.96
Z0.462
G1 Z0.152 F1000
X-4.051 Y18.966 Z0.083
X-4.034 Y18.981 Z0.017
X-4.007 Y19.007 Z-0.041
X-3.971 Y19.04 Z-0.091
X-3.928 Y19.08 Z-0.127
X-3.88 Y19.125 Z-0.15
X-3.83 Y19.172 Z-0.158
G3 X-3.168 Y22.243 I-1.887 J2.014
G1 X-3.216 Y22.197
X-3.36 Y22.063
X-3.478 Y21.955
X-3.558 Y21.902
X-3.576 Y21.894
X-3.973 Y21.728
X-3.991 Y21.725
X-4.369 Y21.677
X-4.513 Y21.674
X-14.459 Y21.66
X-33.054 Y21.682
X-33.342 Y21.685
X-33.577 Y21.688
X-33.595 Y21.689
X-33.775 Y21.727
G3 X-34.023 Y21.673 I-0.064 J-0.303
G2 X-34.458 Y21.741 I-0.184 J0.25
G1 X-34.478 Y21.769
X-35.525 Y23.212
G2 X-35.529 Y23.571 I0.251 J0.182
G3 X-34.937 Y25.17 I-2.825 J1.956
G1 X-34.928 Y25.287
X-34.908 Y25.414
X-34.871 Y25.559
X-34.817 Y25.703
X-34.784 Y25.782
X-34.75 Y25.847
X-34.656 Y25.991
X-34.64 Y26.014
X-34.541 Y26.135
X-34.401 Y26.279
X-34.389 Y26.289
X-33.991 Y26.531
X-33.973 Y26.539
X-33.577 Y26.645
X-33.198 Y26.657
X-33.054 Y26.659
X-23.108 Y26.679
X-4.802 Y26.617
X-4.513 Y26.615
X-4.369 Y26.608
X-4.225 Y26.583
G3 X-3.877 Y26.836 I0.043 J0.307
G1 X-3.872 Y26.89 Z-0.153
X-3.886 Y26.944 Z-0.137
