(1001)
(Chair back)
(T1  D=3.1 CR=0 - ZMIN=-20.032 - flat end mill)
G90 G94
G17
G21

(Adaptive1)
S10000 M3
G54
G0 Z10
G0 X12.614 Y51.8
G1 Z1.346 F1000
Z-0.654
G3 X12.009 Y52.401 I-0.402 J0.2
G1 X11.973 Y52.374
X11.937 Y52.337
X11.908 Y52.298
X11.887 Y52.262
X11.871 Y52.226
X11.856 Y52.163
X11.858 Y52.131
X11.872 Y52.101
X11.896 Y52.079
X11.927 Y52.067
X11.959 Y52.068
X11.99 Y52.081
X12.013 Y52.104
X12.025 Y52.135
X12.033 Y52.172
X12.032 Y52.207
X12.018 Y52.239
X11.992 Y52.263
X11.958 Y52.274
X11.923 Y52.271
X11.892 Y52.254
X11.871 Y52.226
X11.86 Y52.19
X11.854 Y52.154
X11.86 Y51.982
X11.878 Y51.833
X11.928 Y51.691
X12 Y51.56
X12.093 Y51.442
X12.201 Y51.337
X12.319 Y51.245
X12.462 Y51.153
X12.645 Y51.054
X12.883 Y50.95
X13.199 Y50.84
X13.64 Y50.726
X14.265 Y50.617
X14.832 Y50.562
X14.879 Y50.56
G3 X14.996 Y51.153 I-0.011 J0.31
G1 X12.495 Y52.279
X12.285 Y52.374
G3 X11.854 Y52.154 I-0.127 J-0.283
G1 X11.852 Y52.01
Y51.39
X11.86 Y51.24
X11.894 Y51.094
X11.95 Y50.955
X11.96 Y50.936
X12.075 Y50.781
X12.226 Y50.661
X12.404 Y50.586
X12.595 Y50.56
G3 X12.823 Y51.068 I-0.011 J0.31
G1 X12.762 Y51.141
X12.424 Y51.548
X12.401 Y51.577
G3 X11.852 Y51.39 I-0.239 J-0.198
G1 Y51.001
X11.853 Y50.857
X11.859 Y50.821
X11.869 Y50.785
X11.884 Y50.749
X11.904 Y50.713
X11.937 Y50.672
X11.973 Y50.636
X12.009 Y50.609
X12.045 Y50.589
X12.081 Y50.575
X12.103 Y50.569
X12.133 Y50.563
X12.164 Y50.56
X23.469
X23.864 Y50.58
X24.12 Y50.614
X24.338 Y50.66
X24.565 Y50.728
X24.728 Y50.792
X24.853 Y50.852
X25.02 Y50.965
X25.15 Y51.119
X25.232 Y51.303
X25.26 Y51.503
G3 X24.83 Y51.778 I-0.31 J-0.011
G1 X24.659 Y51.706
X23.359 Y51.156
G3 X23.469 Y50.56 I0.121 J-0.286
G1 X24.91
X24.961 Y50.561
X25.011 Y50.569
X25.054 Y50.583
X25.09 Y50.6
X25.126 Y50.623
X25.147 Y50.641
X25.168 Y50.661
X25.198 Y50.699
X25.208 Y50.713
X25.229 Y50.749
X25.244 Y50.785
X25.254 Y50.821
X25.259 Y50.857
X25.26 Y51.001
Y52.01
X25.259 Y52.154
X25.252 Y52.19
X25.242 Y52.226
G3 X24.839 Y52.376 I-0.28 J-0.134
G1 X24.796 Y52.343 Z-0.649
X24.755 Y52.311 Z-0.635
X24.717 Y52.281 Z-0.612
X24.696 Y52.234 Z-0.574
X24.679 Y52.195 Z-0.526
X24.667 Y52.166 Z-0.47
X24.659 Y52.148 Z-0.409
X24.656 Y52.142 Z-0.345
G0 Z5
X1.725 Y28
Z-0.034
G1 Z-0.344 F1000
X1.733 Y27.998 Z-0.413
X1.755 Y27.992 Z-0.479
X1.791 Y27.983 Z-0.538
X1.838 Y27.971 Z-0.587
X1.895 Y27.956 Z-0.624
X1.959 Y27.94 Z-0.647
X2.026 Y27.923 Z-0.654
G3 X2.869 Y27.802 I0.982 J3.833
G1 X3.019
X3.16 Y27.854
X3.282 Y27.942
X3.39 Y28.045
X3.487 Y28.16
X3.59 Y28.305
X3.703 Y28.492
X3.824 Y28.738
X3.956 Y29.07
X4.102 Y29.543
X4.239 Y30.162
X4.335 Y30.789
X4.407 Y31.42
X4.466 Y32.051
X4.517 Y32.684
X4.564 Y33.316
X4.608 Y33.949
X4.692 Y35.215
X4.815 Y37.115
X5.013 Y40.281
X5.13 Y42.18
X5.401 Y46.655
X5.391 Y46.831
X5.338 Y46.998
X5.246 Y47.148
X5.121 Y47.272
X5.018 Y47.351
X4.82 Y47.524
X4.802 Y47.543
X4.688 Y47.687
X4.585 Y47.864
X4.535 Y47.975
X4.48 Y48.119
X4.441 Y48.277
X4.422 Y48.407
X4.413 Y48.551
X4.417 Y48.696
X4.439 Y49.128
X4.441 Y49.148
X4.457 Y49.272
X4.49 Y49.416
X4.537 Y49.56
X4.62 Y49.74
X4.63 Y49.758
X4.794 Y49.992
X4.873 Y50.086
X4.923 Y50.137
X5.018 Y50.209
X5.162 Y50.314
X5.306 Y50.4
X5.333 Y50.414
X5.356 Y50.425
X5.384 Y50.437
X5.52 Y50.502
X5.644 Y50.628
X5.725 Y50.786
X5.752 Y50.961
G3 X5.195 Y51.136 I-0.31 J-0.011
G1 X5.181 Y51.119
X5.026 Y50.913
G3 X5.273 Y50.416 I0.248 J-0.186
G1 X5.274
X5.33 Y50.422
X5.384 Y50.437
X5.45 Y50.464
X5.522 Y50.489
X5.558 Y50.503
X5.594 Y50.522
X5.624 Y50.543
X5.653 Y50.569
X5.684 Y50.603
X5.708 Y50.637
X5.726 Y50.67
X5.738 Y50.704
X5.741 Y50.713
X5.749 Y50.749
X5.752 Y50.785
Y52.01
X5.75 Y52.154
X5.746 Y52.183
X5.738 Y52.212
X5.721 Y52.255
G3 X5.147 Y52.113 I-0.265 J-0.161
G1 X5.143 Y52.044 Z-0.647
X5.139 Y51.979 Z-0.624
X5.135 Y51.92 Z-0.587
X5.132 Y51.871 Z-0.538
X5.13 Y51.834 Z-0.479
X5.129 Y51.811 Z-0.413
X5.128 Y51.803 Z-0.344
G0 Z5
X2.919 Y2.467
Z-0.034
G1 Z-0.344 F1000
X2.915 Y2.46 Z-0.413
X2.904 Y2.44 Z-0.479
X2.886 Y2.407 Z-0.538
X2.862 Y2.364 Z-0.587
X2.834 Y2.313 Z-0.624
X2.803 Y2.256 Z-0.647
X2.769 Y2.195 Z-0.654
G3 X3.432 Y1.659 I0.379 J-0.209
G1 X3.457 Y1.689
X3.477 Y1.72
X3.494 Y1.756
X3.506 Y1.792
X3.514 Y1.828
X3.517 Y1.864
Y3.593
X3.515 Y3.737
X3.508 Y3.773
X3.497 Y3.809
X3.481 Y3.845
X3.459 Y3.881
X3.432 Y3.915
X3.396 Y3.951
X3.36 Y3.979
X3.266 Y4.026
X3.144 Y4.091
X3.025 Y4.17
X2.999 Y4.187
X2.927 Y4.243
X2.851 Y4.314
X2.717 Y4.458
X2.614 Y4.602
X2.567 Y4.683
X2.532 Y4.746
X2.471 Y4.89
X2.425 Y5.034
X2.395 Y5.178
X2.378 Y5.322
X2.374 Y5.466
Y6.763
X2.376 Y6.907
X2.383 Y7.196
X2.388 Y7.34
X2.409 Y7.772
X2.437 Y8.204
X2.446 Y8.276
X2.459 Y8.348
X2.498 Y8.493
X2.552 Y8.637
X2.567 Y8.669
X2.624 Y8.781
X2.711 Y8.91
X2.784 Y9.004
X2.87 Y9.127
X2.974 Y9.306
X3.086 Y9.54
X3.206 Y9.851
X3.334 Y10.284
X3.464 Y10.905
X3.546 Y11.534
X3.602 Y12.166
X3.642 Y12.799
X3.673 Y13.433
X3.7 Y14.067
X3.723 Y14.701
X3.744 Y15.335
X3.783 Y16.603
X3.854 Y19.14
X3.924 Y21.677
X3.944 Y22.311
X3.967 Y22.945
X3.993 Y23.579
X4.023 Y24.213
X4.054 Y24.846
X4.089 Y25.48
X4.135 Y26.112
X4.328 Y26.717
X4.809 Y27.891
X5.024 Y28.488
X5.207 Y29.095
X5.353 Y29.713
X5.469 Y30.336
X5.562 Y30.964
X5.638 Y31.594
X5.702 Y32.225
X5.758 Y32.857
X5.809 Y33.489
X5.856 Y34.122
X5.9 Y34.755
X5.943 Y35.388
X6.026 Y36.654
X6.147 Y38.554
X6.305 Y41.086
X6.498 Y44.253
X6.575 Y45.519
X6.586 Y45.928
X6.571 Y46.231
X6.547 Y46.407
X6.496 Y46.593
X6.398 Y46.76
X6.259 Y46.894
X6.089 Y46.987
X5.901 Y47.031
X5.839 Y47.037
G3 X5.626 Y46.485 I-0.02 J-0.309
G1 X5.68 Y46.442 Z-0.647
X5.732 Y46.401 Z-0.624
X5.778 Y46.365 Z-0.587
X5.816 Y46.334 Z-0.538
X5.845 Y46.311 Z-0.479
X5.863 Y46.297 Z-0.413
X5.869 Y46.292 Z-0.344
G0 Z5
X1.858 Y8.432
Z-0.034
G1 Z-0.344 F1000
X1.865 Y8.435 Z-0.413
X1.886 Y8.443 Z-0.479
X1.921 Y8.457 Z-0.538
X1.966 Y8.475 Z-0.587
X2.021 Y8.496 Z-0.624
X2.082 Y8.52 Z-0.647
X2.146 Y8.545 Z-0.654
G3 X2.784 Y9.004 I-0.577 J1.474
G1 X2.834 Y9.069
X2.855 Y9.092
X2.999 Y9.218
X3.144 Y9.324
X3.288 Y9.41
X3.306 Y9.419
X3.324 Y9.425
X3.464 Y9.478
X3.586 Y9.565
X3.699 Y9.665
X3.809 Y9.78
X3.923 Y9.92
X4.048 Y10.101
X4.175 Y10.322
X4.308 Y10.605
X4.447 Y10.97
X4.592 Y11.473
X4.719 Y12.095
X4.804 Y12.723
X4.864 Y13.355
X4.908 Y13.988
X4.942 Y14.621
X4.97 Y15.255
X4.994 Y15.889
X5.016 Y16.523
X5.055 Y17.792
X5.145 Y20.962
X5.164 Y21.597
X5.185 Y22.231
X5.209 Y22.865
X5.236 Y23.498
X5.265 Y24.132
X5.298 Y24.766
X5.381 Y25.395
X5.529 Y26.012
X5.715 Y26.618
X5.913 Y27.221
X6.105 Y27.826
X6.281 Y28.435
X6.436 Y29.05
X6.568 Y29.671
X6.68 Y30.295
X6.775 Y30.923
X6.854 Y31.552
X6.923 Y32.183
X6.983 Y32.814
X7.038 Y33.447
X7.087 Y34.079
X7.134 Y34.712
X7.179 Y35.345
X7.222 Y35.978
X7.305 Y37.244
X7.426 Y39.143
X7.583 Y41.676
X7.738 Y44.209
X7.773 Y44.842
X7.785 Y45.415
X7.764 Y45.782
X7.726 Y46.053
X7.675 Y46.283
X7.614 Y46.481
X7.581 Y46.562
X7.473 Y46.747
X7.315 Y46.893
X7.122 Y46.985
X6.909 Y47.017
X6.171
X6.027 Y47.019
X5.901 Y47.031
G3 X5.689 Y46.479 I-0.02 J-0.309
G1 X5.743 Y46.436 Z-0.647
X5.794 Y46.395 Z-0.624
X5.84 Y46.359 Z-0.587
X5.879 Y46.328 Z-0.538
X5.908 Y46.305 Z-0.479
X5.925 Y46.291 Z-0.413
X5.932 Y46.286 Z-0.344
G0 Z5
X2.237 Y9.475
Z-0.034
G1 Z-0.344 F1000
X2.244 Y9.474 Z-0.413
X2.266 Y9.468 Z-0.479
X2.302 Y9.46 Z-0.538
X2.35 Y9.449 Z-0.587
X2.408 Y9.436 Z-0.624
X2.471 Y9.421 Z-0.647
X2.539 Y9.406 Z-0.654
G3 X3.324 Y9.425 I0.355 J1.542
G1 X3.684 Y9.54
X3.908 Y9.556
X4.057 Y9.574
X4.201 Y9.617
X4.338 Y9.678
X4.467 Y9.754
X4.589 Y9.841
X4.715 Y9.947
X4.857 Y10.089
X4.995 Y10.25
X5.142 Y10.452
X5.299 Y10.711
X5.451 Y11.011
X5.61 Y11.403
X5.773 Y11.917
X5.915 Y12.535
X6.015 Y13.162
X6.087 Y13.792
X6.14 Y14.425
X6.18 Y15.058
X6.213 Y15.691
X6.24 Y16.325
X6.264 Y16.959
X6.285 Y17.593
X6.324 Y18.861
X6.38 Y20.764
X6.4 Y21.398
X6.422 Y22.032
X6.446 Y22.666
X6.472 Y23.3
X6.507 Y23.933
X6.576 Y24.564
X6.687 Y25.189
X6.833 Y25.806
X6.999 Y26.418
X7.172 Y27.029
X7.34 Y27.641
X7.497 Y28.255
X7.641 Y28.873
X7.768 Y29.495
X7.879 Y30.12
X7.975 Y30.747
X8.059 Y31.375
X8.132 Y32.006
X8.197 Y32.637
X8.255 Y33.269
X8.308 Y33.901
X8.358 Y34.533
X8.404 Y35.166
X8.449 Y35.799
X8.492 Y36.432
X8.575 Y37.698
X8.696 Y39.597
X8.853 Y42.13
X8.93 Y43.397
X8.965 Y44.03
X8.989 Y44.664
X8.978 Y45.254
X8.935 Y45.7
X8.877 Y46.02
X8.808 Y46.281
X8.735 Y46.487
X8.69 Y46.588
X8.579 Y46.764
X8.423 Y46.901
X8.235 Y46.987
X8.029 Y47.017
X6.909
G3 X6.752 Y46.447 I0.011 J-0.31
G1 X6.81 Y46.41 Z-0.647
X6.865 Y46.374 Z-0.624
X6.915 Y46.342 Z-0.587
X6.956 Y46.316 Z-0.538
X6.987 Y46.296 Z-0.479
X7.006 Y46.283 Z-0.413
X7.013 Y46.279 Z-0.344
G0 Z5
X2.864 Y9.865
Z-0.034
G1 Z-0.344 F1000
X2.871 Y9.861 Z-0.413
X2.892 Y9.851 Z-0.479
X2.925 Y9.834 Z-0.538
X2.968 Y9.812 Z-0.587
X3.021 Y9.786 Z-0.624
X3.079 Y9.756 Z-0.647
X3.141 Y9.725 Z-0.654
G3 X3.908 Y9.556 I0.713 J1.413
G1 X4.009 Y9.563
X4.153 Y9.57
X4.729
X4.879 Y9.578
X5.026 Y9.609
X5.168 Y9.657
X5.304 Y9.719
X5.443 Y9.798
X5.58 Y9.891
X5.737 Y10.017
X5.889 Y10.161
X6.056 Y10.347
X6.226 Y10.569
X6.4 Y10.839
X6.578 Y11.173
X6.76 Y11.589
X6.936 Y12.101
X7.093 Y12.715
X7.208 Y13.339
X7.292 Y13.968
X7.356 Y14.599
X7.404 Y15.232
X7.443 Y15.865
X7.475 Y16.499
X7.502 Y17.133
X7.525 Y17.767
X7.547 Y18.401
X7.627 Y20.937
X7.649 Y21.571
X7.672 Y22.205
X7.699 Y22.839
X7.742 Y23.472
X7.814 Y24.102
X7.918 Y24.728
X8.049 Y25.349
X8.196 Y25.966
X8.507 Y27.196
X8.657 Y27.813
X8.797 Y28.432
X8.924 Y29.053
X9.039 Y29.677
X9.141 Y30.303
X9.231 Y30.931
X9.311 Y31.561
X9.383 Y32.191
X9.447 Y32.822
X9.505 Y33.454
X9.558 Y34.086
X9.608 Y34.719
X9.656 Y35.351
X9.701 Y35.984
X9.744 Y36.617
X9.828 Y37.883
X9.949 Y39.783
X10.067 Y41.682
X10.106 Y42.315
X10.144 Y42.949
X10.177 Y43.582
X10.195 Y44.216
X10.188 Y44.851
X10.147 Y45.398
X10.079 Y45.827
X10.002 Y46.149
X9.922 Y46.391
X9.833 Y46.604
X9.822 Y46.626
X9.708 Y46.787
X9.555 Y46.912
X9.374 Y46.99
X9.179 Y47.017
X8.029
G3 X7.872 Y46.447 I0.011 J-0.31
G1 X7.93 Y46.41 Z-0.647
X7.985 Y46.374 Z-0.624
X8.035 Y46.342 Z-0.587
X8.076 Y46.316 Z-0.538
X8.107 Y46.295 Z-0.479
X8.126 Y46.283 Z-0.413
X8.133 Y46.279 Z-0.344
G0 Z5
X3.709 Y9.95
Z-0.034
G1 Z-0.344 F1000
X3.716 Y9.946 Z-0.413
X3.736 Y9.934 Z-0.479
X3.767 Y9.915 Z-0.538
X3.81 Y9.89 Z-0.587
X3.86 Y9.86 Z-0.624
X3.916 Y9.827 Z-0.647
X3.976 Y9.791 Z-0.654
G3 X4.729 Y9.57 I0.809 J1.36
G1 X5.673
X5.823 Y9.578
X5.971 Y9.602
X6.116 Y9.642
X6.255 Y9.697
X6.391 Y9.764
X6.548 Y9.857
X6.701 Y9.966
X6.875 Y10.111
X7.046 Y10.28
X7.233 Y10.496
X7.418 Y10.749
X7.615 Y11.068
X7.805 Y11.439
X8.002 Y11.917
X8.196 Y12.521
X8.342 Y13.139
X8.451 Y13.764
X8.534 Y14.392
X8.598 Y15.024
X8.648 Y15.656
X8.688 Y16.289
X8.721 Y16.923
X8.75 Y17.557
X8.774 Y18.191
X8.797 Y18.825
X8.861 Y20.727
X8.884 Y21.361
X8.909 Y21.995
X8.945 Y22.628
X9.001 Y23.26
X9.082 Y23.889
X9.187 Y24.515
X9.312 Y25.137
X9.449 Y25.757
X9.737 Y26.992
X9.876 Y27.611
X10.009 Y28.232
X10.132 Y28.854
X10.244 Y29.479
X10.346 Y30.105
X10.437 Y30.733
X10.519 Y31.362
X10.593 Y31.992
X10.66 Y32.623
X10.721 Y33.254
X10.777 Y33.886
X10.829 Y34.518
X10.879 Y35.151
X10.925 Y35.784
X10.97 Y36.416
X11.013 Y37.049
X11.097 Y38.315
X11.218 Y40.215
X11.297 Y41.481
X11.335 Y42.115
X11.37 Y42.748
X11.397 Y43.382
X11.41 Y44.016
X11.397 Y44.651
X11.348 Y45.271
X11.268 Y45.771
X11.187 Y46.101
X11.094 Y46.38
X11.007 Y46.587
X10.985 Y46.628
X10.871 Y46.789
X10.719 Y46.912
X10.539 Y46.99
X10.344 Y47.017
X9.179
G3 X9.022 Y46.447 I0.011 J-0.31
G1 X9.08 Y46.41 Z-0.647
X9.135 Y46.374 Z-0.624
X9.184 Y46.342 Z-0.587
X9.225 Y46.315 Z-0.538
X9.256 Y46.295 Z-0.479
X9.276 Y46.283 Z-0.413
X9.282 Y46.279 Z-0.344
G0 Z-0.034
X4.653 Y9.95
G1 Z-0.344 F1000
X4.66 Y9.946 Z-0.413
X4.68 Y9.934 Z-0.479
X4.711 Y9.915 Z-0.538
X4.754 Y9.89 Z-0.587
X4.804 Y9.86 Z-0.624
X4.861 Y9.827 Z-0.647
X4.92 Y9.792 Z-0.654
G3 X5.673 Y9.57 I0.809 J1.36
G1 X6.747 Y9.571
X6.897 Y9.578
X7.045 Y9.604
X7.189 Y9.645
X7.329 Y9.699
X7.485 Y9.775
X7.639 Y9.866
X7.813 Y9.989
X7.987 Y10.133
X8.178 Y10.32
X8.37 Y10.541
X8.575 Y10.819
X8.78 Y11.149
X8.994 Y11.565
X9.196 Y12.051
X9.393 Y12.654
X9.543 Y13.271
X9.658 Y13.895
X9.747 Y14.523
X9.817 Y15.153
X9.873 Y15.785
X9.917 Y16.418
X9.954 Y17.052
X9.985 Y17.685
X10.013 Y18.319
X10.037 Y18.953
X10.107 Y20.855
X10.134 Y21.489
X10.171 Y22.122
X10.225 Y22.754
X10.299 Y23.385
X10.394 Y24.012
X10.507 Y24.636
X10.633 Y25.258
X10.766 Y25.878
X10.902 Y26.498
X11.036 Y27.118
X11.166 Y27.739
X11.288 Y28.362
X11.402 Y28.986
X11.508 Y29.611
X11.604 Y30.238
X11.691 Y30.867
X11.77 Y31.496
X11.842 Y32.127
X11.908 Y32.758
X11.969 Y33.389
X12.025 Y34.021
X12.077 Y34.653
X12.127 Y35.286
X12.174 Y35.919
X12.219 Y36.551
X12.263 Y37.184
X12.347 Y38.45
X12.428 Y39.717
X12.507 Y40.983
X12.545 Y41.616
X12.58 Y42.25
X12.607 Y42.884
X12.622 Y43.518
X12.618 Y44.152
X12.586 Y44.786
X12.517 Y45.405
X12.427 Y45.871
X12.338 Y46.193
X12.245 Y46.448
X12.176 Y46.597
X12.064 Y46.769
X11.909 Y46.903
X11.722 Y46.988
X11.519 Y47.017
X10.344
G3 X10.187 Y46.447 I0.011 J-0.31
G1 X10.245 Y46.409 Z-0.647
X10.3 Y46.374 Z-0.624
X10.349 Y46.342 Z-0.587
X10.39 Y46.315 Z-0.538
X10.421 Y46.295 Z-0.479
X10.441 Y46.283 Z-0.413
X10.447 Y46.279 Z-0.344
G0 Z-0.034
X5.727 Y9.95
G1 Z-0.344 F1000
X5.734 Y9.946 Z-0.413
X5.754 Y9.935 Z-0.479
X5.785 Y9.916 Z-0.538
X5.828 Y9.891 Z-0.587
X5.878 Y9.861 Z-0.624
X5.934 Y9.827 Z-0.647
X5.994 Y9.792 Z-0.654
G3 X6.747 Y9.571 I0.809 J1.36
G1 X7.836
X7.985 Y9.578
X8.134 Y9.603
X8.278 Y9.642
X8.419 Y9.695
X8.571 Y9.766
X8.738 Y9.861
X8.908 Y9.976
X9.101 Y10.132
X9.288 Y10.309
X9.5 Y10.544
X9.7 Y10.807
X9.923 Y11.153
X10.138 Y11.556
X10.354 Y12.051
X10.56 Y12.651
X10.721 Y13.265
X10.847 Y13.887
X10.945 Y14.514
X11.024 Y15.143
X11.086 Y15.774
X11.137 Y16.407
X11.179 Y17.04
X11.214 Y17.673
X11.244 Y18.307
X11.272 Y18.941
X11.323 Y20.209
X11.351 Y20.843
X11.387 Y21.476
X11.435 Y22.109
X11.499 Y22.74
X11.582 Y23.369
X11.681 Y23.995
X11.794 Y24.62
X11.916 Y25.242
X12.043 Y25.864
X12.172 Y26.485
X12.299 Y27.107
X12.421 Y27.729
X12.538 Y28.353
X12.647 Y28.978
X12.748 Y29.604
X12.841 Y30.232
X12.927 Y30.86
X13.005 Y31.49
X13.077 Y32.12
X13.143 Y32.751
X13.204 Y33.383
X13.261 Y34.015
X13.314 Y34.647
X13.364 Y35.279
X13.412 Y35.912
X13.458 Y36.545
X13.502 Y37.178
X13.587 Y38.444
X13.669 Y39.71
X13.709 Y40.343
X13.747 Y40.976
X13.782 Y41.61
X13.812 Y42.243
X13.832 Y42.878
X13.839 Y43.512
X13.826 Y44.146
X13.787 Y44.779
X13.71 Y45.407
X13.614 Y45.877
X13.514 Y46.22
X13.423 Y46.459
X13.355 Y46.604
X13.242 Y46.774
X13.088 Y46.905
X12.902 Y46.989
X12.701 Y47.017
X11.519
G3 X11.362 Y46.447 I0.011 J-0.31
G1 X11.42 Y46.409 Z-0.647
X11.475 Y46.374 Z-0.624
X11.524 Y46.342 Z-0.587
X11.565 Y46.315 Z-0.538
X11.596 Y46.295 Z-0.479
X11.616 Y46.283 Z-0.413
X11.622 Y46.279 Z-0.344
G0 Z-0.034
X6.816 Y9.95
G1 Z-0.344 F1000
X6.822 Y9.946 Z-0.413
X6.842 Y9.935 Z-0.479
X6.874 Y9.916 Z-0.538
X6.916 Y9.891 Z-0.587
X6.966 Y9.861 Z-0.624
X7.023 Y9.827 Z-0.647
X7.082 Y9.792 Z-0.654
G3 X7.836 Y9.571 I0.809 J1.36
G1 X8.989
X9.139 Y9.579
X9.286 Y9.606
X9.43 Y9.648
X9.571 Y9.702
X9.733 Y9.779
X9.902 Y9.878
X10.084 Y10.004
X10.277 Y10.163
X10.477 Y10.356
X10.691 Y10.599
X10.907 Y10.889
X11.131 Y11.244
X11.364 Y11.69
X11.591 Y12.226
X11.791 Y12.828
X11.949 Y13.443
X12.074 Y14.065
X12.173 Y14.691
X12.253 Y15.321
X12.318 Y15.952
X12.371 Y16.584
X12.414 Y17.217
X12.452 Y17.85
X12.485 Y18.484
X12.543 Y19.751
X12.574 Y20.385
X12.611 Y21.018
X12.658 Y21.651
X12.72 Y22.282
X12.797 Y22.912
X12.889 Y23.54
X12.994 Y24.165
X13.108 Y24.79
X13.228 Y25.412
X13.474 Y26.657
X13.594 Y27.28
X13.709 Y27.904
X13.818 Y28.529
X13.921 Y29.155
X14.017 Y29.782
X14.106 Y30.411
X14.188 Y31.04
X14.263 Y31.67
X14.333 Y32.3
X14.398 Y32.931
X14.458 Y33.563
X14.514 Y34.195
X14.567 Y34.827
X14.617 Y35.46
X14.664 Y36.092
X14.71 Y36.725
X14.755 Y37.358
X14.798 Y37.991
X14.881 Y39.257
X14.921 Y39.89
X14.959 Y40.523
X14.995 Y41.157
X15.025 Y41.791
X15.046 Y42.425
X15.056 Y43.059
X15.05 Y43.693
X15.023 Y44.327
X14.967 Y44.959
X14.875 Y45.565
X14.777 Y45.982
X14.672 Y46.307
X14.579 Y46.532
X14.532 Y46.623
X14.419 Y46.785
X14.266 Y46.911
X14.084 Y46.99
X13.888 Y47.017
X12.701
G3 X12.544 Y46.447 I0.011 J-0.31
G1 X12.602 Y46.409 Z-0.647
X12.657 Y46.374 Z-0.624
X12.706 Y46.342 Z-0.587
X12.747 Y46.315 Z-0.538
X12.779 Y46.295 Z-0.479
X12.798 Y46.283 Z-0.413
X12.804 Y46.279 Z-0.344
G0 Z-0.034
X7.969 Y9.951
G1 Z-0.344 F1000
X7.975 Y9.947 Z-0.413
X7.995 Y9.935 Z-0.479
X8.027 Y9.916 Z-0.538
X8.069 Y9.891 Z-0.587
X8.12 Y9.861 Z-0.624
X8.176 Y9.827 Z-0.647
X8.235 Y9.792 Z-0.654
G3 X8.989 Y9.571 I0.809 J1.36
G1 X10.063
X10.215 Y9.579
X10.364 Y9.598
X10.51 Y9.633
X10.659 Y9.683
X10.808 Y9.747
X10.979 Y9.838
X11.154 Y9.95
X11.346 Y10.094
X11.549 Y10.275
X11.759 Y10.495
X11.982 Y10.77
X12.212 Y11.104
X12.44 Y11.5
X12.677 Y12.003
X12.901 Y12.596
X13.08 Y13.205
X13.224 Y13.823
X13.339 Y14.447
X13.432 Y15.074
X13.508 Y15.704
X13.57 Y16.336
X13.622 Y16.968
X13.665 Y17.601
X13.703 Y18.234
X13.737 Y18.868
X13.77 Y19.501
X13.805 Y20.135
X13.847 Y20.768
X13.898 Y21.4
X13.962 Y22.031
X14.039 Y22.661
X14.129 Y23.289
X14.23 Y23.915
X14.339 Y24.54
X14.454 Y25.164
X14.69 Y26.411
X14.806 Y27.035
X14.918 Y27.659
X15.026 Y28.284
X15.128 Y28.911
X15.223 Y29.538
X15.312 Y30.166
X15.395 Y30.795
X15.472 Y31.425
X15.544 Y32.055
X15.61 Y32.686
X15.672 Y33.317
X15.73 Y33.949
X15.784 Y34.581
X15.836 Y35.214
X15.885 Y35.846
X15.932 Y36.479
X15.977 Y37.112
X16.021 Y37.745
X16.064 Y38.378
X16.106 Y39.011
X16.146 Y39.644
X16.183 Y40.277
X16.218 Y40.911
X16.247 Y41.544
X16.267 Y42.179
X16.277 Y42.813
X16.272 Y43.447
X16.247 Y44.081
X16.196 Y44.714
X16.112 Y45.343
X16.007 Y45.848
X15.906 Y46.195
X15.806 Y46.456
X15.734 Y46.606
X15.622 Y46.775
X15.467 Y46.906
X15.282 Y46.989
X15.081 Y47.017
X13.888
G3 X13.731 Y46.447 I0.011 J-0.31
G1 X13.789 Y46.409 Z-0.647
X13.844 Y46.374 Z-0.624
X13.893 Y46.342 Z-0.587
X13.934 Y46.315 Z-0.538
X13.965 Y46.295 Z-0.479
X13.985 Y46.283 Z-0.413
X13.991 Y46.279 Z-0.344
G0 Z-0.034
X9.043 Y9.951
G1 Z-0.344 F1000
X9.049 Y9.947 Z-0.413
X9.069 Y9.935 Z-0.479
X9.101 Y9.916 Z-0.538
X9.143 Y9.891 Z-0.587
X9.194 Y9.861 Z-0.624
X9.25 Y9.828 Z-0.647
X9.309 Y9.792 Z-0.654
G3 X10.063 Y9.571 I0.809 J1.36
G1 X11.216
X11.375 Y9.579
X11.524 Y9.599
X11.669 Y9.634
X11.812 Y9.681
X11.972 Y9.75
X12.141 Y9.839
X12.322 Y9.954
X12.518 Y10.102
X12.718 Y10.279
X12.941 Y10.511
X13.16 Y10.78
X13.397 Y11.123
X13.641 Y11.545
X13.877 Y12.042
X14.102 Y12.635
X14.283 Y13.243
X14.43 Y13.86
X14.549 Y14.483
X14.647 Y15.11
X14.726 Y15.74
X14.792 Y16.371
X14.848 Y17.003
X14.895 Y17.635
X14.936 Y18.268
X15.013 Y19.535
X15.055 Y20.168
X15.104 Y20.8
X15.163 Y21.432
X15.234 Y22.063
X15.316 Y22.692
X15.409 Y23.319
X15.51 Y23.946
X15.618 Y24.571
X15.73 Y25.195
X15.958 Y26.444
X16.069 Y27.068
X16.177 Y27.693
X16.281 Y28.319
X16.379 Y28.946
X16.471 Y29.574
X16.558 Y30.202
X16.639 Y30.831
X16.715 Y31.461
X16.786 Y32.092
X16.852 Y32.723
X16.913 Y33.354
X16.971 Y33.986
X17.026 Y34.618
X17.078 Y35.25
X17.127 Y35.883
X17.174 Y36.516
X17.22 Y37.148
X17.264 Y37.781
X17.307 Y38.414
X17.348 Y39.047
X17.387 Y39.681
X17.422 Y40.314
X17.453 Y40.948
X17.478 Y41.582
X17.493 Y42.216
X17.497 Y42.85
X17.485 Y43.485
X17.453 Y44.118
X17.398 Y44.75
X17.309 Y45.378
X17.197 Y45.883
X17.09 Y46.234
X16.993 Y46.478
X16.927 Y46.613
X16.814 Y46.779
X16.66 Y46.908
X16.476 Y46.989
X16.278 Y47.017
X15.081
G3 X14.924 Y46.447 I0.011 J-0.31
G1 X14.982 Y46.409 Z-0.647
X15.037 Y46.374 Z-0.624
X15.087 Y46.342 Z-0.587
X15.128 Y46.315 Z-0.538
X15.159 Y46.295 Z-0.479
X15.178 Y46.283 Z-0.413
X15.185 Y46.279 Z-0.344
G0 Z-0.034
X10.196 Y9.951
G1 Z-0.344 F1000
X10.203 Y9.947 Z-0.413
X10.222 Y9.935 Z-0.479
X10.254 Y9.916 Z-0.538
X10.296 Y9.891 Z-0.587
X10.347 Y9.861 Z-0.624
X10.403 Y9.828 Z-0.647
X10.462 Y9.793 Z-0.654
G3 X11.216 Y9.571 I0.809 J1.36
G1 X12.448
X12.598 Y9.579
X12.746 Y9.605
X12.89 Y9.645
X13.036 Y9.699
X13.207 Y9.778
X13.377 Y9.875
X13.57 Y10.005
X13.77 Y10.165
X13.985 Y10.367
X14.207 Y10.613
X14.444 Y10.921
X14.678 Y11.283
X14.927 Y11.745
X15.178 Y12.318
X15.386 Y12.917
X15.555 Y13.529
X15.693 Y14.148
X15.806 Y14.772
X15.899 Y15.4
X15.977 Y16.029
X16.041 Y16.661
X16.096 Y17.293
X16.144 Y17.925
X16.231 Y19.191
X16.277 Y19.824
X16.328 Y20.456
X16.388 Y21.088
X16.458 Y21.718
X16.538 Y22.348
X16.628 Y22.976
X16.725 Y23.603
X16.829 Y24.229
X16.937 Y24.854
X17.158 Y26.103
X17.267 Y26.728
X17.373 Y27.354
X17.476 Y27.98
X17.574 Y28.607
X17.667 Y29.234
X17.755 Y29.863
X17.837 Y30.492
X17.915 Y31.121
X17.987 Y31.752
X18.055 Y32.382
X18.119 Y33.014
X18.179 Y33.645
X18.235 Y34.277
X18.289 Y34.909
X18.34 Y35.542
X18.389 Y36.174
X18.435 Y36.807
X18.48 Y37.44
X18.524 Y38.073
X18.565 Y38.706
X18.605 Y39.339
X18.64 Y39.972
X18.672 Y40.606
X18.697 Y41.24
X18.713 Y41.874
X18.719 Y42.509
X18.711 Y43.143
X18.686 Y43.777
X18.639 Y44.41
X18.565 Y45.04
X18.457 Y45.644
X18.349 Y46.053
X18.239 Y46.366
X18.14 Y46.588
X18.112 Y46.64
X17.998 Y46.795
X17.846 Y46.916
X17.668 Y46.991
X17.477 Y47.017
X16.278
G3 X16.12 Y46.447 I0.011 J-0.31
G1 X16.178 Y46.409 Z-0.647
X16.233 Y46.374 Z-0.624
X16.283 Y46.342 Z-0.587
X16.324 Y46.315 Z-0.538
X16.355 Y46.295 Z-0.479
X16.374 Y46.283 Z-0.413
X16.381 Y46.279 Z-0.344
G0 Z-0.034
X11.428 Y9.951
G1 Z-0.344 F1000
X11.435 Y9.947 Z-0.413
X11.455 Y9.935 Z-0.479
X11.487 Y9.916 Z-0.538
X11.529 Y9.891 Z-0.587
X11.579 Y9.861 Z-0.624
X11.636 Y9.828 Z-0.647
X11.695 Y9.793 Z-0.654
G3 X12.448 Y9.571 I0.809 J1.36
G1 X13.602
X13.751 Y9.579
X13.9 Y9.602
X14.045 Y9.64
X14.202 Y9.696
X14.358 Y9.766
X14.541 Y9.866
X14.723 Y9.986
X14.927 Y10.145
X15.139 Y10.339
X15.366 Y10.584
X15.6 Y10.882
X15.851 Y11.259
X16.092 Y11.692
X16.347 Y12.254
X16.562 Y12.851
X16.738 Y13.46
X16.883 Y14.078
X17.003 Y14.701
X17.103 Y15.327
X17.185 Y15.956
X17.255 Y16.587
X17.315 Y17.219
X17.369 Y17.851
X17.467 Y19.116
X17.519 Y19.748
X17.576 Y20.38
X17.64 Y21.011
X17.713 Y21.641
X17.795 Y22.271
X17.885 Y22.899
X17.982 Y23.526
X18.084 Y24.152
X18.19 Y24.777
X18.404 Y26.028
X18.51 Y26.653
X18.613 Y27.279
X18.713 Y27.906
X18.809 Y28.533
X18.901 Y29.161
X18.987 Y29.789
X19.069 Y30.418
X19.146 Y31.048
X19.218 Y31.679
X19.286 Y32.309
X19.35 Y32.94
X19.411 Y33.572
X19.468 Y34.204
X19.522 Y34.836
X19.573 Y35.468
X19.622 Y36.101
X19.67 Y36.734
X19.715 Y37.366
X19.758 Y37.999
X19.799 Y38.632
X19.837 Y39.266
X19.872 Y39.899
X19.901 Y40.533
X19.924 Y41.167
X19.938 Y41.801
X19.941 Y42.436
X19.931 Y43.07
X19.904 Y43.704
X19.858 Y44.337
X19.784 Y44.967
X19.677 Y45.58
X19.561 Y46.027
X19.451 Y46.346
X19.352 Y46.571
X19.316 Y46.637
X19.202 Y46.794
X19.05 Y46.915
X18.872 Y46.991
X18.68 Y47.017
X17.477
G3 X17.32 Y46.447 I0.011 J-0.31
G1 X17.378 Y46.409 Z-0.647
X17.433 Y46.374 Z-0.624
X17.482 Y46.342 Z-0.587
X17.523 Y46.315 Z-0.538
X17.554 Y46.295 Z-0.479
X17.574 Y46.283 Z-0.413
X17.58 Y46.279 Z-0.344
G0 Z-0.034
X12.582 Y9.951
G1 Z-0.344 F1000
X12.588 Y9.947 Z-0.413
X12.608 Y9.935 Z-0.479
X12.64 Y9.916 Z-0.538
X12.682 Y9.891 Z-0.587
X12.732 Y9.861 Z-0.624
X12.789 Y9.828 Z-0.647
X12.848 Y9.793 Z-0.654
G3 X13.602 Y9.571 I0.809 J1.36
G1 X14.82
X14.969 Y9.579
X15.117 Y9.606
X15.262 Y9.647
X15.416 Y9.705
X15.581 Y9.783
X15.77 Y9.89
X15.956 Y10.018
X16.172 Y10.193
X16.379 Y10.389
X16.623 Y10.662
X16.849 Y10.96
X17.101 Y11.354
X17.361 Y11.842
X17.613 Y12.424
X17.819 Y13.024
X17.989 Y13.635
X18.13 Y14.254
X18.246 Y14.877
X18.344 Y15.504
X18.426 Y16.133
X18.497 Y16.764
X18.559 Y17.395
X18.616 Y18.027
X18.725 Y19.291
X18.784 Y19.923
X18.848 Y20.554
X18.919 Y21.184
X18.998 Y21.814
X19.085 Y22.442
X19.177 Y23.07
X19.275 Y23.697
X19.377 Y24.323
X19.691 Y26.2
X19.793 Y26.826
X19.893 Y27.453
X19.989 Y28.08
X20.082 Y28.708
X20.17 Y29.336
X20.254 Y29.965
X20.333 Y30.594
X20.407 Y31.224
X20.478 Y31.855
X20.544 Y32.486
X20.607 Y33.117
X20.666 Y33.749
X20.722 Y34.381
X20.776 Y35.013
X20.827 Y35.645
X20.875 Y36.278
X20.922 Y36.911
X20.966 Y37.544
X21.009 Y38.177
X21.048 Y38.81
X21.083 Y39.443
X21.114 Y40.077
X21.139 Y40.711
X21.156 Y41.345
X21.164 Y41.979
X21.16 Y42.614
X21.142 Y43.248
X21.106 Y43.881
X21.049 Y44.513
X20.964 Y45.142
X20.845 Y45.74
X20.737 Y46.119
X20.625 Y46.418
X20.524 Y46.635
X20.514 Y46.652
X20.399 Y46.803
X20.249 Y46.919
X20.074 Y46.992
X19.886 Y47.017
X18.68
G3 X18.522 Y46.447 I0.011 J-0.31
G1 X18.58 Y46.409 Z-0.647
X18.635 Y46.374 Z-0.624
X18.685 Y46.342 Z-0.587
X18.726 Y46.315 Z-0.538
X18.757 Y46.295 Z-0.479
X18.776 Y46.283 Z-0.413
X18.783 Y46.279 Z-0.344
G0 Z-0.034
X13.8 Y9.951
G1 Z-0.344 F1000
X13.806 Y9.947 Z-0.413
X13.826 Y9.935 Z-0.479
X13.858 Y9.916 Z-0.538
X13.9 Y9.891 Z-0.587
X13.951 Y9.861 Z-0.624
X14.007 Y9.828 Z-0.647
X14.066 Y9.793 Z-0.654
G3 X14.82 Y9.571 I0.809 J1.36
G1 X15.973
X16.123 Y9.579
X16.271 Y9.602
X16.416 Y9.639
X16.573 Y9.694
X16.732 Y9.765
X16.911 Y9.862
X17.104 Y9.988
X17.304 Y10.143
X17.529 Y10.348
X17.75 Y10.585
X17.998 Y10.897
X18.245 Y11.265
X18.498 Y11.716
X18.762 Y12.293
X18.979 Y12.889
X19.159 Y13.497
X19.309 Y14.114
X19.434 Y14.736
X19.539 Y15.361
X19.629 Y15.99
X19.706 Y16.619
X19.774 Y17.25
X19.837 Y17.881
X19.957 Y19.145
X20.02 Y19.776
X20.087 Y20.407
X20.161 Y21.037
X20.241 Y21.666
X20.328 Y22.295
X20.42 Y22.922
X20.516 Y23.549
X20.616 Y24.176
X20.923 Y26.054
X21.023 Y26.681
X21.121 Y27.308
X21.216 Y27.935
X21.307 Y28.563
X21.394 Y29.191
X21.478 Y29.82
X21.556 Y30.45
X21.631 Y31.08
X21.702 Y31.71
X21.769 Y32.341
X21.832 Y32.972
X21.892 Y33.604
X21.949 Y34.236
X22.003 Y34.868
X22.054 Y35.5
X22.104 Y36.133
X22.151 Y36.765
X22.195 Y37.398
X22.237 Y38.031
X22.276 Y38.665
X22.311 Y39.298
X22.34 Y39.932
X22.364 Y40.566
X22.38 Y41.2
X22.388 Y41.834
X22.384 Y42.469
X22.366 Y43.103
X22.332 Y43.737
X22.278 Y44.369
X22.196 Y44.998
X22.083 Y45.614
X21.964 Y46.058
X21.853 Y46.369
X21.753 Y46.592
X21.725 Y46.642
X21.611 Y46.797
X21.459 Y46.916
X21.282 Y46.991
X21.091 Y47.017
X19.886
G3 X19.728 Y46.447 I0.011 J-0.31
G1 X19.786 Y46.409 Z-0.647
X19.841 Y46.374 Z-0.624
X19.891 Y46.342 Z-0.587
X19.932 Y46.315 Z-0.538
X19.963 Y46.295 Z-0.479
X19.982 Y46.283 Z-0.413
X19.989 Y46.279 Z-0.344
G0 Z-0.034
X14.953 Y9.951
G1 Z-0.344 F1000
X14.96 Y9.947 Z-0.413
X14.979 Y9.935 Z-0.479
X15.011 Y9.916 Z-0.538
X15.053 Y9.891 Z-0.587
X15.104 Y9.861 Z-0.624
X15.16 Y9.828 Z-0.647
X15.219 Y9.793 Z-0.654
G3 X15.973 Y9.571 I0.809 J1.36
G1 X17.126
X17.283 Y9.579
X17.432 Y9.599
X17.578 Y9.633
X17.734 Y9.684
X17.889 Y9.75
X18.071 Y9.844
X18.255 Y9.96
X18.46 Y10.112
X18.674 Y10.299
X18.902 Y10.534
X19.143 Y10.826
X19.396 Y11.189
X19.646 Y11.616
X19.912 Y12.169
X20.141 Y12.761
X20.33 Y13.366
X20.489 Y13.981
X20.622 Y14.601
X20.734 Y15.225
X20.831 Y15.853
X20.914 Y16.481
X20.989 Y17.112
X21.057 Y17.742
X21.188 Y19.004
X21.255 Y19.635
X21.326 Y20.266
X21.402 Y20.896
X21.483 Y21.525
X21.57 Y22.153
X21.662 Y22.781
X21.757 Y23.408
X21.855 Y24.035
X22.156 Y25.914
X22.254 Y26.541
X22.35 Y27.168
X22.444 Y27.796
X22.534 Y28.424
X22.62 Y29.052
X22.703 Y29.681
X22.782 Y30.311
X22.856 Y30.941
X22.927 Y31.571
X22.994 Y32.202
X23.058 Y32.833
X23.118 Y33.465
X23.176 Y34.097
X23.231 Y34.729
X23.283 Y35.361
X23.332 Y35.994
X23.379 Y36.626
X23.424 Y37.259
X23.466 Y37.892
X23.504 Y38.526
X23.538 Y39.159
X23.567 Y39.793
X23.59 Y40.427
X23.605 Y41.061
X23.612 Y41.696
X23.608 Y42.33
X23.591 Y42.964
X23.558 Y43.598
X23.506 Y44.23
X23.429 Y44.86
X23.32 Y45.485
X23.198 Y45.974
X23.088 Y46.303
X22.986 Y46.541
X22.938 Y46.631
X22.824 Y46.79
X22.672 Y46.913
X22.492 Y46.99
X22.298 Y47.017
X21.091
G3 X20.934 Y46.447 I0.011 J-0.31
G1 X20.992 Y46.409 Z-0.647
X21.047 Y46.374 Z-0.624
X21.096 Y46.342 Z-0.587
X21.138 Y46.315 Z-0.538
X21.169 Y46.295 Z-0.479
X21.188 Y46.283 Z-0.413
X21.195 Y46.279 Z-0.344
G0 Z-0.034
X16.106 Y9.951
G1 Z-0.344 F1000
X16.113 Y9.947 Z-0.413
X16.132 Y9.935 Z-0.479
X16.164 Y9.916 Z-0.538
X16.206 Y9.891 Z-0.587
X16.257 Y9.861 Z-0.624
X16.313 Y9.828 Z-0.647
X16.372 Y9.793 Z-0.654
G3 X17.126 Y9.571 I0.809 J1.36
G1 X18.359
X18.508 Y9.579
X18.657 Y9.601
X18.802 Y9.639
X18.951 Y9.69
X19.116 Y9.762
X19.3 Y9.861
X19.487 Y9.982
X19.701 Y10.146
X19.91 Y10.333
X20.155 Y10.593
X20.385 Y10.88
X20.642 Y11.258
X20.909 Y11.729
X21.176 Y12.305
X21.398 Y12.899
X21.581 Y13.506
X21.736 Y14.122
X21.866 Y14.743
X21.978 Y15.367
X22.074 Y15.994
X22.159 Y16.623
X22.237 Y17.253
X22.309 Y17.883
X22.449 Y19.144
X22.521 Y19.774
X22.597 Y20.404
X22.677 Y21.034
X22.761 Y21.663
X22.85 Y22.291
X22.943 Y22.918
X23.039 Y23.545
X23.235 Y24.799
X23.432 Y26.053
X23.528 Y26.68
X23.621 Y27.307
X23.712 Y27.935
X23.8 Y28.563
X23.884 Y29.192
X23.964 Y29.822
X24.041 Y30.451
X24.114 Y31.082
X24.183 Y31.712
X24.249 Y32.343
X24.312 Y32.975
X24.371 Y33.606
X24.428 Y34.238
X24.482 Y34.87
X24.533 Y35.503
X24.582 Y36.135
X24.628 Y36.768
X24.671 Y37.401
X24.711 Y38.034
X24.747 Y38.667
X24.778 Y39.301
X24.804 Y39.935
X24.823 Y40.569
X24.834 Y41.204
X24.836 Y41.838
X24.826 Y42.472
X24.803 Y43.106
X24.763 Y43.739
X24.703 Y44.371
X24.62 Y45
X24.501 Y45.623
X24.385 Y46.049
X24.27 Y46.371
X24.168 Y46.594
X24.141 Y46.644
X24.026 Y46.798
X23.875 Y46.917
X23.698 Y46.991
X23.508 Y47.017
X22.298
G3 X22.141 Y46.447 I0.011 J-0.31
G1 X22.199 Y46.409 Z-0.647
X22.254 Y46.374 Z-0.624
X22.304 Y46.342 Z-0.587
X22.345 Y46.315 Z-0.538
X22.376 Y46.295 Z-0.479
X22.395 Y46.283 Z-0.413
X22.402 Y46.279 Z-0.344
G0 Z-0.034
X17.339 Y9.951
G1 Z-0.344 F1000
X17.345 Y9.947 Z-0.413
X17.365 Y9.935 Z-0.479
X17.397 Y9.916 Z-0.538
X17.439 Y9.891 Z-0.587
X17.489 Y9.861 Z-0.624
X17.546 Y9.828 Z-0.647
X17.605 Y9.793 Z-0.654
G3 X18.359 Y9.571 I0.809 J1.36
G1 X19.577
X19.726 Y9.579
X19.874 Y9.603
X20.019 Y9.642
X20.175 Y9.697
X20.338 Y9.771
X20.528 Y9.875
X20.714 Y9.998
X20.933 Y10.169
X21.146 Y10.366
X21.392 Y10.632
X21.629 Y10.934
X21.892 Y11.33
X22.16 Y11.814
X22.422 Y12.392
X22.638 Y12.989
X22.819 Y13.597
X22.972 Y14.212
X23.102 Y14.833
X23.215 Y15.458
X23.313 Y16.085
X23.401 Y16.713
X23.481 Y17.342
X23.557 Y17.972
X23.706 Y19.232
X23.783 Y19.862
X23.862 Y20.491
X23.945 Y21.12
X24.032 Y21.749
X24.123 Y22.377
X24.216 Y23.004
X24.311 Y23.632
X24.602 Y25.513
X24.698 Y26.14
X24.792 Y26.767
X24.883 Y27.395
X24.972 Y28.023
X25.058 Y28.652
X25.14 Y29.281
X25.218 Y29.91
X25.294 Y30.54
X25.365 Y31.171
X25.433 Y31.801
X25.498 Y32.433
X25.56 Y33.064
X25.619 Y33.696
X25.675 Y34.328
X25.729 Y34.96
X25.779 Y35.592
X25.827 Y36.225
X25.872 Y36.858
X25.914 Y37.491
X25.952 Y38.124
X25.986 Y38.758
X26.015 Y39.391
X26.038 Y40.025
X26.053 Y40.66
X26.061 Y41.294
X26.058 Y41.928
X26.044 Y42.563
X26.016 Y43.196
X25.972 Y43.829
X25.907 Y44.461
X25.819 Y45.089
X25.693 Y45.71
X25.578 Y46.11
X25.462 Y46.416
X25.359 Y46.634
X25.348 Y46.654
X25.233 Y46.804
X25.083 Y46.92
X24.908 Y46.992
X24.721 Y47.017
X23.508
G3 X23.351 Y46.447 I0.011 J-0.31
G1 X23.409 Y46.409 Z-0.647
X23.464 Y46.374 Z-0.624
X23.513 Y46.342 Z-0.587
X23.554 Y46.315 Z-0.538
X23.585 Y46.295 Z-0.479
X23.605 Y46.283 Z-0.413
X23.611 Y46.279 Z-0.344
G0 Z-0.034
X18.557 Y9.951
G1 Z-0.344 F1000
X18.563 Y9.947 Z-0.413
X18.583 Y9.935 Z-0.479
X18.615 Y9.916 Z-0.538
X18.657 Y9.891 Z-0.587
X18.707 Y9.861 Z-0.624
X18.764 Y9.828 Z-0.647
X18.823 Y9.793 Z-0.654
G3 X19.577 Y9.571 I0.809 J1.36
G1 X20.73
X20.882 Y9.579
X21.031 Y9.598
X21.177 Y9.632
X21.333 Y9.683
X21.491 Y9.749
X21.669 Y9.841
X21.863 Y9.962
X22.064 Y10.11
X22.292 Y10.309
X22.514 Y10.537
X22.768 Y10.843
X23.018 Y11.198
X23.28 Y11.643
X23.556 Y12.214
X23.787 Y12.805
X23.98 Y13.409
X24.143 Y14.022
X24.283 Y14.641
X24.404 Y15.264
X24.51 Y15.89
X24.604 Y16.517
X24.691 Y17.145
X24.773 Y17.775
X25.009 Y19.663
X25.09 Y20.292
X25.175 Y20.921
X25.262 Y21.549
X25.352 Y22.177
X25.444 Y22.805
X25.539 Y23.433
X25.826 Y25.314
X25.92 Y25.941
X26.013 Y26.569
X26.104 Y27.197
X26.192 Y27.825
X26.277 Y28.454
X26.359 Y29.083
X26.438 Y29.713
X26.513 Y30.343
X26.585 Y30.973
X26.654 Y31.604
X26.719 Y32.235
X26.781 Y32.866
X26.841 Y33.498
X26.898 Y34.129
X26.952 Y34.762
X27.003 Y35.394
X27.051 Y36.027
X27.096 Y36.659
X27.138 Y37.292
X27.177 Y37.926
X27.21 Y38.559
X27.239 Y39.193
X27.262 Y39.827
X27.278 Y40.461
X27.286 Y41.096
X27.285 Y41.73
X27.272 Y42.364
X27.247 Y42.998
X27.206 Y43.631
X27.146 Y44.263
X27.063 Y44.892
X26.949 Y45.516
X26.824 Y46.001
X26.713 Y46.323
X26.609 Y46.56
X26.568 Y46.636
X26.454 Y46.793
X26.302 Y46.914
X26.123 Y46.991
X25.931 Y47.017
X24.721
G3 X24.563 Y46.447 I0.011 J-0.31
G1 X24.621 Y46.409 Z-0.647
X24.676 Y46.374 Z-0.624
X24.726 Y46.342 Z-0.587
X24.767 Y46.315 Z-0.538
X24.798 Y46.295 Z-0.479
X24.817 Y46.283 Z-0.413
X24.824 Y46.279 Z-0.344
G0 Z-0.034
X19.71 Y9.951
G1 Z-0.344 F1000
X19.716 Y9.947 Z-0.413
X19.736 Y9.935 Z-0.479
X19.768 Y9.916 Z-0.538
X19.81 Y9.891 Z-0.587
X19.861 Y9.861 Z-0.624
X19.917 Y9.828 Z-0.647
X19.976 Y9.793 Z-0.654
G3 X20.73 Y9.571 I0.809 J1.36
G1 X21.962
X22.112 Y9.579
X22.26 Y9.601
X22.406 Y9.637
X22.558 Y9.689
X22.723 Y9.76
X22.909 Y9.859
X23.096 Y9.978
X23.314 Y10.144
X23.524 Y10.331
X23.774 Y10.593
X24.007 Y10.882
X24.27 Y11.266
X24.544 Y11.744
X24.814 Y12.318
X25.039 Y12.911
X25.228 Y13.517
X25.389 Y14.13
X25.528 Y14.75
X25.649 Y15.372
X25.756 Y15.998
X25.852 Y16.625
X25.942 Y17.253
X26.027 Y17.882
X26.274 Y19.769
X26.358 Y20.398
X26.445 Y21.026
X26.533 Y21.654
X26.624 Y22.282
X26.717 Y22.91
X27.095 Y25.419
X27.188 Y26.047
X27.279 Y26.675
X27.367 Y27.303
X27.453 Y27.931
X27.537 Y28.56
X27.617 Y29.19
X27.694 Y29.819
X27.768 Y30.45
X27.839 Y31.08
X27.906 Y31.711
X27.971 Y32.342
X28.032 Y32.973
X28.091 Y33.605
X28.147 Y34.237
X28.2 Y34.869
X28.25 Y35.502
X28.297 Y36.135
X28.341 Y36.767
X28.381 Y37.401
X28.417 Y38.034
X28.449 Y38.668
X28.475 Y39.302
X28.495 Y39.936
X28.508 Y40.57
X28.512 Y41.204
X28.507 Y41.839
X28.49 Y42.473
X28.46 Y43.107
X28.414 Y43.739
X28.349 Y44.371
X28.262 Y44.999
X28.14 Y45.622
X28.02 Y46.057
X27.903 Y46.378
X27.8 Y46.601
X27.775 Y46.647
X27.66 Y46.8
X27.51 Y46.918
X27.333 Y46.992
X27.144 Y47.017
X25.931
G3 X25.774 Y46.447 I0.011 J-0.31
G1 X25.832 Y46.409 Z-0.647
X25.887 Y46.374 Z-0.624
X25.936 Y46.342 Z-0.587
X25.977 Y46.315 Z-0.538
X26.008 Y46.295 Z-0.479
X26.028 Y46.283 Z-0.413
X26.034 Y46.278 Z-0.344
G0 Z-0.034
X20.942 Y9.951
G1 Z-0.344 F1000
X20.949 Y9.947 Z-0.413
X20.969 Y9.935 Z-0.479
X21 Y9.916 Z-0.538
X21.043 Y9.891 Z-0.587
X21.093 Y9.861 Z-0.624
X21.149 Y9.828 Z-0.647
X21.209 Y9.793 Z-0.654
G3 X21.962 Y9.571 I0.809 J1.36
G1 X23.18
X23.33 Y9.579
X23.478 Y9.602
X23.624 Y9.639
X23.78 Y9.693
X23.943 Y9.764
X24.133 Y9.867
X24.32 Y9.988
X24.537 Y10.154
X24.755 Y10.352
X24.999 Y10.611
X25.243 Y10.916
X25.511 Y11.312
X25.783 Y11.793
X26.05 Y12.368
X26.273 Y12.962
X26.461 Y13.568
X26.623 Y14.182
X26.762 Y14.801
X26.885 Y15.423
X26.994 Y16.048
X27.094 Y16.675
X27.187 Y17.302
X27.275 Y17.93
X27.531 Y19.816
X27.618 Y20.445
X27.706 Y21.073
X27.796 Y21.701
X27.888 Y22.329
X28.074 Y23.584
X28.261 Y24.839
X28.354 Y25.467
X28.445 Y26.095
X28.535 Y26.723
X28.622 Y27.351
X28.707 Y27.98
X28.788 Y28.609
X28.867 Y29.238
X28.943 Y29.868
X29.016 Y30.499
X29.086 Y31.129
X29.152 Y31.76
X29.216 Y32.391
X29.277 Y33.023
X29.335 Y33.655
X29.39 Y34.287
X29.443 Y34.919
X29.492 Y35.551
X29.538 Y36.184
X29.581 Y36.817
X29.62 Y37.45
X29.654 Y38.084
X29.684 Y38.718
X29.708 Y39.352
X29.725 Y39.986
X29.736 Y40.62
X29.737 Y41.255
X29.729 Y41.889
X29.709 Y42.523
X29.676 Y43.157
X29.628 Y43.789
X29.561 Y44.42
X29.47 Y45.048
X29.344 Y45.67
X29.223 Y46.094
X29.106 Y46.406
X29.002 Y46.626
X28.987 Y46.653
X28.872 Y46.804
X28.722 Y46.919
X28.547 Y46.992
X28.359 Y47.017
X27.144
G3 X26.986 Y46.447 I0.011 J-0.31
G1 X27.044 Y46.409 Z-0.647
X27.099 Y46.374 Z-0.624
X27.149 Y46.342 Z-0.587
X27.19 Y46.315 Z-0.538
X27.221 Y46.295 Z-0.479
X27.24 Y46.283 Z-0.413
X27.247 Y46.278 Z-0.344
G0 Z-0.034
X22.16 Y9.951
G1 Z-0.344 F1000
X22.167 Y9.947 Z-0.413
X22.187 Y9.935 Z-0.479
X22.218 Y9.916 Z-0.538
X22.261 Y9.891 Z-0.587
X22.311 Y9.861 Z-0.624
X22.367 Y9.828 Z-0.647
X22.427 Y9.793 Z-0.654
G3 X23.18 Y9.571 I0.809 J1.36
G1 X24.413
X24.563 Y9.579
X24.712 Y9.593
X24.859 Y9.623
X25.003 Y9.666
X25.143 Y9.719
X25.279 Y9.782
X25.411 Y9.853
X25.539 Y9.932
X25.662 Y10.017
X25.781 Y10.109
X25.896 Y10.205
X26.007 Y10.306
X26.113 Y10.412
X26.216 Y10.521
X26.315 Y10.634
X26.41 Y10.75
X26.502 Y10.868
X26.59 Y10.99
X26.675 Y11.114
X26.756 Y11.239
X26.835 Y11.367
X26.911 Y11.497
X26.984 Y11.628
X27.053 Y11.761
X27.121 Y11.894
X27.186 Y12.03
X27.248 Y12.166
X27.308 Y12.304
X27.366 Y12.442
X27.422 Y12.581
X27.476 Y12.721
X27.528 Y12.862
X27.577 Y13.003
X27.626 Y13.145
X27.672 Y13.288
X27.717 Y13.431
X27.76 Y13.575
X27.802 Y13.719
X27.843 Y13.863
X27.882 Y14.008
X27.92 Y14.153
X27.957 Y14.3
X27.993 Y14.446
X28.027 Y14.591
X28.064 Y14.754
X28.105 Y14.936
X28.143 Y15.115
X28.183 Y15.31
X28.228 Y15.535
X28.273 Y15.772
X28.321 Y16.038
X28.376 Y16.35
X28.437 Y16.712
X28.511 Y17.172
X28.606 Y17.799
X28.698 Y18.427
X28.964 Y20.312
X29.054 Y20.94
X29.145 Y21.568
X29.329 Y22.823
X29.607 Y24.706
X29.699 Y25.334
X29.789 Y25.962
X29.878 Y26.59
X29.964 Y27.218
X30.048 Y27.847
X30.129 Y28.476
X30.208 Y29.106
X30.283 Y29.736
X30.356 Y30.366
X30.425 Y30.997
X30.492 Y31.628
X30.556 Y32.259
X30.617 Y32.89
X30.675 Y33.522
X30.73 Y34.154
X30.783 Y34.787
X30.832 Y35.419
X30.878 Y36.052
X30.92 Y36.685
X30.959 Y37.318
X30.993 Y37.952
X31.008 Y38.268
X31.029 Y38.764
X31.043 Y39.205
X31.056 Y39.63
X31.063 Y39.999
X31.069 Y40.402
X31.071 Y40.698
Y41.058
X31.069 Y41.313
X31.064 Y41.618
X31.059 Y41.869
X31.052 Y42.11
X31.041 Y42.389
X31.033 Y42.574
X31.022 Y42.782
X31.008 Y43.023
X30.997 Y43.189
X30.985 Y43.35
X30.97 Y43.53
X30.952 Y43.733
X30.938 Y43.882
X30.922 Y44.031
X30.905 Y44.18
X30.887 Y44.329
X30.867 Y44.478
X30.846 Y44.627
X30.824 Y44.775
X30.799 Y44.923
X30.773 Y45.071
X30.745 Y45.218
X30.715 Y45.365
X30.682 Y45.511
X30.647 Y45.657
X30.609 Y45.802
X30.568 Y45.946
X30.523 Y46.09
X30.474 Y46.231
X30.421 Y46.371
X30.362 Y46.51
X30.316 Y46.605
X30.204 Y46.774
X30.049 Y46.905
X29.864 Y46.988
X29.663 Y47.017
X28.359
G3 X28.202 Y46.447 I0.011 J-0.31
G1 X28.26 Y46.409 Z-0.647
X28.315 Y46.374 Z-0.624
X28.364 Y46.342 Z-0.587
X28.405 Y46.315 Z-0.538
X28.436 Y46.295 Z-0.479
X28.456 Y46.283 Z-0.413
X28.462 Y46.278 Z-0.344
G0 Z-0.034
X23.393 Y9.951
G1 Z-0.344 F1000
X23.399 Y9.947 Z-0.413
X23.419 Y9.935 Z-0.479
X23.451 Y9.916 Z-0.538
X23.493 Y9.891 Z-0.587
X23.544 Y9.861 Z-0.624
X23.6 Y9.828 Z-0.647
X23.659 Y9.793 Z-0.654
G3 X24.413 Y9.571 I0.809 J1.36
G1 X25.71
X25.86 Y9.579
X26.009 Y9.593
X26.156 Y9.623
X26.3 Y9.665
X26.44 Y9.719
X26.576 Y9.782
X26.708 Y9.854
X26.836 Y9.933
X26.959 Y10.018
X27.077 Y10.11
X27.192 Y10.207
X27.302 Y10.309
X27.409 Y10.414
X27.511 Y10.524
X27.61 Y10.637
X27.705 Y10.753
X27.796 Y10.872
X27.884 Y10.993
X27.969 Y11.117
X28.051 Y11.243
X28.129 Y11.371
X28.205 Y11.5
X28.278 Y11.631
X28.348 Y11.764
X28.416 Y11.898
X28.481 Y12.033
X28.544 Y12.169
X28.605 Y12.306
X28.664 Y12.444
X28.72 Y12.583
X28.775 Y12.723
X28.828 Y12.863
X28.879 Y13.004
X28.928 Y13.146
X28.976 Y13.288
X29.022 Y13.431
X29.066 Y13.574
X29.11 Y13.718
X29.152 Y13.862
X29.192 Y14.006
X29.231 Y14.151
X29.27 Y14.296
X29.307 Y14.441
X29.346 Y14.599
X29.385 Y14.761
X29.426 Y14.938
X29.467 Y15.123
X29.511 Y15.325
X29.557 Y15.547
X29.604 Y15.782
X29.658 Y16.061
X29.712 Y16.349
X29.774 Y16.697
X29.842 Y17.096
X29.927 Y17.618
X30.025 Y18.245
X30.119 Y18.872
X30.302 Y20.128
X30.576 Y22.011
X30.946 Y24.522
X31.036 Y25.15
X31.126 Y25.778
X31.214 Y26.406
X31.299 Y27.035
X31.383 Y27.664
X31.464 Y28.293
X31.542 Y28.923
X31.617 Y29.553
X31.716 Y30.419
X31.785 Y31.05
X31.851 Y31.681
X31.914 Y32.312
X31.974 Y32.944
X32.031 Y33.576
X32.086 Y34.208
X32.137 Y34.84
X32.185 Y35.473
X32.23 Y36.106
X32.271 Y36.739
X32.308 Y37.362
X32.323 Y37.679
G3 X31.761 Y37.864 I-0.31 J0.004
G1 X31.721 Y37.808 Z-0.647
X31.683 Y37.754 Z-0.624
X31.649 Y37.706 Z-0.587
X31.62 Y37.667 Z-0.538
X31.599 Y37.636 Z-0.479
X31.585 Y37.618 Z-0.413
X31.581 Y37.612 Z-0.344
G0 Z-0.034
X24.69 Y9.951
G1 Z-0.344 F1000
X24.697 Y9.947 Z-0.413
X24.716 Y9.935 Z-0.479
X24.748 Y9.916 Z-0.538
X24.79 Y9.891 Z-0.587
X24.841 Y9.861 Z-0.624
X24.897 Y9.828 Z-0.647
X24.957 Y9.793 Z-0.654
G3 X25.71 Y9.571 I0.809 J1.36
G1 X27.007
X27.157 Y9.579
X27.307 Y9.594
X27.453 Y9.624
X27.597 Y9.667
X27.737 Y9.721
X27.873 Y9.784
X28.005 Y9.856
X28.132 Y9.936
X28.255 Y10.022
X28.374 Y10.113
X28.488 Y10.21
X28.598 Y10.312
X28.705 Y10.418
X28.807 Y10.527
X28.906 Y10.64
X29.001 Y10.756
X29.092 Y10.875
X29.181 Y10.997
X29.266 Y11.12
X29.348 Y11.246
X29.427 Y11.373
X29.503 Y11.502
X29.576 Y11.633
X29.647 Y11.765
X29.715 Y11.899
X29.782 Y12.034
X29.845 Y12.169
X29.907 Y12.306
X29.966 Y12.444
X30.024 Y12.582
X30.079 Y12.722
X30.133 Y12.862
X30.185 Y13.002
X30.236 Y13.144
X30.284 Y13.286
X30.332 Y13.428
X30.377 Y13.571
X30.422 Y13.714
X30.465 Y13.858
X30.507 Y14.002
X30.547 Y14.146
X30.587 Y14.291
X30.626 Y14.439
X30.667 Y14.598
X30.707 Y14.761
X30.751 Y14.94
X30.794 Y15.125
X30.84 Y15.33
X30.887 Y15.542
X30.937 Y15.781
X30.99 Y16.041
X31.046 Y16.326
X31.108 Y16.657
X31.174 Y17.028
X31.252 Y17.478
X31.35 Y18.068
X31.448 Y18.695
X31.544 Y19.322
X31.731 Y20.577
X32.135 Y23.323
X32.318 Y24.579
X32.408 Y25.207
X32.496 Y25.835
X32.583 Y26.463
X32.667 Y27.092
X32.749 Y27.721
X32.818 Y28.272
G3 X32.271 Y28.498 I-0.309 J0.027
G1 X32.227 Y28.445 Z-0.647
X32.185 Y28.395 Z-0.624
X32.148 Y28.35 Z-0.587
X32.116 Y28.312 Z-0.538
X32.092 Y28.284 Z-0.479
X32.078 Y28.266 Z-0.413
X32.073 Y28.26 Z-0.344
G0 Z-0.034
X25.987 Y9.951
G1 Z-0.344 F1000
X25.994 Y9.947 Z-0.413
X26.014 Y9.935 Z-0.479
X26.046 Y9.916 Z-0.538
X26.088 Y9.891 Z-0.587
X26.138 Y9.861 Z-0.624
X26.195 Y9.828 Z-0.647
X26.254 Y9.793 Z-0.654
G3 X27.007 Y9.571 I0.809 J1.36
G1 X28.226
X28.394 Y9.58
X28.544 Y9.588
X28.692 Y9.613
X28.837 Y9.651
X28.978 Y9.701
X29.116 Y9.76
X29.249 Y9.829
X29.378 Y9.905
X29.503 Y9.989
X29.623 Y10.078
X29.74 Y10.173
X29.852 Y10.273
X29.96 Y10.377
X30.064 Y10.485
X30.164 Y10.596
X30.261 Y10.711
X30.354 Y10.828
X30.444 Y10.948
X30.531 Y11.071
X30.615 Y11.195
X30.695 Y11.321
X30.773 Y11.45
X30.849 Y11.579
X30.921 Y11.711
X30.991 Y11.843
X31.059 Y11.977
X31.124 Y12.112
X31.188 Y12.248
X31.249 Y12.385
X31.308 Y12.523
X31.365 Y12.662
X31.421 Y12.801
X31.474 Y12.941
X31.526 Y13.082
X31.577 Y13.223
X31.626 Y13.365
X31.673 Y13.507
X31.719 Y13.65
X31.764 Y13.793
X31.808 Y13.937
X31.85 Y14.081
X31.891 Y14.225
X31.932 Y14.372
X31.973 Y14.526
X32.015 Y14.687
X32.059 Y14.86
X32.104 Y15.042
X32.151 Y15.239
X32.198 Y15.444
X32.25 Y15.679
X32.301 Y15.918
X32.357 Y16.188
X32.417 Y16.487
X32.48 Y16.817
X32.551 Y17.199
X32.632 Y17.66
X32.73 Y18.237
X32.831 Y18.863
X32.929 Y19.49
X33.025 Y20.117
X33.177 Y21.136
G3 X32.589 Y21.304 I-0.308 J0.035
G1 X27.35 Y10.191
G3 X27.472 Y9.793 I0.28 J-0.132
X28.226 Y9.571 I0.809 J1.36
G1 X29.523
X29.69 Y9.58
X29.838 Y9.599
X29.984 Y9.633
X30.136 Y9.683
X30.302 Y9.752
X30.482 Y9.844
X30.677 Y9.966
X30.887 Y10.121
X31.114 Y10.319
X31.358 Y10.568
X31.62 Y10.884
X31.901 Y11.284
X32.205 Y11.8
X32.275 Y11.942
X32.341 Y12.086
X32.602 Y12.665
X32.827 Y13.258
X33.024 Y13.861
X33.089 Y14.09
G3 X32.54 Y14.35 I-0.301 J0.073
G1 X29.352 Y10.154
X29.287 Y10.069
G3 X29.523 Y9.571 I0.247 J-0.188
G1 X30.82
X30.97 Y9.579
X31.119 Y9.594
X31.266 Y9.625
X31.41 Y9.668
X31.55 Y9.722
X31.686 Y9.785
X31.818 Y9.856
X31.946 Y9.935
X32.069 Y10.02
X32.188 Y10.111
X32.304 Y10.207
X32.416 Y10.307
X32.523 Y10.411
X32.626 Y10.52
X32.726 Y10.632
X32.822 Y10.748
G3 X32.416 Y11.203 I-0.245 J0.19
G1 X30.671 Y10.146
G3 X30.82 Y9.571 I0.16 J-0.265
G1 X32.118
X32.267 Y9.579
X32.415 Y9.604
X32.569 Y9.645
X32.727 Y9.651
X32.947 Y9.611
X33.025 Y9.589
X33.104 Y9.576
X33.184 Y9.571
G3 X33.483 Y9.892 I-0.011 J0.31
X33.163 Y10.191 I-0.31 J-0.011
X32.046 Y9.802 I0.07 J-1.999
G1 X32.015 Y9.77
X31.997 Y9.728
X31.995 Y9.683
X32.008 Y9.64
X32.036 Y9.605
X32.074 Y9.581
X32.118 Y9.571
X33.847
X33.991 Y9.554
X34.302 Y9.509
X34.424 Y9.464
X34.568 Y9.404
X34.655 Y9.357
X34.712 Y9.322
X34.863 Y9.213
X35.01 Y9.069
X35.078 Y8.997
X35.145 Y8.901
X35.223 Y8.781
X35.295 Y8.637
X35.349 Y8.493
X35.388 Y8.348
X35.411 Y8.204
X35.438 Y7.772
X35.459 Y7.34
X35.468 Y7.052
X35.472 Y6.907
X35.474 Y6.763
X35.473 Y5.466
X35.469 Y5.322
X35.452 Y5.178
X35.433 Y5.079
X35.422 Y5.034
X35.376 Y4.89
X35.311 Y4.746
X35.233 Y4.602
X35.128 Y4.458
X34.999 Y4.314
X34.928 Y4.25
X34.856 Y4.194
X34.712 Y4.096
X34.568 Y4.023
X34.424 Y3.966
X34.316 Y3.93
X34.298 Y3.927
X34.15 Y3.899
X33.953 Y3.826
X33.756 Y3.733
X33.666 Y3.682
X33.514 Y3.567
X33.398 Y3.417
X33.325 Y3.242
X33.3 Y3.053
G3 X33.8 Y2.819 I0.31 J0.011
G1 X33.883 Y2.884
X34.513 Y3.373
G3 X34.298 Y3.927 I-0.19 J0.245
G1 X33.905 Y3.881
X33.847 Y3.878
X33.631
X33.595 Y3.876
X33.559 Y3.87
X33.523 Y3.86
X33.487 Y3.844
X33.451 Y3.823
X33.415 Y3.793
X33.365 Y3.737
X33.341 Y3.701
X33.323 Y3.665
X33.311 Y3.629
X33.304 Y3.593
X33.3 Y3.449
Y1.864
X33.303 Y1.828
X33.311 Y1.792
X33.323 Y1.756
G3 X33.905 Y1.861 I0.275 J0.144
G1 X33.914 Y1.93 Z-0.647
X33.922 Y1.995 Z-0.624
X33.929 Y2.053 Z-0.587
X33.935 Y2.102 Z-0.538
X33.94 Y2.139 Z-0.479
X33.943 Y2.161 Z-0.413
X33.944 Y2.169 Z-0.344
G0 Z5
X31.51 Y52.393
Z2.81
G1 Z2.5 F1000
Z-0.654 F333.3
X31.479 Y52.368 F1000
X31.445 Y52.333
X31.417 Y52.298
X31.397 Y52.266
X31.384 Y52.238
X31.374 Y52.21
X31.367 Y52.182
X31.362 Y52.154
X31.36 Y52.01
X31.368 Y51.86
X31.404 Y51.714
X31.463 Y51.577
X31.765 Y51.019
X31.786 Y50.957
X31.87 Y50.789
X31.993 Y50.649
X32.149 Y50.544
X32.326 Y50.483
G3 X32.519 Y50.767 I0.031 J0.186
G1 X32.335 Y51.07
X31.868 Y51.838
X31.71 Y52.099
G3 X31.36 Y52.01 I-0.161 J-0.098
G1 Y51.001
X31.361 Y50.922
X31.362 Y50.857
X31.366 Y50.827
X31.373 Y50.798
X31.383 Y50.768
X31.397 Y50.739
X31.412 Y50.713
X31.439 Y50.678
X31.477 Y50.643
X31.509 Y50.618
X31.541 Y50.598
X31.578 Y50.581
X31.616 Y50.569
X31.65 Y50.562
X31.685 Y50.56
X31.829
X31.955 Y50.557
X31.973 Y50.555
X32.352 Y50.478
X32.765 Y50.268
X32.899 Y50.16
X33.127 Y49.895
X33.165 Y49.848
X33.244 Y49.704
X33.311 Y49.56
X33.357 Y49.416
X33.39 Y49.272
X33.408 Y49.128
X33.43 Y48.696
X33.434 Y48.551
X33.426 Y48.407
X33.415 Y48.329
X33.403 Y48.263
X33.367 Y48.119
X33.312 Y47.975
X33.271 Y47.878
X33.17 Y47.705
X33.158 Y47.687
X32.964 Y47.457
X32.951 Y47.445
X32.766 Y47.294
X32.358 Y47.095
X32.326 Y47.088
X31.955 Y47.021
X31.937 Y47.019
X31.397 Y47.017
X29.663
G3 X29.364 Y46.708 I0.011 J-0.31
G1 Y46.707
X29.378 Y46.655 Z-0.649
X29.391 Y46.605 Z-0.635
X29.403 Y46.557 Z-0.612
X29.438 Y46.52 Z-0.573
X29.467 Y46.489 Z-0.525
X29.488 Y46.466 Z-0.47
X29.502 Y46.451 Z-0.408
X29.506 Y46.447 Z-0.345
G0 Z5
X31.721 Y52.184
Z1.697
G1 Z1.387 F1000
Z-0.613
G3 X31.36 Y50.958 I2.215 J-1.317
G1 Y50.634
X31.368 Y50.484
X31.52 Y50.206
X31.587 Y50.062
X31.621 Y49.907
X31.62 Y49.748
X31.585 Y49.594
X31.521 Y49.46
X31.47 Y49.393
X31.408 Y49.296
X31.362 Y49.191
X31.333 Y49.08
G3 X31.615 Y48.728 I0.307 J-0.043
X31.95 Y49.031 I0.024 J0.309
G1 X31.98 Y50.617
G3 X31.36 Y50.634 I-0.31 J0.006
G1 Y49.416
X31.356 Y49.272
X31.341 Y49.128
X31.316 Y48.984
X31.275 Y48.84
X31.217 Y48.696
X31.201 Y48.66
X31.183 Y48.624
X31.109 Y48.506
X31.043 Y48.407
X30.915 Y48.263
X30.82 Y48.168
X30.676 Y48.064
X30.529 Y47.975
X30.388 Y47.907
X30.244 Y47.856
X30.099 Y47.821
X30.027 Y47.809
X29.811 Y47.801
X29.667 Y47.797
X29.523 Y47.793
X27.216
X26.784 Y47.797
X26.64 Y47.806
X26.496 Y47.829
X26.352 Y47.866
X26.207 Y47.92
X26.087 Y47.975
X25.919 Y48.077
X25.865 Y48.119
X25.775 Y48.194
X25.703 Y48.263
X25.631 Y48.341
X25.578 Y48.407
X25.487 Y48.54
X25.48 Y48.551
X25.407 Y48.696
X25.347 Y48.84
X25.305 Y48.984
X25.279 Y49.128
X25.265 Y49.272
X25.261 Y49.416
X25.26 Y50.857
G3 X24.69 Y51.014 I-0.31 J-0.011
G1 X24.653 Y50.956 Z-0.605
X24.617 Y50.901 Z-0.582
X24.585 Y50.852 Z-0.545
X24.559 Y50.811 Z-0.496
X24.539 Y50.78 Z-0.438
X24.526 Y50.76 Z-0.372
X24.522 Y50.754 Z-0.303
G0 Z5
X12.213 Y52.184
Z1.697
G1 Z1.387 F1000
Z-0.613
G3 X11.852 Y50.958 I2.215 J-1.317
G1 Y50.634
X11.86 Y50.484
X11.924 Y50.348
X12.016 Y50.23
X12.123 Y50.124
X12.24 Y50.031
X12.364 Y49.947
X12.495 Y49.873
X12.629 Y49.806
X12.766 Y49.746
X12.906 Y49.692
X13.048 Y49.644
X13.192 Y49.601
X13.337 Y49.562
X13.483 Y49.527
X13.629 Y49.495
X13.777 Y49.467
X13.925 Y49.441
X14.073 Y49.419
X14.221 Y49.398
X14.37 Y49.379
X14.519 Y49.362
X14.668 Y49.347
X14.818 Y49.334
X14.967 Y49.321
X15.118 Y49.31
X15.286 Y49.299
X15.474 Y49.288
X15.69 Y49.277
X15.942 Y49.266
X16.244 Y49.254
X16.62 Y49.243
X17.12 Y49.232
X17.755 Y49.222
X18.389 Y49.217
X19.023 Y49.213
X20.292 Y49.21
X22.354 Y49.209
X22.432 Y49.192
X22.488 Y49.186
X22.489
G3 X22.522 Y49.805 I0 J0.31
G1 X12.47 Y50.901
X12.196 Y50.931
G3 X11.852 Y50.634 I-0.034 J-0.308
G1 Y49.56
Y49.416
X11.835 Y48.984
X11.806 Y48.84
X11.793 Y48.783
X11.762 Y48.696
X11.706 Y48.551
X11.648 Y48.436
X11.534 Y48.263
X11.504 Y48.226
X11.402 Y48.119
X11.36 Y48.077
X11.241 Y47.975
X11.216 Y47.956
X11.072 Y47.863
X11.014 Y47.831
X10.928 Y47.788
X10.784 Y47.733
X10.639 Y47.695
X10.605 Y47.687
X10.495 Y47.668
X10.351 Y47.655
X10.207 Y47.654
X7.468
X7.036 Y47.678
X6.995 Y47.687
X6.891 Y47.712
X6.747 Y47.76
X6.603 Y47.824
X6.459 Y47.905
X6.367 Y47.975
X6.315 Y48.016
X6.198 Y48.119
X6.171 Y48.148
X6.077 Y48.263
X6.027 Y48.332
X5.974 Y48.407
X5.882 Y48.585
X5.859 Y48.64
X5.838 Y48.696
X5.796 Y48.84
X5.769 Y48.984
X5.753 Y49.416
X5.752 Y49.992
Y50.713
G3 X5.182 Y50.87 I-0.31 J-0.011
G1 X5.145 Y50.812 Z-0.605
X5.109 Y50.757 Z-0.582
X5.077 Y50.708 Z-0.545
X5.051 Y50.667 Z-0.496
X5.03 Y50.636 Z-0.438
X5.018 Y50.616 Z-0.372
X5.014 Y50.61 Z-0.303
G0 Z5
X2.878 Y1.734
Z0.007
G1 Z-0.303 F1000
X2.882 Y1.741 Z-0.372
X2.894 Y1.761 Z-0.438
X2.913 Y1.793 Z-0.496
X2.938 Y1.835 Z-0.545
X2.968 Y1.885 Z-0.582
X3.001 Y1.942 Z-0.605
X3.036 Y2.001 Z-0.613
G3 X3.517 Y3.637 I-2.953 J1.756
G1 Y3.737
X3.514 Y3.809
X3.507 Y3.845
X3.495 Y3.881
X3.484 Y3.907
X3.47 Y3.932
X3.432 Y3.982
X3.412 Y4.004
X3.389 Y4.026
X3.364 Y4.044
X3.338 Y4.06
X3.288 Y4.083
G0 Z5
X5.693 Y11.785
Z0.007
G1 Z-0.303 F1000
X5.685 Y11.782 Z-0.372
X5.664 Y11.774 Z-0.438
X5.629 Y11.761 Z-0.496
X5.584 Y11.743 Z-0.545
X5.529 Y11.722 Z-0.582
X5.468 Y11.698 Z-0.605
X5.403 Y11.673 Z-0.613
G3 X3.288 Y9.351 I1.27 J-3.282
G1 X3.432 Y9.412
X3.666 Y9.478
X3.684 Y9.481
X4.009 Y9.503
X4.153 Y9.51
X18.568 Y9.511
X33.847
X33.942 Y9.501
X34.071 Y9.483
G3 X34.307 Y10.025 I0.033 J0.308
G1 X34.255 Y10.071 Z-0.605
X34.205 Y10.114 Z-0.582
X34.161 Y10.152 Z-0.545
X34.124 Y10.184 Z-0.496
X34.096 Y10.208 Z-0.438
X34.078 Y10.223 Z-0.372
X34.073 Y10.229 Z-0.303
G0 Z5
X36.296 Y4.827
Z1.697
G1 Z1.387 F1000
Z-0.613
G3 X34.723 Y4.17 I2.248 J-7.588
G1 X34.712 Y4.163
X34.303 Y3.997
X34.291 Y3.995
X33.991 Y3.96
X33.847 Y3.946
X33.631
X33.595 Y3.945
X33.559 Y3.939
X33.529 Y3.93
X33.499 Y3.918
X33.468 Y3.902
X33.438 Y3.881
X33.415 Y3.861
X33.385 Y3.83
X33.359 Y3.799
X33.339 Y3.768
X33.324 Y3.737
X33.312 Y3.701
X33.304 Y3.665
X33.3 Y3.593
Y3.514
G3 X33.609 Y3.215 I0.31 J0.011
G1 X33.61
X33.662 Y3.228 Z-0.608
X33.713 Y3.241 Z-0.594
X33.76 Y3.253 Z-0.57
X33.797 Y3.288 Z-0.532
X33.828 Y3.317 Z-0.484
X33.851 Y3.339 Z-0.428
X33.866 Y3.352 Z-0.367
X33.871 Y3.357 Z-0.303
G0 Z5
X26.389 Y2.706
Z1.708
G1 Z1.398 F1000
Z-0.602
G3 X27.099 Y1.642 I0.413 J-0.493
G1 X27.125 Y1.669
X27.145 Y1.695
X27.16 Y1.72
X27.178 Y1.756
X27.19 Y1.792
X27.197 Y1.828
X27.2 Y1.864
Y2.44
X27.193 Y2.59
X27.149 Y2.734
X27.082 Y2.868
X26.993 Y2.989
X26.89 Y3.098
X26.775 Y3.194
X26.643 Y3.284
X26.474 Y3.381
X26.255 Y3.483
X25.967 Y3.591
X25.572 Y3.704
X24.991 Y3.821
X24.361 Y3.895
X23.728 Y3.938
X23.094 Y3.963
X22.954 Y3.965
G3 X22.874 Y3.359 I0.011 J-0.31
G1 X26.592 Y2.219
X26.8 Y2.155
G3 X27.2 Y2.44 I0.091 J0.296
G1 Y3.096
X27.193 Y3.246
X27.155 Y3.391
X27.097 Y3.529
X27.058 Y3.6
X26.943 Y3.751
X26.792 Y3.867
X26.617 Y3.941
X26.429 Y3.965
G3 X26.2 Y3.459 I0.011 J-0.31
G1 X26.261 Y3.385
X26.628 Y2.938
X26.651 Y2.91
G3 X27.2 Y3.096 I0.239 J0.197
G1 Y3.593
Y3.665
X27.195 Y3.701
X27.186 Y3.737
X27.173 Y3.773
X27.153 Y3.809
X27.127 Y3.845
X27.091 Y3.881
X27.072 Y3.897
X27.036 Y3.922
X27 Y3.94
X26.964 Y3.953
X26.928 Y3.961
X26.784 Y3.965
X11.793
X11.159 Y3.934
X11.001 Y3.916
X10.763 Y3.88
X10.512 Y3.82
X10.336 Y3.763
X10.126 Y3.676
X10.01 Y3.616
X9.848 Y3.503
X9.723 Y3.35
X9.644 Y3.168
X9.617 Y2.973
G3 X10.032 Y2.692 I0.31 J0.011
G1 X10.222 Y2.761
X11.887 Y3.364
G3 X11.793 Y3.965 I-0.106 J0.291
G1 X9.983
X9.919
X9.883 Y3.96
X9.847 Y3.951
X9.811 Y3.937
X9.774 Y3.917
X9.726 Y3.881
X9.69 Y3.845
X9.664 Y3.809
X9.645 Y3.773
X9.63 Y3.735
X9.622 Y3.7
X9.618 Y3.664
X9.617 Y3.305
Y1.864
X9.621 Y1.823
X9.63 Y1.782
X9.642 Y1.751
G3 X10.051 Y1.619 I0.273 J0.146
G1 X10.092 Y1.654 Z-0.598
X10.131 Y1.688 Z-0.583
X10.169 Y1.719 Z-0.56
X10.187 Y1.767 Z-0.522
X10.202 Y1.807 Z-0.474
X10.213 Y1.837 Z-0.418
X10.22 Y1.855 Z-0.357
X10.223 Y1.861 Z-0.293
G0 Z5
X2.927 Y1.862
Z0.038
G1 Z-0.272 F1000
X2.931 Y1.869 Z-0.341
X2.942 Y1.889 Z-0.407
X2.96 Y1.921 Z-0.466
X2.984 Y1.964 Z-0.515
X3.013 Y2.016 Z-0.552
X3.045 Y2.073 Z-0.575
X3.079 Y2.133 Z-0.582
G3 X3.516 Y3.781 I-2.998 J1.678
G1 X3.513 Y3.881
X3.505 Y3.917
X3.493 Y3.953
X3.475 Y3.989
X3.45 Y4.026
X3.432 Y4.046
X3.396 Y4.079
X3.36 Y4.103
X3.288 Y4.139
X3.144 Y4.215
X3.058 Y4.277
G3 X2.598 Y3.905 I-0.172 J-0.258
G1 X2.623 Y3.841 Z-0.575
X2.647 Y3.78 Z-0.552
X2.669 Y3.725 Z-0.515
X2.687 Y3.679 Z-0.466
X2.7 Y3.645 Z-0.407
X2.709 Y3.624 Z-0.341
X2.712 Y3.616 Z-0.272
G0 Z5
X5.788 Y11.642
Z0.038
G1 Z-0.272 F1000
X5.781 Y11.639 Z-0.341
X5.759 Y11.632 Z-0.407
X5.724 Y11.62 Z-0.466
X5.678 Y11.604 Z-0.515
X5.622 Y11.585 Z-0.552
X5.56 Y11.564 Z-0.575
X5.495 Y11.542 Z-0.582
G3 X3.288 Y9.306 I1.138 J-3.33
G1 X3.511 Y9.39
X3.576 Y9.414
X3.72 Y9.439
X4.009 Y9.459
X4.153 Y9.466
X33.847
X33.991 Y9.45
X34.071 Y9.439
G3 X34.306 Y9.982 I0.032 J0.308
G1 X34.254 Y10.027 Z-0.575
X34.204 Y10.069 Z-0.552
X34.159 Y10.108 Z-0.515
X34.122 Y10.14 Z-0.466
X34.094 Y10.164 Z-0.407
X34.077 Y10.179 Z-0.341
X34.071 Y10.184 Z-0.272
G0 Z5
X36.323 Y4.835
Z1.728
G1 Z1.418 F1000
Z-0.582
G3 X34.729 Y4.228 I2 J-7.657
G1 X34.712 Y4.219
X34.298 Y4.051
X33.991 Y4.015
X33.847 Y4.002
X33.631
X33.595 Y4
X33.559 Y3.994
X33.523 Y3.984
X33.487 Y3.968
X33.451 Y3.947
X33.415 Y3.92
X33.395 Y3.902
X33.375 Y3.881
X33.348 Y3.845
X33.329 Y3.809
X33.315 Y3.773
X33.306 Y3.737
X33.301 Y3.701
X33.3 Y3.626
G3 X33.871 Y3.468 I0.31 J0.011
G1 X33.908 Y3.526 Z-0.575
X33.944 Y3.581 Z-0.552
X33.975 Y3.631 Z-0.515
X34.002 Y3.672 Z-0.466
X34.022 Y3.703 Z-0.407
X34.034 Y3.722 Z-0.341
X34.039 Y3.729 Z-0.272
G0 Z5
X1.994 Y4.591
Z0.038
G1 Z-0.272 F1000
X1.998 Y4.597 Z-0.341
X2.01 Y4.617 Z-0.407
X2.029 Y4.649 Z-0.466
X2.054 Y4.691 Z-0.515
X2.084 Y4.741 Z-0.552
X2.117 Y4.798 Z-0.575
X2.153 Y4.857 Z-0.582
G3 X2.374 Y5.611 I-1.36 J0.809
G1 Y5.739
X2.375 Y5.755
G3 X2.062 Y6.05 I-0.31 J-0.015
G1 X2.011 Y6.036 Z-0.577
X1.96 Y6.022 Z-0.563
X1.913 Y6.01 Z-0.54
X1.876 Y5.974 Z-0.502
X1.845 Y5.945 Z-0.454
X1.822 Y5.923 Z-0.398
X1.808 Y5.909 Z-0.337
X1.803 Y5.905 Z-0.273
G0 Z5
X26.561 Y1.734
Z0.101
G1 Z-0.209 F1000
X26.565 Y1.741 Z-0.278
X26.577 Y1.761 Z-0.344
X26.596 Y1.793 Z-0.403
X26.621 Y1.835 Z-0.452
X26.651 Y1.885 Z-0.489
X26.685 Y1.942 Z-0.512
X26.72 Y2.001 Z-0.519
G3 X27.2 Y3.637 I-2.953 J1.756
G1 X27.199 Y3.809
X27.195 Y3.845
X27.185 Y3.881
X27.171 Y3.917
X27.152 Y3.953
X27.128 Y3.989
X27.097 Y4.026
X27.072 Y4.048
X27.036 Y4.073
X27 Y4.091
X26.964 Y4.104
X26.928 Y4.112
X26.784 Y4.116
X10.063
X9.919
X9.883 Y4.111
X9.847 Y4.102
X9.811 Y4.088
X9.774 Y4.068
X9.748 Y4.049
X9.721 Y4.026
X9.69 Y3.989
X9.666 Y3.953
X9.646 Y3.917
X9.63 Y3.877
X9.622 Y3.842
X9.618 Y3.807
X9.617 Y3.737
G3 X9.926 Y3.438 I0.31 J0.011
G1 X9.927
X9.979 Y3.452 Z-0.514
X10.029 Y3.465 Z-0.5
X10.076 Y3.477 Z-0.477
X10.114 Y3.512 Z-0.438
X10.145 Y3.541 Z-0.39
X10.168 Y3.562 Z-0.335
X10.182 Y3.576 Z-0.274
X10.187 Y3.58 Z-0.21
G0 Z5
X2.878 Y1.835
Z0.121
G1 Z-0.189 F1000
X2.882 Y1.842 Z-0.258
X2.894 Y1.861 Z-0.323
X2.913 Y1.893 Z-0.382
X2.938 Y1.935 Z-0.431
X2.968 Y1.986 Z-0.468
X3.001 Y2.042 Z-0.491
X3.036 Y2.101 Z-0.499
G3 X3.517 Y3.737 I-2.953 J1.756
G1 Y3.881
X3.514 Y4.026
X3.507 Y4.062
X3.495 Y4.098
X3.478 Y4.134
X3.455 Y4.17
X3.432 Y4.197
X3.396 Y4.229
X3.36 Y4.254
X3.288 Y4.29
X3.244 Y4.314
X3.189 Y4.344
G3 X2.936 Y4.366 I-0.15 J-0.271
G2 X2.535 Y4.571 I-0.103 J0.292
G1 X2.53 Y4.591
X1.708 Y7.38
G2 X1.803 Y7.702 I0.297 J0.088
G3 X2.676 Y8.637 I-3.877 J4.495
G1 X2.711 Y8.688
X2.785 Y8.781
X2.855 Y8.859
X2.922 Y8.925
X2.999 Y8.99
X3.27 Y9.162
X3.288 Y9.171
X3.684 Y9.302
X4.009 Y9.323
X4.153 Y9.33
X33.847
X33.991 Y9.314
X34.071 Y9.303
G3 X34.315 Y9.375 I0.042 J0.307
G2 X34.778 Y9.304 I0.201 J-0.236
G1 X35.991 Y7.376
G2 X36.009 Y7.079 I-0.262 J-0.165
G3 X35.455 Y5.466 I7.163 J-3.365
G1 X35.433 Y5.352
X35.425 Y5.322
X35.381 Y5.178
X35.32 Y5.034
X35.241 Y4.89
X35.138 Y4.746
X35.082 Y4.674
X35.001 Y4.596
X34.856 Y4.469
X34.712 Y4.371
X34.568 Y4.3
X34.424 Y4.239
X34.316 Y4.205
X34.298 Y4.202
X33.991 Y4.167
X33.847 Y4.153
X33.631
X33.595 Y4.152
X33.559 Y4.146
X33.523 Y4.135
X33.487 Y4.119
X33.451 Y4.098
X33.415 Y4.073
X33.389 Y4.049
X33.368 Y4.026
X33.343 Y3.989
X33.325 Y3.953
X33.312 Y3.917
X33.304 Y3.881
X33.3 Y3.737
Y3.694
G3 X33.609 Y3.395 I0.31 J0.011
G1 X33.61
X33.662 Y3.408 Z-0.494
X33.713 Y3.421 Z-0.48
X33.76 Y3.433 Z-0.456
X33.797 Y3.468 Z-0.418
X33.828 Y3.497 Z-0.37
X33.851 Y3.519 Z-0.314
X33.866 Y3.532 Z-0.253
X33.871 Y3.536 Z-0.189
G0 Z5
X26.561 Y1.879
Z0.184
G1 Z-0.126 F1000
X26.565 Y1.885 Z-0.195
X26.577 Y1.905 Z-0.261
X26.596 Y1.937 Z-0.319
X26.621 Y1.979 Z-0.368
X26.651 Y2.029 Z-0.405
X26.685 Y2.086 Z-0.428
X26.72 Y2.145 Z-0.436
G3 X27.2 Y3.781 I-2.953 J1.756
G1 Y3.953
X27.197 Y3.989
X27.189 Y4.026
X27.177 Y4.062
X27.159 Y4.098
X27.135 Y4.134
X27.104 Y4.17
X27.072 Y4.199
X27.036 Y4.224
X27 Y4.242
X26.964 Y4.255
X26.928 Y4.263
X26.784 Y4.267
X10.063
X9.919
X9.883 Y4.262
X9.847 Y4.253
X9.811 Y4.239
X9.774 Y4.219
X9.744 Y4.198
X9.714 Y4.17
X9.684 Y4.135
X9.66 Y4.101
X9.643 Y4.067
X9.628 Y4.026
X9.62 Y3.989
X9.617 Y3.953
Y3.881
G3 X9.926 Y3.582 I0.31 J0.011
G1 X9.927
X9.979 Y3.596 Z-0.431
X10.029 Y3.609 Z-0.417
X10.076 Y3.621 Z-0.393
X10.114 Y3.656 Z-0.355
X10.145 Y3.685 Z-0.307
X10.168 Y3.706 Z-0.251
X10.182 Y3.72 Z-0.19
X10.187 Y3.724 Z-0.127
G0 Z5
X2.878 Y1.979
Z0.199
G1 Z-0.111 F1000
X2.882 Y1.986 Z-0.18
X2.894 Y2.005 Z-0.246
X2.913 Y2.037 Z-0.305
X2.938 Y2.079 Z-0.354
X2.968 Y2.13 Z-0.391
X3.001 Y2.186 Z-0.414
X3.036 Y2.246 Z-0.421
G3 X3.517 Y3.881 I-2.953 J1.756
G1 Y4.026
X3.514 Y4.17
X3.506 Y4.206
X3.494 Y4.242
X3.477 Y4.278
X3.453 Y4.314
X3.432 Y4.338
X3.396 Y4.371
X3.36 Y4.395
X3.288 Y4.431
X3.238 Y4.458
G3 X2.984 Y4.476 I-0.147 J-0.273
G2 X2.693 Y4.517 I-0.107 J0.291
G1 X2.519 Y4.647
X2.186 Y4.893
G2 X2.073 Y5.23 I0.184 J0.249
G3 X2.376 Y6.907 I-7.591 J2.238
G1 X2.392 Y7.34
X2.416 Y7.772
X2.423 Y7.834
X2.436 Y7.916
X2.472 Y8.06
X2.522 Y8.204
X2.567 Y8.304
X2.589 Y8.348
X2.711 Y8.539
X2.792 Y8.637
X2.866 Y8.72
X2.877 Y8.731
X3.144 Y8.933
X3.216 Y8.982
X3.288 Y9.016
X3.684 Y9.146
X4.009 Y9.166
X4.153 Y9.173
X33.847
X33.991 Y9.157
X34.071 Y9.147
G0 Z5
X36.276 Y6.447
Z0.199
G1 Z-0.111 F1000
X36.271 Y6.442 Z-0.18
X36.256 Y6.425 Z-0.246
X36.231 Y6.397 Z-0.305
X36.198 Y6.361 Z-0.354
X36.159 Y6.317 Z-0.391
X36.115 Y6.268 Z-0.414
X36.069 Y6.217 Z-0.421
G3 X35.323 Y5.178 I4.419 J-3.963
G1 X35.289 Y5.113
X35.243 Y5.034
X35.142 Y4.89
X35.011 Y4.746
X35.001 Y4.736
X34.856 Y4.617
X34.712 Y4.513
X34.696 Y4.505
X34.298 Y4.343
X33.991 Y4.308
X33.847 Y4.294
X33.631
X33.595 Y4.293
X33.559 Y4.287
X33.523 Y4.276
X33.487 Y4.26
X33.451 Y4.239
X33.415 Y4.209
X33.376 Y4.17
X33.349 Y4.134
X33.329 Y4.098
X33.315 Y4.062
X33.306 Y4.026
X33.301 Y3.989
X33.3 Y3.953
Y3.802
G3 X33.609 Y3.503 I0.31 J0.011
G1 X33.61
X33.662 Y3.516 Z-0.416
X33.713 Y3.529 Z-0.402
X33.76 Y3.542 Z-0.379
X33.797 Y3.577 Z-0.34
X33.828 Y3.605 Z-0.292
X33.851 Y3.627 Z-0.237
X33.866 Y3.64 Z-0.175
X33.871 Y3.645 Z-0.112
G0 Z5
X26.561 Y2.023
Z0.267
G1 Z-0.043 F1000
X26.565 Y2.029 Z-0.112
X26.577 Y2.049 Z-0.177
X26.596 Y2.081 Z-0.236
X26.621 Y2.123 Z-0.285
X26.651 Y2.173 Z-0.322
X26.685 Y2.23 Z-0.345
X26.72 Y2.289 Z-0.353
G3 X27.2 Y3.925 I-2.953 J1.756
G1 Y4.098
X27.197 Y4.134
X27.19 Y4.17
X27.178 Y4.206
X27.161 Y4.242
X27.138 Y4.278
X27.11 Y4.314
X27.072 Y4.35
X27.036 Y4.375
X27 Y4.393
X26.964 Y4.406
X26.928 Y4.414
X26.784 Y4.418
X10.063
X9.919
X9.883 Y4.413
X9.847 Y4.404
X9.811 Y4.39
X9.774 Y4.37
X9.741 Y4.346
X9.708 Y4.314
X9.682 Y4.281
X9.659 Y4.247
X9.643 Y4.214
X9.63 Y4.181
X9.627 Y4.17
X9.62 Y4.134
X9.617 Y4.098
Y4.026
G3 X9.926 Y3.726 I0.31 J0.011
G1 X9.927
X9.979 Y3.74 Z-0.348
X10.029 Y3.753 Z-0.333
X10.076 Y3.765 Z-0.31
X10.114 Y3.8 Z-0.272
X10.145 Y3.829 Z-0.224
X10.168 Y3.85 Z-0.168
X10.182 Y3.864 Z-0.107
X10.187 Y3.868 Z-0.043
G0 Z5
X2.878 Y2.123
Z0.276
G1 Z-0.034 F1000
X2.882 Y2.13 Z-0.103
X2.894 Y2.15 Z-0.168
X2.913 Y2.181 Z-0.227
X2.938 Y2.223 Z-0.276
X2.968 Y2.274 Z-0.313
X3.001 Y2.33 Z-0.336
X3.036 Y2.39 Z-0.344
G3 X3.517 Y4.026 I-2.953 J1.756
G1 Y4.17
X3.513 Y4.314
X3.505 Y4.35
X3.493 Y4.386
X3.475 Y4.422
X3.45 Y4.458
X3.432 Y4.479
X3.396 Y4.512
X3.36 Y4.536
X3.288 Y4.572
X3.184 Y4.63
G3 X2.931 Y4.653 I-0.152 J-0.27
G2 X2.57 Y4.779 I-0.101 J0.293
G1 X2.51 Y4.873
X2.075 Y5.552
G2 X2.042 Y5.817 I0.261 J0.167
G3 X2.401 Y7.484 I-7.512 J2.491
G1 X2.411 Y7.628
X2.423 Y7.716
X2.433 Y7.772
X2.47 Y7.916
X2.521 Y8.06
X2.567 Y8.16
X2.59 Y8.204
X2.632 Y8.276
X2.68 Y8.348
X2.797 Y8.493
X2.855 Y8.561
X2.945 Y8.637
X2.999 Y8.681
X3.144 Y8.783
X3.288 Y8.865
X3.436 Y8.925
X3.576 Y8.964
X3.666 Y8.987
X3.684 Y8.99
X4.009 Y9.009
X4.153 Y9.016
X33.847
X33.991 Y9
X34.071 Y8.99
G3 X34.301 Y9.535 I0.03 J0.309
G1 X34.248 Y9.579 Z-0.336
X34.198 Y9.622 Z-0.313
X34.154 Y9.66 Z-0.276
X34.116 Y9.692 Z-0.227
X34.088 Y9.716 Z-0.168
X34.071 Y9.73 Z-0.103
X34.065 Y9.735 Z-0.034
G0 Z5
X36.355 Y5.493
Z0.276
G1 Z-0.034 F1000
X36.347 Y5.496 Z-0.103
X36.326 Y5.503 Z-0.168
X36.291 Y5.515 Z-0.227
X36.244 Y5.531 Z-0.276
X36.188 Y5.55 Z-0.313
X36.126 Y5.571 Z-0.336
X36.061 Y5.593 Z-0.344
G3 X35.324 Y5.322 I-0.201 J-0.592
G1 X35.289 Y5.259
X35.241 Y5.178
X35.144 Y5.034
X35.014 Y4.89
X35.001 Y4.877
X34.856 Y4.752
X34.78 Y4.694
X34.712 Y4.652
X34.298 Y4.484
X33.991 Y4.449
X33.847 Y4.435
X33.631
X33.595 Y4.434
X33.559 Y4.428
X33.523 Y4.417
X33.487 Y4.401
X33.451 Y4.38
X33.415 Y4.35
X33.381 Y4.314
X33.352 Y4.278
X33.332 Y4.242
X33.317 Y4.206
X33.307 Y4.17
X33.302 Y4.134
X33.3 Y4.098
Y4.026
G3 X33.609 Y3.726 I0.31 J0.011
G1 X33.61
X33.662 Y3.74 Z-0.338
X33.713 Y3.753 Z-0.324
X33.76 Y3.765 Z-0.301
X33.797 Y3.8 Z-0.263
X33.828 Y3.829 Z-0.215
X33.851 Y3.85 Z-0.159
X33.866 Y3.864 Z-0.098
X33.871 Y3.868 Z-0.034
G0 Z5
X26.561 Y2.167
Z0.35
G1 Z0.04 F1000
X26.565 Y2.173 Z-0.029
X26.577 Y2.193 Z-0.094
X26.596 Y2.225 Z-0.153
X26.621 Y2.267 Z-0.202
X26.651 Y2.318 Z-0.239
X26.685 Y2.374 Z-0.262
X26.72 Y2.433 Z-0.27
G3 X27.2 Y4.069 I-2.953 J1.756
G1 Y4.314
Y4.35
X27.195 Y4.386
X27.186 Y4.422
X27.172 Y4.458
X27.156 Y4.489
X27.135 Y4.52
X27.103 Y4.554
X27.072 Y4.582
X27.044 Y4.602
X27.015 Y4.618
X26.986 Y4.631
X26.957 Y4.64
X26.928 Y4.646
X26.784 Y4.65
X10.063
X9.919 Y4.649
X9.883 Y4.645
X9.847 Y4.636
X9.811 Y4.622
X9.774 Y4.602
X9.733 Y4.57
X9.691 Y4.53
X9.665 Y4.494
X9.645 Y4.458
X9.63 Y4.418
X9.619 Y4.366
X9.617 Y4.314
Y4.17
G3 X9.926 Y3.87 I0.31 J0.011
G1 X9.927
X9.979 Y3.884 Z-0.265
X10.029 Y3.897 Z-0.25
X10.076 Y3.909 Z-0.227
X10.114 Y3.944 Z-0.189
X10.145 Y3.973 Z-0.141
X10.168 Y3.994 Z-0.085
X10.182 Y4.008 Z-0.024
X10.187 Y4.012 Z0.04
G0 Z5
X2.878 Y2.267
Z0.351
G1 Z0.041 F1000
X2.882 Y2.274 Z-0.028
X2.894 Y2.294 Z-0.093
X2.913 Y2.325 Z-0.152
X2.938 Y2.368 Z-0.201
X2.968 Y2.418 Z-0.238
X3.001 Y2.474 Z-0.261
X3.036 Y2.534 Z-0.269
G3 X3.517 Y4.17 I-2.953 J1.756
G1 Y4.458
X3.513 Y4.53
X3.505 Y4.566
X3.493 Y4.602
X3.468 Y4.648
X3.452 Y4.671
X3.432 Y4.695
X3.403 Y4.722
X3.375 Y4.746
X3.288 Y4.794
X3.064 Y4.943
G3 X2.814 Y4.985 I-0.172 J-0.258
G2 X2.458 Y5.148 I-0.078 J0.3
G1 X2.413 Y5.237
X2.106 Y5.857
G2 X2.124 Y6.164 I0.278 J0.138
G3 X2.377 Y6.907 I-1.325 J0.865
G1 X2.395 Y7.34
X2.41 Y7.484
X2.423 Y7.556
X2.44 Y7.628
X2.485 Y7.772
X2.544 Y7.916
X2.567 Y7.96
X2.64 Y8.089
X2.651 Y8.104
X2.872 Y8.368
X2.892 Y8.388
X3.017 Y8.493
X3.144 Y8.57
X3.271 Y8.646
X3.666 Y8.772
X3.684 Y8.777
X4.009 Y8.795
X4.153 Y8.801
X33.847
X33.991 Y8.787
X34.04 Y8.781
G3 X34.283 Y8.855 I0.039 J0.308
G2 X34.747 Y8.791 I0.204 J-0.233
G1 X35.743 Y7.27
G2 X35.74 Y6.926 I-0.259 J-0.17
G3 X35.473 Y6.187 I1.309 J-0.889
G1 X35.465 Y6.043
X35.442 Y5.899
X35.433 Y5.857
X35.406 Y5.755
X35.326 Y5.551
X35.318 Y5.536
X35.145 Y5.27
X35.083 Y5.178
X35.001 Y5.106
X34.694 Y4.864
X34.424 Y4.742
X34.352 Y4.719
X34.28 Y4.703
X33.991 Y4.67
X33.847 Y4.657
X33.631
X33.595 Y4.655
X33.559 Y4.649
X33.532 Y4.641
X33.506 Y4.631
X33.479 Y4.618
X33.452 Y4.602
X33.415 Y4.575
X33.383 Y4.546
X33.359 Y4.517
X33.34 Y4.487
X33.326 Y4.458
X33.313 Y4.422
X33.305 Y4.386
X33.3 Y4.314
Y4.17
G3 X33.609 Y3.87 I0.31 J0.011
G1 X33.61
X33.662 Y3.884 Z-0.264
X33.713 Y3.897 Z-0.249
X33.76 Y3.909 Z-0.226
X33.797 Y3.944 Z-0.188
X33.828 Y3.973 Z-0.14
X33.851 Y3.994 Z-0.084
X33.866 Y4.008 Z-0.023
X33.871 Y4.012 Z0.041
G0 Z5
X26.561 Y2.411
Z0.391
G1 Z0.081 F1000
X26.565 Y2.418 Z0.012
X26.577 Y2.438 Z-0.053
X26.596 Y2.469 Z-0.112
X26.621 Y2.512 Z-0.161
X26.651 Y2.562 Z-0.198
X26.685 Y2.619 Z-0.221
X26.72 Y2.678 Z-0.229
G3 X27.2 Y4.314 I-2.953 J1.756
G1 Y4.573
Y4.602
X27.199 Y4.642
X27.195 Y4.688
X27.19 Y4.717
X27.183 Y4.746
G3 X26.913 Y4.89 I-0.23 J-0.107
X26.991 Y4.4 I0.039 J-0.245
X27.199 Y4.642 I-0.039 J0.245
G1 Y4.674
X27.193 Y4.71
X27.183 Y4.746
X27.168 Y4.782
X27.147 Y4.818
X27.118 Y4.854
X27.082 Y4.89
X27.072 Y4.898
X27.036 Y4.923
X27 Y4.942
X26.964 Y4.954
X26.928 Y4.963
X26.784 Y4.967
X10.063
X9.919 Y4.966
X9.883 Y4.961
X9.847 Y4.952
X9.811 Y4.938
X9.774 Y4.919
X9.736 Y4.89
X9.699 Y4.854
X9.671 Y4.818
X9.65 Y4.782
X9.634 Y4.746
X9.63 Y4.734
X9.622 Y4.701
X9.618 Y4.668
X9.617 Y4.602
Y4.379
G3 X9.926 Y4.079 I0.31 J0.011
G1 X9.927
X9.979 Y4.093 Z-0.224
X10.029 Y4.106 Z-0.209
X10.076 Y4.118 Z-0.186
X10.114 Y4.153 Z-0.148
X10.145 Y4.182 Z-0.1
X10.168 Y4.203 Z-0.044
X10.182 Y4.217 Z0.017
X10.187 Y4.221 Z0.081
G0 Z5
X2.878 Y2.555
Z0.391
G1 Z0.081 F1000
X2.882 Y2.562 Z0.012
X2.894 Y2.582 Z-0.053
X2.913 Y2.614 Z-0.112
X2.938 Y2.656 Z-0.161
X2.968 Y2.706 Z-0.198
X3.001 Y2.763 Z-0.221
X3.036 Y2.822 Z-0.229
G3 X3.517 Y4.458 I-2.953 J1.756
G1 Y4.746
X3.516 Y4.818
X3.512 Y4.854
X3.503 Y4.89
X3.491 Y4.92
X3.476 Y4.95
X3.457 Y4.98
X3.432 Y5.01
X3.407 Y5.034
X3.347 Y5.075
X3.288 Y5.103
X3.144 Y5.179
X2.971 Y5.305
X2.879 Y5.375
X2.866 Y5.387
X2.688 Y5.584
X2.595 Y5.755
X2.567 Y5.794
X2.534 Y5.828
X2.496 Y5.857
X2.177 Y6.062
G2 X2.117 Y6.357 I0.113 J0.177
G3 X2.385 Y7.095 I-1.307 J0.892
G1 X2.391 Y7.196
X2.412 Y7.34
X2.423 Y7.39
X2.447 Y7.484
X2.499 Y7.628
X2.57 Y7.772
X2.657 Y7.916
X2.765 Y8.06
X2.855 Y8.156
X2.872 Y8.17
X3.288 Y8.452
X3.303 Y8.46
X3.666 Y8.568
X3.684 Y8.571
X4.009 Y8.589
X4.153 Y8.594
X33.847
X33.991 Y8.58
X34.071 Y8.571
G3 X34.313 Y8.646 I0.037 J0.308
G2 X34.743 Y8.628 I0.205 J-0.232
G1 X34.776 Y8.593
X35.72 Y7.602
G2 X35.749 Y7.21 I-0.225 J-0.214
G3 X35.473 Y6.475 I1.297 J-0.907
G1 X35.462 Y6.331
X35.438 Y6.187
X35.398 Y6.043
X35.386 Y6.007
X35.329 Y5.899
X35.154 Y5.575
X35.123 Y5.536
X35.109 Y5.521
X34.712 Y5.185
X34.699 Y5.178
X34.312 Y5.021
X34.296 Y5.016
X33.991 Y4.98
X33.847 Y4.967
X33.631
X33.595 Y4.965
X33.559 Y4.959
X33.525 Y4.949
X33.491 Y4.935
X33.456 Y4.915
X33.415 Y4.884
X33.379 Y4.85
X33.352 Y4.815
X33.332 Y4.781
X33.318 Y4.746
X33.307 Y4.71
X33.302 Y4.674
X33.3 Y4.602
Y4.379
G3 X33.609 Y4.079 I0.31 J0.011
G1 X33.61
X33.662 Y4.093 Z-0.224
X33.713 Y4.106 Z-0.209
X33.76 Y4.118 Z-0.186
X33.797 Y4.153 Z-0.148
X33.828 Y4.182 Z-0.1
X33.851 Y4.203 Z-0.044
X33.866 Y4.217 Z0.017
X33.871 Y4.221 Z0.081
G0 Z5
X2.878 Y2.887
Z0.433
G1 Z0.123 F1000
X2.882 Y2.894 Z0.054
X2.894 Y2.914 Z-0.012
X2.913 Y2.945 Z-0.071
X2.938 Y2.988 Z-0.12
X2.968 Y3.038 Z-0.157
X3.001 Y3.094 Z-0.18
X3.036 Y3.154 Z-0.187
G3 X3.517 Y4.79 I-2.953 J1.756
G1 Y5.322
X3.521 Y5.466
X3.538 Y5.827
X3.541 Y5.845
X3.576 Y5.999
X3.588 Y6.043
X3.643 Y6.187
X3.713 Y6.331
X3.72 Y6.345
X3.804 Y6.475
X3.864 Y6.561
X3.914 Y6.619
X4.066 Y6.763
X4.153 Y6.831
X4.262 Y6.907
X4.441 Y6.996
X4.577 Y7.052
X4.729 Y7.093
X4.873 Y7.121
X5.018 Y7.13
X5.65 Y7.179
X6.284 Y7.205
X6.918 Y7.221
X7.632 Y7.23
X8.346 Y7.236
X8.98 Y7.239
X10.249 Y7.241
X14.056 Y7.243
X32.375
X32.454 Y7.242
X32.533 Y7.233
G3 X32.757 Y7.78 I0.026 J0.309
G1 X32.704 Y7.824 Z-0.18
X32.653 Y7.866 Z-0.157
X32.608 Y7.903 Z-0.12
X32.57 Y7.935 Z-0.071
X32.542 Y7.958 Z-0.012
X32.524 Y7.973 Z0.054
X32.518 Y7.978 Z0.123
G0 Z5
X3.988 Y7.483
Z0.433
G1 Z0.123 F1000
X3.995 Y7.479 Z0.054
X4.015 Y7.468 Z-0.012
X4.047 Y7.45 Z-0.071
X4.09 Y7.426 Z-0.12
X4.141 Y7.397 Z-0.157
X4.198 Y7.365 Z-0.18
X4.258 Y7.331 Z-0.187
G3 X5.018 Y7.13 I0.773 J1.381
G1 X5.162 Y7.134
X7.901
X8.045 Y7.132
X8.189 Y7.127
X8.333 Y7.108
X8.477 Y7.078
X8.56 Y7.052
X8.621 Y7.031
X8.765 Y6.967
X8.91 Y6.879
X9.054 Y6.771
X9.198 Y6.643
X9.218 Y6.619
X9.342 Y6.459
X9.419 Y6.331
X9.486 Y6.204
X9.493 Y6.187
X9.546 Y6.043
X9.583 Y5.899
X9.599 Y5.755
X9.613 Y5.466
X9.617 Y5.322
Y4.746
G3 X10.187 Y4.589 I0.31 J0.011
G1 X10.225 Y4.647 Z-0.18
X10.26 Y4.702 Z-0.157
X10.292 Y4.751 Z-0.12
X10.319 Y4.792 Z-0.071
X10.339 Y4.823 Z-0.012
X10.351 Y4.843 Z0.054
X10.355 Y4.849 Z0.123
G0 Z5
X26.561 Y2.7
Z0.433
G1 Z0.123 F1000
X26.565 Y2.706 Z0.054
X26.577 Y2.726 Z-0.012
X26.596 Y2.758 Z-0.071
X26.621 Y2.8 Z-0.12
X26.651 Y2.85 Z-0.157
X26.685 Y2.907 Z-0.18
X26.72 Y2.966 Z-0.187
G3 X27.2 Y4.602 I-2.953 J1.756
G1 Y5.322
X27.201 Y5.466
X27.203 Y5.611
X27.22 Y5.755
X27.249 Y5.899
X27.29 Y6.043
X27.361 Y6.214
X27.425 Y6.331
X27.523 Y6.475
X27.585 Y6.547
X27.649 Y6.619
X27.816 Y6.763
X27.937 Y6.843
X28.043 Y6.907
X28.226 Y6.987
X28.298 Y7.012
X28.37 Y7.03
X28.461 Y7.052
X28.514 Y7.06
X28.658 Y7.075
X29.09 Y7.08
X31.397
X31.541 Y7.078
X31.829 Y7.07
X31.973 Y7.06
X32.118 Y7.031
X32.262 Y6.99
X32.406 Y6.93
X32.451 Y6.907
X32.55 Y6.855
X32.694 Y6.754
X32.838 Y6.632
X32.851 Y6.619
X32.982 Y6.463
X33.071 Y6.331
X33.127 Y6.238
X33.151 Y6.187
X33.211 Y6.043
X33.252 Y5.899
X33.271 Y5.826
X33.28 Y5.755
X33.297 Y5.611
X33.299 Y5.466
X33.3 Y5.178
Y4.746
G3 X33.609 Y4.447 I0.31 J0.011
G1 X33.61
X33.662 Y4.46 Z-0.182
X33.713 Y4.473 Z-0.168
X33.76 Y4.485 Z-0.145
X33.797 Y4.52 Z-0.106
X33.828 Y4.549 Z-0.058
X33.851 Y4.571 Z-0.003
X33.866 Y4.584 Z0.058
X33.871 Y4.589 Z0.122
G0 Z5
X1.725 Y28
Z-0.657
G1 Z-0.967 F1000
X1.733 Y27.998 Z-1.036
X1.755 Y27.992 Z-1.101
X1.791 Y27.983 Z-1.16
X1.838 Y27.971 Z-1.209
X1.895 Y27.956 Z-1.246
X1.959 Y27.94 Z-1.269
X2.026 Y27.923 Z-1.277
G3 X2.869 Y27.802 I0.982 J3.833
G1 X3.019
X3.16 Y27.854
X3.282 Y27.942
X3.39 Y28.045
X3.487 Y28.16
X3.59 Y28.305
X3.703 Y28.492
X3.824 Y28.738
X3.956 Y29.07
X4.102 Y29.543
X4.239 Y30.162
X4.335 Y30.789
X4.407 Y31.42
X4.466 Y32.051
X4.517 Y32.684
X4.564 Y33.316
X4.608 Y33.949
X4.692 Y35.215
X4.815 Y37.115
X5.013 Y40.281
X5.13 Y42.18
X5.323 Y45.358
X5.311 Y45.552
X5.254 Y45.737
X5.154 Y45.903
X5.018 Y46.041
X4.941 Y46.102
X4.873 Y46.158
X4.774 Y46.246
X4.729 Y46.296
X4.585 Y46.486
X4.481 Y46.678
X4.441 Y46.772
X4.423 Y46.822
X4.382 Y46.966
X4.355 Y47.111
X4.343 Y47.255
X4.345 Y47.399
X4.349 Y47.543
X4.463 Y49.848
X4.472 Y49.992
X4.486 Y50.137
X4.514 Y50.281
X4.559 Y50.425
X4.585 Y50.502
X4.618 Y50.569
X4.692 Y50.713
X4.794 Y50.857
X4.873 Y50.956
X4.914 Y51.001
X5.018 Y51.096
X5.162 Y51.199
X5.311 Y51.289
X5.45 Y51.355
X5.594 Y51.415
X5.621 Y51.433
X5.66 Y51.469
X5.691 Y51.505
X5.714 Y51.541
X5.731 Y51.578
X5.738 Y51.599
X5.746 Y51.629
X5.751 Y51.66
X5.752 Y51.722
Y52.01
X5.75 Y52.154
X5.746 Y52.183
X5.738 Y52.212
X5.721 Y52.255
G3 X5.147 Y52.113 I-0.265 J-0.161
G1 X5.143 Y52.044 Z-1.269
X5.139 Y51.979 Z-1.246
X5.135 Y51.92 Z-1.209
X5.132 Y51.871 Z-1.16
X5.13 Y51.834 Z-1.101
X5.129 Y51.811 Z-1.036
X5.128 Y51.803 Z-0.967
G0 Z5
X2.919 Y2.467
Z-0.657
G1 Z-0.967 F1000
X2.915 Y2.46 Z-1.036
X2.904 Y2.44 Z-1.101
X2.886 Y2.407 Z-1.16
X2.862 Y2.364 Z-1.209
X2.834 Y2.313 Z-1.246
X2.803 Y2.256 Z-1.269
X2.769 Y2.195 Z-1.277
G3 X3.432 Y1.659 I0.379 J-0.209
G1 X3.457 Y1.689
X3.477 Y1.72
X3.494 Y1.756
X3.506 Y1.792
X3.514 Y1.828
X3.517 Y1.864
Y2.945
X3.516 Y2.981
X3.51 Y3.017
X3.5 Y3.053
X3.485 Y3.089
X3.464 Y3.125
X3.432 Y3.165
X3.396 Y3.199
X3.36 Y3.226
X3.288 Y3.262
X3.205 Y3.305
X3.144 Y3.341
X2.999 Y3.437
X2.855 Y3.556
X2.82 Y3.593
X2.711 Y3.715
X2.594 Y3.881
X2.567 Y3.928
X2.518 Y4.026
X2.461 Y4.17
X2.423 Y4.293
X2.417 Y4.314
X2.391 Y4.458
X2.376 Y4.602
X2.374 Y4.746
Y6.907
X2.375 Y7.196
X2.377 Y7.34
X2.454 Y8.925
X2.464 Y9.069
X2.484 Y9.213
X2.519 Y9.357
X2.572 Y9.501
X2.637 Y9.645
X2.672 Y9.709
X2.711 Y9.773
X2.787 Y9.869
X2.888 Y10.012
X2.992 Y10.186
X3.103 Y10.412
X3.221 Y10.711
X3.347 Y11.125
X3.482 Y11.745
X3.568 Y12.373
X3.625 Y13.005
X3.666 Y13.638
X3.698 Y14.272
X3.725 Y14.906
X3.747 Y15.54
X3.768 Y16.174
X3.806 Y17.442
X3.894 Y20.613
X3.912 Y21.247
X3.93 Y21.882
X3.951 Y22.516
X3.975 Y23.15
X4.002 Y23.783
X4.032 Y24.417
X4.065 Y25.051
X4.1 Y25.684
X4.202 Y26.31
X4.413 Y26.909
X4.654 Y27.496
X4.884 Y28.087
X5.087 Y28.688
X5.257 Y29.299
X5.393 Y29.919
X5.502 Y30.544
X5.589 Y31.172
X5.661 Y31.803
X5.722 Y32.434
X5.776 Y33.066
X5.825 Y33.699
X5.871 Y34.332
X5.915 Y34.964
X5.999 Y36.231
X6.12 Y38.13
X6.279 Y40.663
X6.472 Y43.829
X6.51 Y44.462
X6.505 Y44.823
X6.481 Y45.086
X6.462 Y45.189
X6.404 Y45.372
X6.3 Y45.533
X6.158 Y45.661
X5.986 Y45.748
X5.798 Y45.786
G3 X5.603 Y45.227 I-0.01 J-0.31
G1 X5.659 Y45.186 Z-1.269
X5.711 Y45.147 Z-1.246
X5.758 Y45.112 Z-1.209
X5.798 Y45.082 Z-1.16
X5.827 Y45.06 Z-1.101
X5.846 Y45.047 Z-1.036
X5.852 Y45.042 Z-0.967
G0 Z5
X1.858 Y9.302
Z-0.657
G1 Z-0.967 F1000
X1.865 Y9.305 Z-1.036
X1.886 Y9.313 Z-1.101
X1.921 Y9.326 Z-1.16
X1.966 Y9.344 Z-1.209
X2.021 Y9.365 Z-1.246
X2.082 Y9.389 Z-1.269
X2.147 Y9.413 Z-1.277
G3 X2.787 Y9.869 I-0.569 J1.477
G1 X2.868 Y9.972
X2.882 Y9.988
X2.999 Y10.091
X3.144 Y10.204
X3.288 Y10.294
X3.367 Y10.33
X3.501 Y10.398
X3.622 Y10.485
X3.735 Y10.585
X3.84 Y10.695
X3.954 Y10.836
X4.081 Y11.021
X4.205 Y11.237
X4.34 Y11.523
X4.477 Y11.886
X4.622 Y12.39
X4.748 Y13.012
X4.832 Y13.64
X4.892 Y14.272
X4.936 Y14.905
X4.969 Y15.538
X4.997 Y16.172
X5.02 Y16.806
X5.042 Y17.44
X5.08 Y18.709
X5.153 Y21.245
X5.173 Y21.879
X5.196 Y22.513
X5.221 Y23.147
X5.248 Y23.781
X5.279 Y24.415
X5.328 Y25.047
X5.445 Y25.671
X5.613 Y26.283
X5.805 Y26.887
X6.001 Y27.491
X6.187 Y28.097
X6.353 Y28.71
X6.498 Y29.327
X6.621 Y29.95
X6.724 Y30.576
X6.812 Y31.204
X6.886 Y31.834
X6.951 Y32.465
X7.008 Y33.097
X7.06 Y33.729
X7.109 Y34.362
X7.154 Y34.995
X7.198 Y35.628
X7.282 Y36.894
X7.404 Y38.793
X7.562 Y41.326
X7.678 Y43.226
X7.707 Y43.86
X7.702 Y44.321
X7.674 Y44.639
X7.629 Y44.897
X7.574 Y45.114
X7.508 Y45.305
X7.495 Y45.335
X7.385 Y45.513
X7.229 Y45.651
X7.039 Y45.739
X6.832 Y45.77
X6.171
X6.027
X5.798 Y45.786
G3 X5.603 Y45.227 I-0.01 J-0.31
G1 X5.659 Y45.186 Z-1.269
X5.711 Y45.147 Z-1.246
X5.758 Y45.112 Z-1.209
X5.798 Y45.082 Z-1.16
X5.827 Y45.06 Z-1.101
X5.846 Y45.047 Z-1.036
X5.852 Y45.042 Z-0.967
G0 Z5
X2.281 Y10.261
Z-0.657
G1 Z-0.967 F1000
X2.289 Y10.26 Z-1.036
X2.311 Y10.257 Z-1.101
X2.348 Y10.253 Z-1.16
X2.397 Y10.247 Z-1.209
X2.455 Y10.24 Z-1.246
X2.52 Y10.233 Z-1.269
X2.589 Y10.225 Z-1.277
G3 X3.367 Y10.33 I0.184 J1.572
G1 X3.448 Y10.366
X3.576 Y10.406
X3.666 Y10.432
X3.684 Y10.436
X3.944 Y10.457
X4.092 Y10.477
X4.236 Y10.522
X4.372 Y10.584
X4.501 Y10.661
X4.623 Y10.749
X4.749 Y10.857
X4.893 Y11.001
X5.031 Y11.165
X5.178 Y11.37
X5.336 Y11.632
X5.488 Y11.937
X5.648 Y12.335
X5.81 Y12.859
X5.949 Y13.478
X6.047 Y14.105
X6.117 Y14.735
X6.169 Y15.368
X6.208 Y16.001
X6.24 Y16.635
X6.267 Y17.268
X6.29 Y17.902
X6.312 Y18.537
X6.351 Y19.805
X6.389 Y21.073
X6.41 Y21.707
X6.433 Y22.341
X6.458 Y22.975
X6.488 Y23.609
X6.537 Y24.241
X6.628 Y24.869
X6.758 Y25.49
X6.915 Y26.105
X7.256 Y27.327
X7.419 Y27.94
X7.57 Y28.556
X7.705 Y29.176
X7.824 Y29.8
X7.927 Y30.425
X8.017 Y31.053
X8.096 Y31.683
X8.165 Y32.314
X8.226 Y32.945
X8.281 Y33.577
X8.333 Y34.21
X8.381 Y34.842
X8.426 Y35.475
X8.47 Y36.108
X8.554 Y37.374
X8.676 Y39.273
X8.833 Y41.806
X8.871 Y42.439
X8.902 Y43.073
X8.912 Y43.708
X8.885 Y44.216
X8.833 Y44.599
X8.768 Y44.899
X8.699 Y45.129
X8.618 Y45.334
X8.604 Y45.364
X8.491 Y45.531
X8.337 Y45.66
X8.153 Y45.742
X7.954 Y45.77
X6.832
G3 X6.675 Y45.199 I0.011 J-0.31
G1 X6.733 Y45.162 Z-1.269
X6.788 Y45.126 Z-1.246
X6.837 Y45.095 Z-1.209
X6.879 Y45.068 Z-1.16
X6.91 Y45.048 Z-1.101
X6.929 Y45.035 Z-1.036
X6.935 Y45.031 Z-0.967
G0 Z5
X2.896 Y10.752
Z-0.657
G1 Z-0.967 F1000
X2.903 Y10.749 Z-1.036
X2.923 Y10.739 Z-1.101
X2.957 Y10.722 Z-1.16
X3.001 Y10.701 Z-1.209
X3.054 Y10.675 Z-1.246
X3.112 Y10.646 Z-1.269
X3.174 Y10.616 Z-1.277
G3 X3.944 Y10.457 I0.694 J1.422
G1 X4.009 Y10.463
X4.153 Y10.472
X4.729
X4.879 Y10.479
X5.027 Y10.507
X5.169 Y10.553
X5.307 Y10.612
X5.444 Y10.687
X5.581 Y10.777
X5.731 Y10.894
X5.888 Y11.038
X6.049 Y11.211
X6.225 Y11.435
X6.391 Y11.684
X6.575 Y12.015
X6.749 Y12.398
X6.927 Y12.892
X7.094 Y13.504
X7.215 Y14.127
X7.304 Y14.755
X7.371 Y15.386
X7.422 Y16.018
X7.462 Y16.651
X7.495 Y17.285
X7.522 Y17.919
X7.546 Y18.553
X7.568 Y19.187
X7.631 Y21.089
X7.654 Y21.723
X7.678 Y22.357
X7.709 Y22.991
X7.759 Y23.623
X7.839 Y24.252
X7.95 Y24.877
X8.085 Y25.497
X8.235 Y26.113
X8.391 Y26.728
X8.545 Y27.344
X8.692 Y27.961
X8.828 Y28.581
X8.952 Y29.203
X9.064 Y29.827
X9.163 Y30.454
X9.251 Y31.082
X9.329 Y31.712
X9.398 Y32.342
X9.461 Y32.974
X9.518 Y33.606
X9.571 Y34.238
X9.62 Y34.87
X9.667 Y35.503
X9.711 Y36.136
X9.755 Y36.769
X9.838 Y38.035
X9.959 Y39.935
X10.037 Y41.201
X10.075 Y41.834
X10.105 Y42.468
X10.119 Y43.102
X10.104 Y43.737
X10.056 Y44.255
X9.985 Y44.661
X9.906 Y44.964
X9.826 Y45.194
X9.763 Y45.338
X9.652 Y45.514
X9.496 Y45.652
X9.307 Y45.74
X9.101 Y45.77
X7.954
G3 X7.797 Y45.199 I0.011 J-0.31
G1 X7.854 Y45.162 Z-1.269
X7.91 Y45.126 Z-1.246
X7.959 Y45.095 Z-1.209
X8 Y45.068 Z-1.16
X8.031 Y45.048 Z-1.101
X8.05 Y45.035 Z-1.036
X8.057 Y45.031 Z-0.967
G0 Z5
X3.709 Y10.851
Z-0.657
G1 Z-0.967 F1000
X3.716 Y10.847 Z-1.036
X3.736 Y10.836 Z-1.101
X3.767 Y10.817 Z-1.16
X3.81 Y10.792 Z-1.209
X3.86 Y10.762 Z-1.246
X3.916 Y10.728 Z-1.269
X3.976 Y10.693 Z-1.277
G3 X4.729 Y10.472 I0.809 J1.36
G1 X5.738
X5.888 Y10.48
X6.035 Y10.509
X6.178 Y10.554
X6.317 Y10.611
X6.464 Y10.689
X6.617 Y10.785
X6.78 Y10.907
X6.952 Y11.058
X7.128 Y11.241
X7.317 Y11.47
X7.503 Y11.738
X7.701 Y12.078
X7.896 Y12.487
X8.087 Y12.985
X8.266 Y13.594
X8.4 Y14.214
X8.501 Y14.841
X8.578 Y15.47
X8.638 Y16.102
X8.685 Y16.735
X8.723 Y17.368
X8.755 Y18.002
X8.782 Y18.635
X8.806 Y19.269
X8.875 Y21.171
X8.9 Y21.805
X8.933 Y22.439
X8.982 Y23.071
X9.055 Y23.702
X9.154 Y24.328
X9.273 Y24.952
X9.408 Y25.571
X9.551 Y26.19
X9.695 Y26.807
X9.837 Y27.426
X9.971 Y28.046
X10.096 Y28.668
X10.212 Y29.292
X10.316 Y29.917
X10.411 Y30.545
X10.495 Y31.174
X10.572 Y31.803
X10.641 Y32.434
X10.703 Y33.065
X10.761 Y33.697
X10.814 Y34.329
X10.864 Y34.962
X10.911 Y35.595
X10.957 Y36.227
X11.001 Y36.86
X11.085 Y38.126
X11.166 Y39.393
X11.245 Y40.659
X11.282 Y41.292
X11.311 Y41.926
X11.328 Y42.56
X11.324 Y43.195
X11.288 Y43.828
X11.22 Y44.35
X11.139 Y44.733
X11.048 Y45.041
X10.963 Y45.258
X10.914 Y45.361
X10.802 Y45.529
X10.647 Y45.659
X10.463 Y45.741
X10.263 Y45.77
X9.101
G3 X8.943 Y45.199 I0.011 J-0.31
G1 X9.001 Y45.162 Z-1.269
X9.057 Y45.126 Z-1.246
X9.106 Y45.095 Z-1.209
X9.147 Y45.068 Z-1.16
X9.178 Y45.048 Z-1.101
X9.197 Y45.035 Z-1.036
X9.204 Y45.031 Z-0.967
G0 Z-0.657
X4.718 Y10.852
G1 Z-0.967 F1000
X4.725 Y10.848 Z-1.036
X4.745 Y10.836 Z-1.101
X4.776 Y10.817 Z-1.16
X4.819 Y10.792 Z-1.209
X4.869 Y10.762 Z-1.246
X4.925 Y10.728 Z-1.269
X4.985 Y10.693 Z-1.277
G3 X5.738 Y10.472 I0.809 J1.36
G1 X6.747
X6.897 Y10.48
X7.045 Y10.502
X7.19 Y10.541
X7.331 Y10.593
X7.473 Y10.659
X7.637 Y10.752
X7.797 Y10.86
X7.981 Y11.008
X8.16 Y11.177
X8.36 Y11.399
X8.553 Y11.65
X8.767 Y11.983
X8.965 Y12.352
X9.175 Y12.831
X9.381 Y13.431
X9.54 Y14.045
X9.662 Y14.668
X9.756 Y15.295
X9.829 Y15.926
X9.887 Y16.557
X9.934 Y17.19
X9.972 Y17.823
X10.005 Y18.457
X10.033 Y19.091
X10.059 Y19.725
X10.11 Y20.992
X10.14 Y21.626
X10.182 Y22.259
X10.24 Y22.891
X10.32 Y23.52
X10.419 Y24.147
X10.535 Y24.771
X10.663 Y25.392
X10.797 Y26.012
X10.932 Y26.632
X11.065 Y27.253
X11.193 Y27.874
X11.313 Y28.497
X11.425 Y29.121
X11.528 Y29.747
X11.623 Y30.375
X11.708 Y31.003
X11.786 Y31.633
X11.857 Y32.263
X11.921 Y32.895
X11.981 Y33.526
X12.036 Y34.158
X12.088 Y34.791
X12.137 Y35.423
X12.184 Y36.056
X12.228 Y36.689
X12.272 Y37.322
X12.356 Y38.588
X12.436 Y39.854
X12.474 Y40.487
X12.507 Y41.121
X12.533 Y41.755
X12.545 Y42.389
X12.537 Y43.023
X12.499 Y43.657
X12.425 Y44.244
X12.335 Y44.676
X12.239 Y45.002
X12.15 Y45.233
X12.09 Y45.359
X11.978 Y45.528
X11.823 Y45.658
X11.638 Y45.741
X11.438 Y45.77
X10.263
G3 X10.105 Y45.199 I0.011 J-0.31
G1 X10.163 Y45.162 Z-1.269
X10.218 Y45.126 Z-1.246
X10.268 Y45.095 Z-1.209
X10.309 Y45.068 Z-1.16
X10.34 Y45.048 Z-1.101
X10.359 Y45.035 Z-1.036
X10.366 Y45.031 Z-0.967
G0 Z-0.657
X5.727 Y10.852
G1 Z-0.967 F1000
X5.734 Y10.848 Z-1.036
X5.754 Y10.836 Z-1.101
X5.785 Y10.817 Z-1.16
X5.828 Y10.792 Z-1.209
X5.878 Y10.762 Z-1.246
X5.934 Y10.729 Z-1.269
X5.994 Y10.693 Z-1.277
G3 X6.747 Y10.472 I0.809 J1.36
G1 X7.901
X8.05 Y10.48
X8.198 Y10.509
X8.341 Y10.552
X8.483 Y10.609
X8.647 Y10.69
X8.808 Y10.787
X8.993 Y10.92
X9.172 Y11.07
X9.378 Y11.275
X9.574 Y11.503
X9.798 Y11.812
X10.004 Y12.149
X10.226 Y12.589
X10.447 Y13.132
X10.639 Y13.736
X10.789 Y14.353
X10.906 Y14.976
X10.998 Y15.604
X11.07 Y16.234
X11.129 Y16.866
X11.176 Y17.499
X11.216 Y18.132
X11.25 Y18.766
X11.28 Y19.399
X11.337 Y20.667
X11.372 Y21.3
X11.418 Y21.933
X11.479 Y22.565
X11.557 Y23.194
X11.653 Y23.821
X11.762 Y24.446
X11.882 Y25.069
X12.008 Y25.691
X12.137 Y26.312
X12.264 Y26.934
X12.388 Y27.556
X12.506 Y28.179
X12.617 Y28.804
X12.72 Y29.43
X12.816 Y30.057
X12.903 Y30.686
X12.984 Y31.315
X13.058 Y31.945
X13.125 Y32.576
X13.188 Y33.207
X13.246 Y33.839
X13.3 Y34.471
X13.351 Y35.104
X13.399 Y35.736
X13.445 Y36.369
X13.49 Y37.002
X13.533 Y37.635
X13.576 Y38.268
X13.617 Y38.901
X13.657 Y39.534
X13.694 Y40.167
X13.726 Y40.801
X13.75 Y41.435
X13.762 Y42.069
X13.755 Y42.704
X13.723 Y43.337
X13.658 Y43.968
X13.567 Y44.486
X13.472 Y44.853
X13.373 Y45.137
X13.277 Y45.355
X13.258 Y45.39
X13.144 Y45.547
X12.992 Y45.668
X12.814 Y45.744
X12.622 Y45.77
X11.438
G3 X11.281 Y45.199 I0.011 J-0.31
G1 X11.338 Y45.162 Z-1.269
X11.394 Y45.126 Z-1.246
X11.443 Y45.095 Z-1.209
X11.484 Y45.068 Z-1.16
X11.515 Y45.048 Z-1.101
X11.534 Y45.035 Z-1.036
X11.541 Y45.031 Z-0.967
G0 Z-0.657
X6.881 Y10.852
G1 Z-0.967 F1000
X6.887 Y10.848 Z-1.036
X6.907 Y10.837 Z-1.101
X6.939 Y10.818 Z-1.16
X6.981 Y10.793 Z-1.209
X7.031 Y10.763 Z-1.246
X7.088 Y10.729 Z-1.269
X7.147 Y10.694 Z-1.277
G3 X7.901 Y10.472 I0.809 J1.36
G1 X8.989
X9.139 Y10.48
X9.287 Y10.504
X9.431 Y10.543
X9.583 Y10.599
X9.734 Y10.669
X9.908 Y10.768
X10.08 Y10.884
X10.275 Y11.04
X10.47 Y11.225
X10.685 Y11.462
X10.899 Y11.741
X11.131 Y12.101
X11.349 Y12.505
X11.578 Y13.029
X11.786 Y13.628
X11.95 Y14.241
X12.08 Y14.862
X12.184 Y15.488
X12.267 Y16.117
X12.334 Y16.748
X12.388 Y17.38
X12.434 Y18.012
X12.473 Y18.646
X12.507 Y19.279
X12.54 Y19.913
X12.576 Y20.546
X12.617 Y21.179
X12.671 Y21.812
X12.738 Y22.442
X12.82 Y23.071
X12.916 Y23.699
X13.023 Y24.324
X13.139 Y24.948
X13.26 Y25.57
X13.504 Y26.816
X13.623 Y27.439
X13.736 Y28.063
X13.844 Y28.688
X13.945 Y29.315
X14.039 Y29.942
X14.126 Y30.57
X14.207 Y31.2
X14.281 Y31.83
X14.349 Y32.461
X14.413 Y33.092
X14.472 Y33.723
X14.527 Y34.355
X14.579 Y34.988
X14.629 Y35.62
X14.676 Y36.253
X14.722 Y36.886
X14.766 Y37.519
X14.808 Y38.152
X14.849 Y38.785
X14.888 Y39.418
X14.923 Y40.051
X14.952 Y40.685
X14.973 Y41.319
X14.98 Y41.954
X14.971 Y42.588
X14.937 Y43.222
X14.873 Y43.853
X14.776 Y44.422
X14.676 Y44.814
X14.571 Y45.118
X14.477 Y45.334
X14.449 Y45.387
X14.334 Y45.545
X14.182 Y45.667
X14.004 Y45.743
X13.811 Y45.77
X12.622
G3 X12.465 Y45.199 I0.011 J-0.31
G1 X12.523 Y45.162 Z-1.269
X12.578 Y45.126 Z-1.246
X12.627 Y45.095 Z-1.209
X12.668 Y45.068 Z-1.16
X12.699 Y45.048 Z-1.101
X12.719 Y45.035 Z-1.036
X12.725 Y45.031 Z-0.967
G0 Z-0.657
X7.969 Y10.852
G1 Z-0.967 F1000
X7.976 Y10.848 Z-1.036
X7.995 Y10.836 Z-1.101
X8.027 Y10.818 Z-1.16
X8.069 Y10.792 Z-1.209
X8.12 Y10.762 Z-1.246
X8.176 Y10.729 Z-1.269
X8.235 Y10.694 Z-1.277
G3 X8.989 Y10.472 I0.809 J1.36
G1 X10.142
X10.292 Y10.479
X10.44 Y10.505
X10.584 Y10.545
X10.73 Y10.599
X10.889 Y10.673
X11.066 Y10.773
X11.244 Y10.894
X11.446 Y11.056
X11.643 Y11.241
X11.869 Y11.491
X12.081 Y11.769
X12.317 Y12.134
X12.554 Y12.576
X12.787 Y13.106
X12.994 Y13.705
X13.159 Y14.318
X13.292 Y14.938
X13.399 Y15.564
X13.486 Y16.192
X13.556 Y16.823
X13.615 Y17.454
X13.664 Y18.087
X13.707 Y18.72
X13.785 Y19.986
X13.828 Y20.619
X13.88 Y21.252
X13.943 Y21.883
X14.018 Y22.513
X14.106 Y23.141
X14.205 Y23.768
X14.313 Y24.393
X14.427 Y25.017
X14.662 Y26.264
X14.779 Y26.888
X14.892 Y27.512
X15 Y28.137
X15.104 Y28.763
X15.201 Y29.39
X15.291 Y30.018
X15.376 Y30.647
X15.454 Y31.276
X15.527 Y31.906
X15.595 Y32.537
X15.657 Y33.169
X15.716 Y33.8
X15.772 Y34.432
X15.824 Y35.065
X15.874 Y35.697
X15.921 Y36.33
X15.967 Y36.962
X16.011 Y37.595
X16.053 Y38.228
X16.093 Y38.862
X16.129 Y39.495
X16.16 Y40.129
X16.184 Y40.763
X16.197 Y41.397
X16.196 Y42.031
X16.178 Y42.666
X16.135 Y43.299
X16.062 Y43.929
X15.955 Y44.498
X15.855 Y44.863
X15.749 Y45.158
X15.652 Y45.372
X15.637 Y45.398
X15.523 Y45.551
X15.372 Y45.67
X15.195 Y45.744
X15.005 Y45.77
X13.811
G3 X13.653 Y45.199 I0.011 J-0.31
G1 X13.711 Y45.162 Z-1.269
X13.766 Y45.126 Z-1.246
X13.816 Y45.095 Z-1.209
X13.857 Y45.068 Z-1.16
X13.888 Y45.048 Z-1.101
X13.907 Y45.035 Z-1.036
X13.914 Y45.031 Z-0.967
G0 Z-0.657
X9.122 Y10.852
G1 Z-0.967 F1000
X9.129 Y10.848 Z-1.036
X9.148 Y10.836 Z-1.101
X9.18 Y10.817 Z-1.16
X9.222 Y10.792 Z-1.209
X9.273 Y10.762 Z-1.246
X9.329 Y10.729 Z-1.269
X9.389 Y10.693 Z-1.277
G3 X10.142 Y10.472 I0.809 J1.36
G1 X11.295
X11.445 Y10.479
X11.593 Y10.504
X11.738 Y10.543
X11.888 Y10.598
X12.045 Y10.67
X12.226 Y10.772
X12.404 Y10.891
X12.611 Y11.056
X12.811 Y11.242
X13.042 Y11.496
X13.258 Y11.775
X13.501 Y12.148
X13.738 Y12.584
X13.979 Y13.128
X14.189 Y13.726
X14.359 Y14.338
X14.496 Y14.957
X14.607 Y15.582
X14.699 Y16.21
X14.774 Y16.84
X14.837 Y17.471
X14.891 Y18.103
X14.938 Y18.736
X14.983 Y19.369
X15.03 Y20.001
X15.081 Y20.634
X15.14 Y21.265
X15.21 Y21.896
X15.291 Y22.525
X15.382 Y23.153
X15.482 Y23.779
X15.589 Y24.405
X15.7 Y25.029
X15.928 Y26.278
X16.04 Y26.902
X16.148 Y27.527
X16.253 Y28.153
X16.353 Y28.78
X16.447 Y29.407
X16.535 Y30.035
X16.618 Y30.664
X16.695 Y31.294
X16.767 Y31.924
X16.834 Y32.555
X16.897 Y33.186
X16.956 Y33.818
X17.011 Y34.45
X17.064 Y35.082
X17.114 Y35.715
X17.162 Y36.348
X17.207 Y36.98
X17.251 Y37.613
X17.292 Y38.246
X17.33 Y38.88
X17.364 Y39.513
X17.392 Y40.147
X17.41 Y40.781
X17.418 Y41.416
X17.412 Y42.05
X17.388 Y42.684
X17.341 Y43.317
X17.263 Y43.946
X17.151 Y44.519
X17.048 Y44.883
X16.94 Y45.175
X16.842 Y45.387
X16.833 Y45.402
X16.718 Y45.554
X16.568 Y45.671
X16.392 Y45.745
X16.204 Y45.77
X15.005
G3 X14.848 Y45.199 I0.011 J-0.31
G1 X14.906 Y45.162 Z-1.269
X14.961 Y45.126 Z-1.246
X15.01 Y45.095 Z-1.209
X15.052 Y45.068 Z-1.16
X15.083 Y45.048 Z-1.101
X15.102 Y45.035 Z-1.036
X15.108 Y45.031 Z-0.967
G0 Z-0.657
X10.275 Y10.852
G1 Z-0.967 F1000
X10.282 Y10.848 Z-1.036
X10.302 Y10.836 Z-1.101
X10.333 Y10.817 Z-1.16
X10.376 Y10.792 Z-1.209
X10.426 Y10.762 Z-1.246
X10.482 Y10.729 Z-1.269
X10.542 Y10.693 Z-1.277
G3 X11.295 Y10.472 I0.809 J1.36
G1 X12.448
X12.598 Y10.479
X12.746 Y10.502
X12.892 Y10.54
X13.044 Y10.593
X13.199 Y10.663
X13.382 Y10.762
X13.56 Y10.88
X13.767 Y11.04
X13.969 Y11.226
X14.199 Y11.472
X14.422 Y11.754
X14.67 Y12.126
X14.907 Y12.551
X15.155 Y13.095
X15.371 Y13.692
X15.547 Y14.301
X15.69 Y14.919
X15.808 Y15.543
X15.906 Y16.17
X15.986 Y16.799
X16.055 Y17.43
X16.114 Y18.061
X16.167 Y18.694
X16.219 Y19.326
X16.272 Y19.958
X16.33 Y20.59
X16.395 Y21.221
X16.47 Y21.851
X16.553 Y22.48
X16.646 Y23.108
X16.746 Y23.734
X16.851 Y24.36
X16.96 Y24.985
X17.18 Y26.234
X17.289 Y26.859
X17.394 Y27.485
X17.496 Y28.111
X17.593 Y28.738
X17.685 Y29.366
X17.771 Y29.994
X17.853 Y30.624
X17.929 Y31.253
X18.001 Y31.884
X18.068 Y32.515
X18.131 Y33.146
X18.19 Y33.778
X18.246 Y34.41
X18.299 Y35.042
X18.35 Y35.674
X18.398 Y36.307
X18.444 Y36.94
X18.487 Y37.573
X18.527 Y38.206
X18.564 Y38.839
X18.595 Y39.473
X18.619 Y40.107
X18.635 Y40.741
X18.639 Y41.375
X18.629 Y42.01
X18.603 Y42.644
X18.554 Y43.276
X18.474 Y43.906
X18.362 Y44.483
X18.254 Y44.869
X18.145 Y45.166
X18.047 Y45.379
X18.034 Y45.401
X17.919 Y45.554
X17.769 Y45.671
X17.593 Y45.744
X17.404 Y45.77
X16.204
G3 X16.046 Y45.199 I0.011 J-0.31
G1 X16.104 Y45.162 Z-1.269
X16.159 Y45.126 Z-1.246
X16.209 Y45.095 Z-1.209
X16.25 Y45.068 Z-1.16
X16.281 Y45.048 Z-1.101
X16.3 Y45.035 Z-1.036
X16.307 Y45.031 Z-0.967
G0 Z-0.657
X11.428 Y10.852
G1 Z-0.967 F1000
X11.435 Y10.848 Z-1.036
X11.455 Y10.836 Z-1.101
X11.487 Y10.817 Z-1.16
X11.529 Y10.792 Z-1.209
X11.579 Y10.762 Z-1.246
X11.636 Y10.728 Z-1.269
X11.695 Y10.693 Z-1.277
G3 X12.448 Y10.472 I0.809 J1.36
G1 X13.666 Y10.471
X13.816 Y10.479
X13.964 Y10.506
X14.11 Y10.549
X14.259 Y10.605
X14.427 Y10.684
X14.61 Y10.79
X14.798 Y10.919
X15.009 Y11.091
X15.218 Y11.29
X15.455 Y11.557
X15.683 Y11.859
X15.929 Y12.246
X16.184 Y12.728
X16.434 Y13.311
X16.639 Y13.912
X16.806 Y14.524
X16.944 Y15.143
X17.058 Y15.767
X17.153 Y16.394
X17.233 Y17.024
X17.302 Y17.654
X17.364 Y18.286
X17.48 Y19.549
X17.54 Y20.181
X17.607 Y20.812
X17.681 Y21.442
X17.762 Y22.071
X17.852 Y22.699
X17.948 Y23.326
X18.049 Y23.953
X18.154 Y24.578
X18.369 Y25.829
X18.476 Y26.454
X18.58 Y27.08
X18.681 Y27.706
X18.779 Y28.333
X18.872 Y28.961
X18.96 Y29.589
X19.043 Y30.218
X19.122 Y30.848
X19.195 Y31.478
X19.265 Y32.108
X19.33 Y32.739
X19.391 Y33.371
X19.449 Y34.003
X19.504 Y34.635
X19.557 Y35.267
X19.606 Y35.899
X19.653 Y36.532
X19.698 Y37.165
X19.739 Y37.798
X19.776 Y38.431
X19.809 Y39.065
X19.835 Y39.699
X19.853 Y40.333
X19.861 Y40.967
X19.857 Y41.602
X19.837 Y42.236
X19.798 Y42.869
X19.735 Y43.501
X19.64 Y44.128
X19.522 Y44.651
X19.418 Y44.985
X19.313 Y45.246
X19.252 Y45.369
X19.139 Y45.534
X18.985 Y45.661
X18.802 Y45.742
X18.604 Y45.77
X17.404
G3 X17.247 Y45.199 I0.011 J-0.31
G1 X17.305 Y45.162 Z-1.269
X17.36 Y45.126 Z-1.246
X17.409 Y45.095 Z-1.209
X17.45 Y45.068 Z-1.16
X17.481 Y45.048 Z-1.101
X17.501 Y45.035 Z-1.036
X17.507 Y45.031 Z-0.967
G0 Z-0.657
X12.647 Y10.851
G1 Z-0.967 F1000
X12.653 Y10.847 Z-1.036
X12.673 Y10.836 Z-1.101
X12.705 Y10.817 Z-1.16
X12.747 Y10.792 Z-1.209
X12.797 Y10.762 Z-1.246
X12.854 Y10.728 Z-1.269
X12.913 Y10.693 Z-1.277
G3 X13.666 Y10.471 I0.809 J1.36
G1 X14.82
X14.969 Y10.479
X15.117 Y10.503
X15.263 Y10.541
X15.42 Y10.598
X15.579 Y10.669
X15.759 Y10.769
X15.949 Y10.895
X16.15 Y11.053
X16.372 Y11.257
X16.594 Y11.499
X16.838 Y11.811
X17.086 Y12.186
X17.334 Y12.636
X17.595 Y13.215
X17.808 Y13.812
X17.984 Y14.422
X18.13 Y15.039
X18.251 Y15.662
X18.353 Y16.288
X18.44 Y16.917
X18.516 Y17.547
X18.584 Y18.177
X18.713 Y19.44
X18.779 Y20.071
X18.85 Y20.701
X18.927 Y21.331
X19.011 Y21.96
X19.101 Y22.588
X19.196 Y23.215
X19.296 Y23.841
X19.4 Y24.467
X19.609 Y25.719
X19.713 Y26.345
X19.815 Y26.971
X19.915 Y27.598
X20.01 Y28.225
X20.102 Y28.853
X20.189 Y29.481
X20.271 Y30.11
X20.349 Y30.74
X20.423 Y31.37
X20.493 Y32
X20.558 Y32.631
X20.62 Y33.263
X20.679 Y33.895
X20.734 Y34.527
X20.787 Y35.159
X20.837 Y35.791
X20.884 Y36.424
X20.928 Y37.057
X20.969 Y37.69
X21.005 Y38.323
X21.036 Y38.957
X21.061 Y39.591
X21.077 Y40.225
X21.084 Y40.86
X21.078 Y41.494
X21.059 Y42.128
X21.02 Y42.761
X20.958 Y43.393
X20.867 Y44.021
X20.75 Y44.568
X20.64 Y44.936
X20.536 Y45.204
X20.459 Y45.362
X20.347 Y45.529
X20.193 Y45.659
X20.008 Y45.741
X19.808 Y45.77
X18.604
G3 X18.447 Y45.199 I0.011 J-0.31
G1 X18.505 Y45.162 Z-1.269
X18.56 Y45.126 Z-1.246
X18.61 Y45.095 Z-1.209
X18.651 Y45.068 Z-1.16
X18.682 Y45.048 Z-1.101
X18.701 Y45.035 Z-1.036
X18.708 Y45.031 Z-0.967
G0 Z-0.657
X13.8 Y10.851
G1 Z-0.967 F1000
X13.806 Y10.847 Z-1.036
X13.826 Y10.835 Z-1.101
X13.858 Y10.817 Z-1.16
X13.9 Y10.791 Z-1.209
X13.951 Y10.761 Z-1.246
X14.007 Y10.728 Z-1.269
X14.066 Y10.693 Z-1.277
G3 X14.82 Y10.471 I0.809 J1.36
G1 X15.973
X16.123 Y10.478
X16.271 Y10.499
X16.417 Y10.534
X16.573 Y10.586
X16.729 Y10.653
X16.909 Y10.748
X17.096 Y10.866
X17.298 Y11.019
X17.513 Y11.209
X17.739 Y11.444
X17.979 Y11.739
X18.229 Y12.101
X18.478 Y12.531
X18.741 Y13.086
X18.967 Y13.68
X19.153 Y14.286
X19.308 Y14.901
X19.438 Y15.522
X19.548 Y16.147
X19.643 Y16.774
X19.726 Y17.403
X19.801 Y18.033
X19.872 Y18.664
X19.941 Y19.294
X20.013 Y19.925
X20.087 Y20.555
X20.167 Y21.184
X20.252 Y21.813
X20.342 Y22.441
X20.437 Y23.068
X20.536 Y23.695
X20.637 Y24.321
X20.843 Y25.573
X20.945 Y26.199
X21.045 Y26.826
X21.142 Y27.453
X21.236 Y28.08
X21.327 Y28.708
X21.413 Y29.337
X21.495 Y29.966
X21.573 Y30.595
X21.647 Y31.226
X21.717 Y31.856
X21.783 Y32.487
X21.845 Y33.118
X21.905 Y33.75
X21.961 Y34.382
X22.014 Y35.014
X22.064 Y35.647
X22.111 Y36.279
X22.155 Y36.912
X22.196 Y37.545
X22.231 Y38.179
X22.262 Y38.813
X22.285 Y39.447
X22.301 Y40.081
X22.307 Y40.715
X22.302 Y41.35
X22.283 Y41.984
X22.246 Y42.617
X22.187 Y43.249
X22.1 Y43.877
X21.986 Y44.457
X21.871 Y44.863
X21.761 Y45.158
X21.657 Y45.383
X21.645 Y45.403
X21.53 Y45.555
X21.38 Y45.671
X21.204 Y45.745
X21.016 Y45.77
X19.808
G3 X19.651 Y45.199 I0.011 J-0.31
G1 X19.709 Y45.162 Z-1.269
X19.764 Y45.126 Z-1.246
X19.814 Y45.095 Z-1.209
X19.855 Y45.068 Z-1.16
X19.886 Y45.048 Z-1.101
X19.905 Y45.035 Z-1.036
X19.912 Y45.031 Z-0.967
G0 Z-0.657
X14.953 Y10.851
G1 Z-0.967 F1000
X14.96 Y10.847 Z-1.036
X14.979 Y10.835 Z-1.101
X15.011 Y10.816 Z-1.16
X15.053 Y10.791 Z-1.209
X15.104 Y10.761 Z-1.246
X15.16 Y10.728 Z-1.269
X15.219 Y10.692 Z-1.277
G3 X15.973 Y10.471 I0.809 J1.36
G1 X17.205
X17.355 Y10.478
X17.503 Y10.503
X17.649 Y10.542
X17.799 Y10.596
X17.967 Y10.672
X18.15 Y10.773
X18.339 Y10.899
X18.553 Y11.067
X18.764 Y11.261
X19.008 Y11.526
X19.239 Y11.822
X19.494 Y12.207
X19.759 Y12.688
X20.02 Y13.267
X20.235 Y13.863
X20.414 Y14.472
X20.564 Y15.089
X20.691 Y15.71
X20.799 Y16.335
X20.894 Y16.963
X20.979 Y17.591
X21.058 Y18.221
X21.208 Y19.481
X21.285 Y20.111
X21.365 Y20.74
X21.449 Y21.369
X21.538 Y21.997
X21.631 Y22.625
X21.728 Y23.252
X21.827 Y23.878
X22.129 Y25.757
X22.228 Y26.384
X22.326 Y27.011
X22.42 Y27.638
X22.511 Y28.266
X22.598 Y28.895
X22.682 Y29.523
X22.762 Y30.153
X22.837 Y30.783
X22.909 Y31.413
X22.977 Y32.044
X23.042 Y32.675
X23.103 Y33.306
X23.161 Y33.938
X23.216 Y34.57
X23.268 Y35.203
X23.317 Y35.835
X23.362 Y36.468
X23.404 Y37.101
X23.441 Y37.734
X23.474 Y38.368
X23.5 Y39.002
X23.519 Y39.636
X23.529 Y40.27
Y40.905
X23.517 Y41.539
X23.489 Y42.173
X23.443 Y42.806
X23.374 Y43.436
X23.277 Y44.063
X23.151 Y44.621
X23.044 Y44.967
X22.935 Y45.238
X22.869 Y45.369
X22.757 Y45.534
X22.603 Y45.661
X22.42 Y45.742
X22.222 Y45.77
X21.016
G3 X20.859 Y45.199 I0.011 J-0.31
G1 X20.917 Y45.162 Z-1.269
X20.972 Y45.126 Z-1.246
X21.021 Y45.095 Z-1.209
X21.062 Y45.068 Z-1.16
X21.093 Y45.048 Z-1.101
X21.113 Y45.035 Z-1.036
X21.119 Y45.031 Z-0.967
G0 Z-0.657
X16.185 Y10.851
G1 Z-0.967 F1000
X16.192 Y10.847 Z-1.036
X16.212 Y10.835 Z-1.101
X16.244 Y10.816 Z-1.16
X16.286 Y10.791 Z-1.209
X16.336 Y10.761 Z-1.246
X16.393 Y10.728 Z-1.269
X16.452 Y10.692 Z-1.277
G3 X17.205 Y10.471 I0.809 J1.36
G1 X18.423
X18.573 Y10.478
X18.721 Y10.505
X18.865 Y10.546
X19.025 Y10.606
X19.189 Y10.682
X19.38 Y10.791
X19.568 Y10.918
X19.786 Y11.093
X20.003 Y11.299
X20.247 Y11.57
X20.487 Y11.885
X20.75 Y12.293
X21.018 Y12.795
X21.272 Y13.376
X21.481 Y13.975
X21.657 Y14.585
X21.805 Y15.202
X21.931 Y15.823
X22.041 Y16.448
X22.138 Y17.075
X22.227 Y17.703
X22.309 Y18.332
X22.469 Y19.591
X22.551 Y20.22
X22.635 Y20.849
X22.722 Y21.477
X22.814 Y22.105
X22.908 Y22.733
X23.005 Y23.36
X23.203 Y24.613
X23.401 Y25.866
X23.498 Y26.493
X23.593 Y27.121
X23.685 Y27.748
X23.773 Y28.377
X23.859 Y29.005
X23.94 Y29.634
X24.018 Y30.264
X24.092 Y30.894
X24.162 Y31.525
X24.229 Y32.156
X24.293 Y32.787
X24.353 Y33.418
X24.41 Y34.05
X24.464 Y34.682
X24.515 Y35.315
X24.562 Y35.947
X24.606 Y36.58
X24.646 Y37.213
X24.681 Y37.847
X24.711 Y38.481
X24.733 Y39.115
X24.749 Y39.749
X24.754 Y40.383
X24.749 Y41.018
X24.731 Y41.652
X24.698 Y42.286
X24.646 Y42.918
X24.572 Y43.548
X24.467 Y44.174
X24.343 Y44.684
X24.229 Y45.032
X24.128 Y45.271
X24.072 Y45.38
X23.958 Y45.54
X23.805 Y45.664
X23.625 Y45.743
X23.43 Y45.77
X22.222
G3 X22.065 Y45.199 I0.011 J-0.31
G1 X22.123 Y45.162 Z-1.269
X22.178 Y45.126 Z-1.246
X22.227 Y45.095 Z-1.209
X22.268 Y45.068 Z-1.16
X22.299 Y45.048 Z-1.101
X22.319 Y45.035 Z-1.036
X22.325 Y45.031 Z-0.967
G0 Z-0.657
X17.403 Y10.851
G1 Z-0.967 F1000
X17.41 Y10.847 Z-1.036
X17.43 Y10.835 Z-1.101
X17.462 Y10.816 Z-1.16
X17.504 Y10.791 Z-1.209
X17.554 Y10.761 Z-1.246
X17.611 Y10.727 Z-1.269
X17.67 Y10.692 Z-1.277
G3 X18.423 Y10.471 I0.809 J1.36
G1 X19.577 Y10.47
X19.726 Y10.478
X19.875 Y10.5
X20.02 Y10.536
X20.175 Y10.589
X20.34 Y10.66
X20.516 Y10.754
X20.717 Y10.883
X20.915 Y11.033
X21.148 Y11.242
X21.369 Y11.475
X21.625 Y11.793
X21.873 Y12.155
X22.136 Y12.617
X22.406 Y13.192
X22.629 Y13.785
X22.817 Y14.391
X22.976 Y15.006
X23.113 Y15.625
X23.231 Y16.248
X23.336 Y16.874
X23.432 Y17.501
X23.521 Y18.13
X23.606 Y18.758
X23.775 Y20.016
X23.861 Y20.644
X23.95 Y21.272
X24.042 Y21.9
X24.136 Y22.528
X24.232 Y23.155
X24.623 Y25.662
X24.719 Y26.289
X24.812 Y26.917
X24.903 Y27.545
X24.992 Y28.173
X25.077 Y28.802
X25.158 Y29.431
X25.236 Y30.061
X25.31 Y30.691
X25.381 Y31.321
X25.449 Y31.952
X25.513 Y32.583
X25.574 Y33.215
X25.631 Y33.846
X25.686 Y34.478
X25.737 Y35.111
X25.785 Y35.743
X25.829 Y36.376
X25.869 Y37.01
X25.904 Y37.643
X25.934 Y38.277
X25.957 Y38.911
X25.972 Y39.545
X25.979 Y40.179
X25.976 Y40.814
X25.96 Y41.448
X25.929 Y42.082
X25.881 Y42.714
X25.812 Y43.345
X25.716 Y43.972
X25.593 Y44.54
X25.479 Y44.921
X25.369 Y45.202
X25.29 Y45.364
X25.177 Y45.531
X25.023 Y45.661
X24.838 Y45.743
X24.638 Y45.771
X23.43 Y45.77
G3 X23.272 Y45.199 I0.011 J-0.31
G1 X23.33 Y45.162 Z-1.269
X23.385 Y45.126 Z-1.246
X23.435 Y45.095 Z-1.209
X23.476 Y45.068 Z-1.16
X23.507 Y45.048 Z-1.101
X23.526 Y45.035 Z-1.036
X23.533 Y45.031 Z-0.967
G0 Z-0.657
X18.557 Y10.85
G1 Z-0.967 F1000
X18.563 Y10.846 Z-1.036
X18.583 Y10.835 Z-1.101
X18.615 Y10.816 Z-1.16
X18.657 Y10.791 Z-1.209
X18.707 Y10.761 Z-1.246
X18.764 Y10.727 Z-1.269
X18.823 Y10.692 Z-1.277
G3 X19.577 Y10.47 I0.809 J1.36
G1 X20.809
X20.959 Y10.478
X21.107 Y10.503
X21.252 Y10.542
X21.41 Y10.598
X21.575 Y10.673
X21.766 Y10.779
X21.953 Y10.903
X22.174 Y11.076
X22.386 Y11.272
X22.636 Y11.544
X22.873 Y11.846
X23.137 Y12.247
X23.412 Y12.745
X23.672 Y13.324
X23.889 Y13.92
X24.073 Y14.527
X24.229 Y15.142
X24.364 Y15.762
X24.483 Y16.385
X24.59 Y17.011
X24.688 Y17.638
X24.78 Y18.265
X24.869 Y18.893
X25.045 Y20.15
X25.134 Y20.778
X25.225 Y21.406
X25.318 Y22.034
X25.413 Y22.661
X25.607 Y23.915
X25.801 Y25.169
X25.896 Y25.796
X25.99 Y26.423
X26.081 Y27.051
X26.17 Y27.679
X26.257 Y28.308
X26.339 Y28.937
X26.419 Y29.566
X26.495 Y30.196
X26.568 Y30.827
X26.637 Y31.457
X26.703 Y32.088
X26.766 Y32.719
X26.826 Y33.351
X26.882 Y33.983
X26.936 Y34.615
X26.985 Y35.248
X27.032 Y35.88
X27.074 Y36.513
X27.111 Y37.147
X27.144 Y37.78
X27.17 Y38.414
X27.19 Y39.048
X27.201 Y39.683
X27.203 Y40.317
X27.195 Y40.951
X27.173 Y41.586
X27.137 Y42.219
X27.083 Y42.851
X27.008 Y43.481
X26.904 Y44.107
X26.776 Y44.646
X26.659 Y45.007
X26.557 Y45.253
X26.493 Y45.379
X26.379 Y45.541
X26.226 Y45.667
X26.044 Y45.746
X25.848 Y45.773
X24.638 Y45.771
G3 X24.482 Y45.2 I0.011 J-0.31
G1 X24.54 Y45.163 Z-1.269
X24.595 Y45.127 Z-1.246
X24.645 Y45.095 Z-1.209
X24.686 Y45.069 Z-1.16
X24.717 Y45.049 Z-1.101
X24.736 Y45.037 Z-1.036
X24.743 Y45.032 Z-0.967
G0 Z-0.657
X19.789 Y10.85
G1 Z-0.967 F1000
X19.796 Y10.846 Z-1.036
X19.815 Y10.834 Z-1.101
X19.847 Y10.816 Z-1.16
X19.889 Y10.79 Z-1.209
X19.94 Y10.76 Z-1.246
X19.996 Y10.727 Z-1.269
X20.056 Y10.692 Z-1.277
G3 X20.809 Y10.47 I0.809 J1.36
G1 X22.027
X22.177 Y10.477
X22.325 Y10.504
X22.469 Y10.544
X22.632 Y10.603
X22.795 Y10.678
X22.985 Y10.785
X23.179 Y10.915
X23.394 Y11.086
X23.621 Y11.299
X23.861 Y11.563
X24.112 Y11.887
X24.382 Y12.302
X24.655 Y12.806
X24.912 Y13.387
X25.127 Y13.984
X25.309 Y14.591
X25.466 Y15.206
X25.603 Y15.826
X25.724 Y16.448
X25.833 Y17.073
X25.935 Y17.7
X26.03 Y18.327
X26.123 Y18.954
X26.397 Y20.838
X26.49 Y21.465
X26.584 Y22.093
X26.775 Y23.347
X26.968 Y24.601
X27.063 Y25.229
X27.157 Y25.856
X27.249 Y26.484
X27.339 Y27.112
X27.426 Y27.74
X27.511 Y28.369
X27.592 Y28.998
X27.67 Y29.628
X27.745 Y30.258
X27.817 Y30.888
X27.885 Y31.519
X27.95 Y32.15
X28.012 Y32.781
X28.071 Y33.413
X28.127 Y34.045
X28.179 Y34.677
X28.227 Y35.31
X28.272 Y35.943
X28.312 Y36.576
X28.348 Y37.209
X28.378 Y37.843
X28.402 Y38.477
X28.419 Y39.111
X28.427 Y39.746
X28.426 Y40.38
X28.414 Y41.014
X28.39 Y41.648
X28.35 Y42.282
X28.293 Y42.913
X28.215 Y43.543
X28.106 Y44.168
X27.978 Y44.688
X27.861 Y45.038
X27.758 Y45.28
X27.701 Y45.388
X27.587 Y45.547
X27.434 Y45.671
X27.254 Y45.748
X27.059 Y45.775
X25.848 Y45.773
G3 X25.691 Y45.202 I0.011 J-0.31
G1 X25.749 Y45.165 Z-1.269
X25.804 Y45.129 Z-1.246
