(1001)
(Poot4)
(T1  D=3.1 CR=0 - ZMIN=-3 - flat end mill)
G90 G94
G17
G21

(Adaptive4)
S10000 M3
G54
G0 Z10
G0 X29.565 Y5.36
G1 Z-0.679 F1000
X29.572 Y5.356 Z-0.748
X29.59 Y5.342 Z-0.814
X29.62 Y5.321 Z-0.872
X29.66 Y5.292 Z-0.921
X29.707 Y5.257 Z-0.958
X29.76 Y5.218 Z-0.981
X29.816 Y5.178 Z-0.989
G3 X31.399 Y4.545 I2.027 J2.774
G1 X31.477 Y4.537
X31.57 Y4.523
X31.663 Y4.502
X31.756 Y4.476
X31.773 Y4.47
X31.849 Y4.442
X31.988 Y4.377
X32.035 Y4.354
X32.147 Y4.284
X32.221 Y4.233
X32.273 Y4.191
X32.314 Y4.156
X32.342 Y4.132
X32.464 Y4.044
X32.551 Y3.992
X32.738 Y3.913
X32.94 Y3.889
X33.141 Y3.922
X33.325 Y4.009
G3 X33.201 Y4.566 I-0.181 J0.252
G1 X33.141 Y4.577
X32.59 Y4.68
G3 X32.314 Y4.156 I-0.057 J-0.305
G1 X32.375 Y4.099
X32.407 Y4.066
X32.461 Y4.006
X32.5 Y3.958
X32.535 Y3.913
X32.592 Y3.842
X32.615 Y3.82
X32.65 Y3.792
X32.685 Y3.771
X32.732 Y3.753
X32.778 Y3.742
X32.825 Y3.739
X32.871 Y3.742
X32.918 Y3.753
X32.964 Y3.772
X33.04 Y3.82
X33.615 Y4.203
X33.708 Y4.264
G3 X33.844 Y4.479 I-0.171 J0.258
G2 X34.095 Y4.74 I0.307 J-0.044
G1 X34.23 Y4.765
X36.417 Y5.169
X36.477 Y5.174
X36.537 Y5.168
X36.595 Y5.15
X36.647 Y5.121
G3 X38.252 Y4.544 I1.928 J2.844
G1 X38.265
X38.358 Y4.535
X38.451 Y4.519
X38.544 Y4.5
X38.637 Y4.472
X38.73 Y4.441
X38.823 Y4.397
X38.916 Y4.351
X39.009 Y4.294
X39.025 Y4.284
X39.102 Y4.23
X39.146 Y4.191
X39.251 Y4.099
X39.288 Y4.062
X39.411 Y3.913
X39.48 Y3.82
X40.361 Y2.614
X40.497 Y2.426
X41.398 Y1.172
G0 Z5
X36.667 Y-2.303
Z-0.369
G1 Z-0.679 F1000
X36.661 Y-2.299 Z-0.748
X36.642 Y-2.286 Z-0.814
X36.611 Y-2.265 Z-0.872
X36.571 Y-2.237 Z-0.921
X36.522 Y-2.204 Z-0.958
X36.468 Y-2.167 Z-0.981
X36.411 Y-2.128 Z-0.989
G3 X34.809 Y-1.546 I-1.938 J-2.837
G1 X34.731 Y-1.541
X34.638 Y-1.529
X34.545 Y-1.51
X34.452 Y-1.486
X34.401 Y-1.47
X34.359 Y-1.455
X34.266 Y-1.418
X34.187 Y-1.377
X34.08 Y-1.32
X34.023 Y-1.284
X33.987 Y-1.259
X33.894 Y-1.187
X33.886 Y-1.179
X33.818 Y-1.123
X33.691 Y-1.034
X33.625 Y-0.995
X33.434 Y-0.916
X33.228 Y-0.895
X33.025 Y-0.933
X32.841 Y-1.027
G3 X32.968 Y-1.578 I0.187 J-0.247
G1 X33.04 Y-1.592
X33.608 Y-1.704
G3 X33.886 Y-1.179 I0.06 J0.304
G1 X33.798 Y-1.099
X33.708 Y-1.003
X33.638 Y-0.913
X33.615 Y-0.882
X33.591 Y-0.851
X33.56 Y-0.82
X33.522 Y-0.792
X33.476 Y-0.766
X33.429 Y-0.75
X33.383 Y-0.741
X33.336 Y-0.739
X33.29 Y-0.744
X33.243 Y-0.757
X33.197 Y-0.778
X33.15 Y-0.809
X32.541 Y-1.238
G3 X32.474 Y-1.663 I0.187 J-0.247
G1 X32.515 Y-1.698 Z-0.984
X32.555 Y-1.732 Z-0.97
X32.592 Y-1.764 Z-0.947
X32.638 Y-1.774 Z-0.912
X32.677 Y-1.783 Z-0.87
X32.708 Y-1.79 Z-0.82
X32.728 Y-1.795 Z-0.766
X32.738 Z-0.723
X32.741 Z-0.679
G0 Z5
X29.48 Y5.409
Z-0.291
G1 Z-0.601 F1000
X29.486 Y5.404 Z-0.67
X29.504 Y5.39 Z-0.736
X29.533 Y5.367 Z-0.795
X29.572 Y5.337 Z-0.844
X29.619 Y5.301 Z-0.881
X29.671 Y5.261 Z-0.903
X29.725 Y5.219 Z-0.911
G3 X31.291 Y4.543 I2.102 J2.718
G1 X31.384 Y4.532
X31.477 Y4.515
X31.57 Y4.492
X31.641 Y4.47
X31.663 Y4.463
X31.756 Y4.425
X31.849 Y4.381
X31.942 Y4.328
X32.018 Y4.284
X32.035 Y4.273
X32.137 Y4.191
X32.221 Y4.12
X32.243 Y4.099
X32.314 Y4.02
X32.326 Y4.006
X32.403 Y3.913
X32.407 Y3.908
X32.466 Y3.82
X32.5 Y3.777
X32.528 Y3.749
X32.557 Y3.727
X32.592 Y3.707
X32.639 Y3.689
X32.685 Y3.678
X32.732 Y3.675
X32.778 Y3.679
X32.825 Y3.691
X32.871 Y3.71
X32.901 Y3.727
X32.964 Y3.77
G3 X32.78 Y4.332 I-0.181 J0.252
G1 X32.711 Y4.331 Z-0.903
X32.645 Y4.33 Z-0.881
X32.586 Y4.329 Z-0.844
X32.537 Y4.328 Z-0.795
X32.5 Z-0.736
X32.477 Z-0.67
X32.47 Y4.327 Z-0.601
G0 Z5
X36.807 Y-2.271
Z-0.291
G1 Z-0.601 F1000
X36.801 Y-2.267 Z-0.67
X36.782 Y-2.255 Z-0.736
X36.751 Y-2.234 Z-0.795
X36.71 Y-2.207 Z-0.844
X36.661 Y-2.175 Z-0.881
X36.606 Y-2.139 Z-0.903
X36.548 Y-2.101 Z-0.911
G3 X34.936 Y-1.546 I-1.889 J-2.869
G1 X34.917 Y-1.545
X34.824 Y-1.535
X34.731 Y-1.52
X34.638 Y-1.498
X34.545 Y-1.468
X34.452 Y-1.436
X34.329 Y-1.377
X34.266 Y-1.346
X34.168 Y-1.284
X34.08 Y-1.22
X33.943 Y-1.099
X33.894 Y-1.048
X33.782 Y-0.913
X33.715 Y-0.82
X33.708 Y-0.811
X33.675 Y-0.769
X33.651 Y-0.746
X33.627 Y-0.727
X33.615 Y-0.72
X33.569 Y-0.695
X33.522 Y-0.68
X33.476 Y-0.672
X33.429
X33.383 Y-0.678
X33.336 Y-0.692
X33.301 Y-0.707
X33.266 Y-0.727
X33.243 Y-0.743
G3 X33.177 Y-1.168 I0.187 J-0.247
G1 X33.218 Y-1.203 Z-0.906
X33.257 Y-1.237 Z-0.892
X33.295 Y-1.268 Z-0.869
X33.34 Y-1.279 Z-0.835
X33.379 Y-1.288 Z-0.792
X33.41 Y-1.295 Z-0.743
X33.431 Y-1.3 Z-0.689
X33.44 Z-0.646
X33.444 Z-0.601
G0 Z5
X29.286 Y5.344
Z-0.215
G1 Z-0.525 F1000
X29.292 Y5.339 Z-0.594
X29.311 Y5.326 Z-0.659
X29.341 Y5.304 Z-0.718
X29.381 Y5.276 Z-0.767
X29.429 Y5.241 Z-0.804
X29.482 Y5.203 Z-0.827
X29.538 Y5.163 Z-0.835
G3 X31.127 Y4.545 I2.001 J2.793
G1 X31.198 Y4.539
X31.291 Y4.526
X31.384 Y4.506
X31.477 Y4.48
X31.57 Y4.449
X31.663 Y4.407
X31.756 Y4.361
X31.849 Y4.308
X31.886 Y4.284
X31.942 Y4.246
X32.008 Y4.191
X32.128 Y4.084
X32.196 Y4.006
X32.272 Y3.913
X32.314 Y3.853
X32.336 Y3.82
X32.401 Y3.727
X32.407 Y3.721
X32.43 Y3.698
X32.453 Y3.68
X32.476 Y3.664
X32.5 Y3.652
X32.543 Y3.635
X32.592 Y3.624
X32.639 Y3.621
X32.685 Y3.624
X32.736 Y3.635
X32.778 Y3.651
X32.871 Y3.708
X32.901 Y3.727
G3 X32.716 Y4.289 I-0.181 J0.252
G1 X32.647 Y4.288 Z-0.827
X32.581 Y4.287 Z-0.804
X32.523 Z-0.767
X32.474 Y4.286 Z-0.718
X32.437 Y4.285 Z-0.659
X32.414 Z-0.594
X32.406 Z-0.525
G0 Z5
X36.923 Y-2.328
Z-0.215
G1 Z-0.525 F1000
X36.917 Y-2.324 Z-0.594
X36.898 Y-2.311 Z-0.659
X36.868 Y-2.29 Z-0.718
X36.828 Y-2.261 Z-0.767
X36.78 Y-2.227 Z-0.804
X36.726 Y-2.19 Z-0.827
X36.67 Y-2.15 Z-0.835
G3 X35.075 Y-1.546 I-1.976 J-2.81
G1 X35.01 Y-1.541
X34.917 Y-1.528
X34.824 Y-1.51
X34.731 Y-1.485
X34.684 Y-1.47
X34.638 Y-1.454
X34.545 Y-1.414
X34.465 Y-1.377
X34.309 Y-1.284
X34.266 Y-1.254
X34.173 Y-1.179
X34.08 Y-1.098
X34 Y-1.006
X33.987 Y-0.992
X33.921 Y-0.913
X33.856 Y-0.82
X33.801 Y-0.744
X33.79 Y-0.727
X33.771 Y-0.706
X33.749 Y-0.684
X33.708 Y-0.654
X33.672 Y-0.635
X33.644 Y-0.623
X33.615 Y-0.615
X33.569 Y-0.608
X33.522
X33.476 Y-0.614
X33.429 Y-0.626
X33.408 Y-0.635
X33.372 Y-0.653
X33.336 Y-0.678
X33.266 Y-0.727
G3 X33.199 Y-1.152 I0.187 J-0.247
G1 X33.24 Y-1.187 Z-0.83
X33.28 Y-1.221 Z-0.816
X33.317 Y-1.253 Z-0.793
X33.363 Y-1.263 Z-0.759
X33.402 Y-1.272 Z-0.716
X33.432 Y-1.279 Z-0.667
X33.453 Y-1.284 Z-0.613
X33.463 Z-0.569
X33.466 Z-0.525
G0 Z5
X29.134 Y5.275
Z-0.139
G1 Z-0.449 F1000
X29.14 Y5.271 Z-0.518
X29.159 Y5.258 Z-0.584
X29.19 Y5.238 Z-0.642
X29.231 Y5.21 Z-0.691
X29.28 Y5.178 Z-0.728
X29.335 Y5.142 Z-0.751
X29.392 Y5.104 Z-0.759
G3 X31.003 Y4.545 I1.896 J2.865
G1 X31.012
X31.105 Y4.534
X31.198 Y4.519
X31.291 Y4.497
X31.384 Y4.469
X31.477 Y4.433
X31.57 Y4.391
X31.601 Y4.377
X31.756 Y4.283
X31.849 Y4.213
X31.942 Y4.136
X31.984 Y4.099
X32.035 Y4.04
X32.143 Y3.913
X32.206 Y3.82
X32.269 Y3.727
X32.314 Y3.666
X32.346 Y3.635
X32.376 Y3.612
X32.407 Y3.595
X32.453 Y3.577
X32.5 Y3.566
X32.546 Y3.563
X32.592 Y3.565
X32.639 Y3.573
X32.685 Y3.59
X32.761 Y3.635
X32.778 Y3.646
G3 X32.594 Y4.208 I-0.181 J0.252
G1 X32.525 Y4.207 Z-0.751
X32.459 Y4.206 Z-0.728
X32.4 Y4.205 Z-0.691
X32.351 Z-0.642
X32.314 Y4.204 Z-0.584
X32.291 Z-0.518
X32.284 Z-0.449
G0 Z5
X37.106 Y-2.245
Z-0.139
G1 Z-0.449 F1000
X37.1 Y-2.241 Z-0.518
X37.081 Y-2.229 Z-0.584
X37.049 Y-2.209 Z-0.642
X37.008 Y-2.182 Z-0.691
X36.959 Y-2.151 Z-0.728
X36.903 Y-2.115 Z-0.751
X36.845 Y-2.078 Z-0.759
G3 X35.225 Y-1.546 I-1.849 J-2.896
G1 X35.196 Y-1.545
X35.103 Y-1.535
X35.01 Y-1.519
X34.917 Y-1.498
X34.824 Y-1.47
X34.731 Y-1.436
X34.638 Y-1.392
X34.545 Y-1.343
X34.452 Y-1.288
X34.447 Y-1.284
X34.359 Y-1.22
X34.323 Y-1.191
X34.266 Y-1.14
X34.222 Y-1.099
X34.173 Y-1.049
X34.135 Y-1.006
X34.062 Y-0.913
X33.987 Y-0.809
X33.894 Y-0.677
X33.859 Y-0.635
X33.83 Y-0.609
X33.801 Y-0.589
X33.755 Y-0.566
X33.708 Y-0.551
X33.662 Y-0.544
X33.615 Y-0.543
X33.569 Y-0.548
X33.522 Y-0.561
X33.476 Y-0.582
X33.429 Y-0.612
X33.397 Y-0.635
G3 X33.331 Y-1.06 I0.187 J-0.247
G1 X33.372 Y-1.094 Z-0.754
X33.411 Y-1.128 Z-0.74
X33.448 Y-1.16 Z-0.717
X33.494 Y-1.171 Z-0.683
X33.533 Y-1.18 Z-0.64
X33.564 Y-1.187 Z-0.591
X33.585 Y-1.192 Z-0.537
X33.594 Y-1.191 Z-0.493
X33.597 Z-0.449
G0 Z5
X29.001 Y5.301
Z-0.063
G1 Z-0.373 F1000
X29.007 Y5.297 Z-0.442
X29.026 Y5.284 Z-0.508
X29.057 Y5.263 Z-0.566
X29.097 Y5.236 Z-0.616
X29.146 Y5.202 Z-0.652
X29.2 Y5.166 Z-0.675
X29.257 Y5.127 Z-0.683
G3 X30.86 Y4.545 I1.937 J2.838
G1 X30.919 Y4.541
X31.012 Y4.529
X31.105 Y4.511
X31.198 Y4.487
X31.251 Y4.47
X31.291 Y4.456
X31.384 Y4.419
X31.465 Y4.377
X31.57 Y4.321
X31.628 Y4.284
X31.663 Y4.26
X31.756 Y4.189
X31.854 Y4.099
X31.941 Y4.006
X32.014 Y3.913
X32.035 Y3.883
X32.139 Y3.727
X32.202 Y3.635
X32.221 Y3.611
X32.243 Y3.589
X32.266 Y3.57
X32.311 Y3.542
X32.314 Y3.541
X32.36 Y3.522
X32.407 Y3.509
X32.453 Y3.503
X32.5 Y3.504
X32.546 Y3.512
X32.592 Y3.528
X32.62 Y3.542
X32.685 Y3.584
G3 X32.501 Y4.146 I-0.181 J0.252
G1 X32.432 Y4.145 Z-0.675
X32.366 Y4.144 Z-0.652
X32.307 Z-0.616
X32.258 Y4.143 Z-0.566
X32.221 Y4.142 Z-0.508
X32.198 Z-0.442
X32.191 Z-0.373
G0 Z5
X37.215 Y-2.328
Z-0.063
G1 Z-0.373 F1000
X37.209 Y-2.323 Z-0.442
X37.19 Y-2.31 Z-0.508
X37.16 Y-2.289 Z-0.566
X37.12 Y-2.261 Z-0.616
X37.072 Y-2.227 Z-0.652
X37.018 Y-2.189 Z-0.675
X36.962 Y-2.15 Z-0.683
G3 X35.367 Y-1.546 I-1.975 J-2.811
G1 X35.289 Y-1.541
X35.196 Y-1.528
X35.103 Y-1.509
X35.01 Y-1.485
X34.963 Y-1.47
X34.917 Y-1.454
X34.824 Y-1.413
X34.731 Y-1.369
X34.638 Y-1.315
X34.589 Y-1.284
X34.545 Y-1.256
X34.469 Y-1.191
X34.359 Y-1.096
X34.28 Y-1.006
X34.202 Y-0.913
X34.173 Y-0.875
X34.004 Y-0.635
X33.987 Y-0.611
X33.96 Y-0.577
X33.924 Y-0.542
X33.894 Y-0.52
X33.848 Y-0.496
X33.801 Y-0.48
X33.755 Y-0.473
X33.708 Y-0.472
X33.662 Y-0.478
X33.615 Y-0.492
X33.572 Y-0.513
X33.529 Y-0.542
X33.522 Y-0.546
G3 X33.456 Y-0.971 I0.187 J-0.247
G1 X33.497 Y-1.006 Z-0.678
X33.536 Y-1.04 Z-0.664
X33.574 Y-1.072 Z-0.641
X33.619 Y-1.082 Z-0.607
X33.658 Y-1.091 Z-0.564
X33.689 Y-1.098 Z-0.515
X33.71 Y-1.103 Z-0.461
X33.719 Z-0.418
X33.723 Z-0.373
G0 Z5
X28.914 Y5.36
Z0.013
G1 Z-0.297 F1000
X28.921 Y5.355 Z-0.366
X28.939 Y5.342 Z-0.432
X28.969 Y5.32 Z-0.491
X29.009 Y5.291 Z-0.54
X29.056 Y5.257 Z-0.577
X29.109 Y5.218 Z-0.599
X29.165 Y5.177 Z-0.607
G3 X30.748 Y4.545 I2.026 J2.774
G1 X30.826 Y4.537
X30.919 Y4.523
X31.012 Y4.503
X31.105 Y4.476
X31.123 Y4.47
X31.198 Y4.443
X31.338 Y4.377
X31.384 Y4.355
X31.497 Y4.284
X31.57 Y4.234
X31.622 Y4.191
X31.663 Y4.157
X31.725 Y4.099
X31.756 Y4.064
X31.883 Y3.913
X31.942 Y3.83
X32.072 Y3.635
X32.128 Y3.557
X32.142 Y3.542
X32.181 Y3.508
X32.221 Y3.481
X32.261 Y3.462
X32.301 Y3.449
X32.314 Y3.446
X32.36 Y3.44
X32.407 Y3.442
X32.449 Y3.449
X32.5 Y3.466
X32.592 Y3.522
X32.622 Y3.542
G3 X32.437 Y4.104 I-0.181 J0.252
G1 X32.368 Y4.103 Z-0.599
X32.302 Y4.102 Z-0.577
X32.244 Y4.101 Z-0.54
X32.194 Y4.1 Z-0.491
X32.158 Z-0.432
X32.135 Z-0.366
X32.127 Y4.099 Z-0.297
G0 Z5
X37.375 Y-2.274
Z0.013
G1 Z-0.297 F1000
X37.368 Y-2.27 Z-0.366
X37.349 Y-2.257 Z-0.432
X37.318 Y-2.237 Z-0.491
X37.277 Y-2.21 Z-0.54
X37.228 Y-2.178 Z-0.577
X37.173 Y-2.141 Z-0.599
X37.116 Y-2.103 Z-0.607
G3 X35.505 Y-1.546 I-1.893 J-2.867
G1 X35.475 Y-1.545
X35.382 Y-1.535
X35.289 Y-1.519
X35.196 Y-1.498
X35.103 Y-1.47
X35.01 Y-1.435
X34.917 Y-1.394
X34.886 Y-1.377
X34.726 Y-1.284
X34.638 Y-1.217
X34.545 Y-1.142
X34.5 Y-1.099
X34.452 Y-1.045
X34.359 Y-0.938
X34.34 Y-0.913
X34.266 Y-0.809
X34.078 Y-0.542
X34.058 Y-0.516
X34.033 Y-0.49
X34.01 Y-0.471
X33.987 Y-0.455
X33.977 Y-0.449
X33.936 Y-0.429
X33.894 Y-0.416
X33.848 Y-0.409
X33.801 Y-0.408
X33.755 Y-0.415
X33.708 Y-0.429
X33.665 Y-0.449
X33.615 Y-0.481
X33.529 Y-0.542
G3 X33.463 Y-0.967 I0.187 J-0.247
G1 X33.503 Y-1.002 Z-0.602
X33.543 Y-1.035 Z-0.588
X33.58 Y-1.067 Z-0.565
X33.626 Y-1.078 Z-0.531
X33.665 Y-1.087 Z-0.488
X33.695 Y-1.094 Z-0.439
X33.716 Y-1.099 Z-0.385
X33.726 Z-0.342
X33.729 Y-1.098 Z-0.297
G0 Z5
X28.825 Y5.401
Z0.089
G1 Z-0.221 F1000
X28.831 Y5.396 Z-0.29
X28.85 Y5.382 Z-0.356
X28.879 Y5.36 Z-0.415
X28.918 Y5.33 Z-0.464
X28.965 Y5.294 Z-0.501
X29.017 Y5.254 Z-0.524
X29.071 Y5.212 Z-0.531
G3 X30.64 Y4.544 I2.09 J2.727
G1 X30.733 Y4.533
X30.826 Y4.516
X30.919 Y4.493
X30.994 Y4.47
X31.012 Y4.464
X31.105 Y4.427
X31.198 Y4.383
X31.291 Y4.33
X31.371 Y4.284
X31.384 Y4.275
X31.49 Y4.191
X31.57 Y4.123
X31.596 Y4.099
X31.663 Y4.025
X31.679 Y4.006
X31.756 Y3.913
X31.849 Y3.775
X31.881 Y3.727
X32.004 Y3.542
X32.035 Y3.502
X32.089 Y3.449
X32.128 Y3.422
X32.174 Y3.4
X32.221 Y3.386
X32.267 Y3.38
X32.314 Y3.381
X32.36 Y3.389
X32.407 Y3.405
X32.444 Y3.424
X32.5 Y3.461
G3 X32.315 Y4.022 I-0.181 J0.252
G1 X32.246 Z-0.524
X32.18 Y4.021 Z-0.501
X32.121 Y4.02 Z-0.464
X32.072 Y4.019 Z-0.415
X32.035 Z-0.356
X32.012 Y4.018 Z-0.29
X32.005 Z-0.221
G0 Z5
X37.49 Y-2.32
Z0.089
G1 Z-0.221 F1000
X37.484 Y-2.316 Z-0.29
X37.465 Y-2.303 Z-0.356
X37.435 Y-2.282 Z-0.415
X37.394 Y-2.253 Z-0.464
X37.346 Y-2.22 Z-0.501
X37.292 Y-2.182 Z-0.524
X37.236 Y-2.143 Z-0.531
G3 X35.639 Y-1.546 I-1.964 J-2.819
G1 X35.568 Y-1.541
X35.475 Y-1.528
X35.382 Y-1.51
X35.289 Y-1.485
X35.196 Y-1.453
X35.103 Y-1.415
X35.01 Y-1.367
X34.917 Y-1.318
X34.866 Y-1.284
X34.824 Y-1.255
X34.742 Y-1.191
X34.638 Y-1.096
X34.555 Y-1.006
X34.481 Y-0.913
X34.452 Y-0.874
X34.173 Y-0.479
X34.149 Y-0.449
X34.115 Y-0.416
X34.08 Y-0.392
X34.037 Y-0.37
X33.994 Y-0.356
X33.987 Y-0.355
X33.941 Y-0.348
X33.894 Y-0.347
X33.861 Y-0.35
X33.828 Y-0.356
X33.801 Y-0.364
X33.755 Y-0.385
X33.708 Y-0.415
X33.661 Y-0.449
G3 X33.594 Y-0.874 I0.187 J-0.247
G1 X33.635 Y-0.909 Z-0.526
X33.675 Y-0.943 Z-0.512
X33.712 Y-0.974 Z-0.489
X33.758 Y-0.985 Z-0.455
X33.797 Y-0.994 Z-0.412
X33.827 Y-1.001 Z-0.363
X33.848 Y-1.006 Z-0.309
X33.858 Z-0.266
X33.861 Z-0.221
G0 Z5
X28.638 Y5.338
Z0.165
G1 Z-0.145 F1000
X28.645 Y5.334 Z-0.214
X28.663 Y5.32 Z-0.28
X28.693 Y5.299 Z-0.339
X28.733 Y5.271 Z-0.388
X28.781 Y5.236 Z-0.425
X28.835 Y5.198 Z-0.448
X28.891 Y5.158 Z-0.455
G3 X30.482 Y4.545 I1.993 J2.799
G1 X30.547 Y4.54
X30.64 Y4.526
X30.733 Y4.507
X30.826 Y4.481
X30.919 Y4.45
X31.012 Y4.41
X31.105 Y4.363
X31.198 Y4.311
X31.239 Y4.284
X31.291 Y4.249
X31.362 Y4.191
X31.477 Y4.088
X31.549 Y4.006
X31.625 Y3.913
X31.663 Y3.86
X31.689 Y3.82
X31.756 Y3.721
X31.875 Y3.542
X31.938 Y3.449
X31.942 Y3.444
X31.962 Y3.419
X31.988 Y3.393
X32.011 Y3.375
X32.035 Y3.36
X32.042 Y3.356
X32.085 Y3.337
X32.128 Y3.324
X32.174 Y3.318
X32.221 Y3.319
X32.267 Y3.327
X32.314 Y3.343
X32.341 Y3.356
X32.407 Y3.399
G3 X32.222 Y3.961 I-0.181 J0.252
G1 X32.153 Y3.96 Z-0.448
X32.087 Y3.959 Z-0.425
X32.028 Y3.958 Z-0.388
X31.979 Y3.957 Z-0.339
X31.942 Z-0.28
X31.919 Y3.956 Z-0.214
X31.912 Z-0.145
G0 Z5
X37.643 Y-2.274
Z0.165
G1 Z-0.145 F1000
X37.637 Y-2.269 Z-0.214
X37.618 Y-2.257 Z-0.28
X37.587 Y-2.236 Z-0.339
X37.546 Y-2.209 Z-0.388
X37.497 Y-2.177 Z-0.425
X37.442 Y-2.141 Z-0.448
X37.385 Y-2.103 Z-0.455
G3 X35.773 Y-1.546 I-1.892 J-2.867
G1 X35.754 Y-1.545
X35.661 Y-1.535
X35.568 Y-1.519
X35.475 Y-1.498
X35.382 Y-1.47
X35.289 Y-1.434
X35.166 Y-1.377
X35.103 Y-1.343
X35.008 Y-1.284
X34.917 Y-1.219
X34.882 Y-1.191
X34.824 Y-1.14
X34.78 Y-1.099
X34.731 Y-1.047
X34.694 Y-1.006
X34.638 Y-0.936
X34.62 Y-0.913
X34.545 Y-0.808
X34.292 Y-0.449
X34.266 Y-0.413
X34.242 Y-0.385
X34.209 Y-0.356
X34.173 Y-0.331
X34.127 Y-0.305
X34.08 Y-0.289
X34.034 Y-0.28
X33.987 Y-0.279
X33.941 Y-0.284
X33.894 Y-0.297
X33.848 Y-0.319
X33.801 Y-0.35
X33.792 Y-0.356
G3 X33.726 Y-0.781 I0.187 J-0.247
G1 X33.767 Y-0.816 Z-0.45
X33.806 Y-0.85 Z-0.436
X33.843 Y-0.882 Z-0.413
X33.889 Y-0.892 Z-0.379
X33.928 Y-0.901 Z-0.337
X33.959 Y-0.908 Z-0.287
X33.98 Y-0.913 Z-0.233
X33.989 Z-0.19
X33.992 Z-0.145
G0 Z5
X28.536 Y5.381
Z0.24
G1 Z-0.07 F1000
X28.542 Y5.376 Z-0.139
X28.561 Y5.362 Z-0.204
X28.59 Y5.34 Z-0.263
X28.63 Y5.311 Z-0.312
X28.677 Y5.276 Z-0.349
X28.729 Y5.236 Z-0.372
X28.784 Y5.195 Z-0.38
G3 X30.361 Y4.545 I2.057 J2.752
G1 X30.454 Y4.535
X30.547 Y4.519
X30.64 Y4.498
X30.734 Y4.47
X30.826 Y4.435
X30.919 Y4.393
X30.954 Y4.377
X31.108 Y4.284
X31.198 Y4.216
X31.291 Y4.14
X31.338 Y4.099
X31.384 Y4.046
X31.496 Y3.913
X31.57 Y3.805
X31.622 Y3.727
X31.684 Y3.635
X31.807 Y3.449
X31.849 Y3.388
X31.876 Y3.356
X31.909 Y3.328
X31.942 Y3.306
X31.988 Y3.284
X32.035 Y3.271
X32.094 Y3.263
X32.123
X32.128 Y3.264
X32.174 Y3.27
X32.221 Y3.284
X32.267 Y3.306
X32.314 Y3.337
G3 X32.129 Y3.899 I-0.181 J0.252
G1 X32.06 Y3.898 Z-0.372
X31.994 Y3.897 Z-0.349
X31.935 Y3.896 Z-0.312
X31.886 Y3.895 Z-0.263
X31.849 Z-0.204
X31.826 Z-0.139
X31.819 Z-0.07
G0 Z5
X37.765 Y-2.329
Z0.24
G1 Z-0.07 F1000
X37.759 Y-2.324 Z-0.139
X37.74 Y-2.311 Z-0.204
X37.71 Y-2.29 Z-0.263
X37.67 Y-2.262 Z-0.312
X37.622 Y-2.228 Z-0.349
X37.568 Y-2.19 Z-0.372
X37.512 Y-2.151 Z-0.38
G3 X35.918 Y-1.546 I-1.977 J-2.81
G1 X35.847 Y-1.541
X35.754 Y-1.528
X35.661 Y-1.509
X35.568 Y-1.484
X35.521 Y-1.47
X35.475 Y-1.454
X35.382 Y-1.415
X35.306 Y-1.377
X35.196 Y-1.314
X35.144 Y-1.284
X35.103 Y-1.254
X35.01 Y-1.18
X34.917 Y-1.097
X34.836 Y-1.006
X34.824 Y-0.993
X34.76 Y-0.913
X34.731 Y-0.874
X34.359 Y-0.346
X34.34 Y-0.322
X34.316 Y-0.297
X34.294 Y-0.279
X34.272 Y-0.263
X34.266 Y-0.26
X34.22 Y-0.237
X34.173 Y-0.223
X34.127 Y-0.216
X34.08 Y-0.214
X34.034 Y-0.219
X33.987 Y-0.232
X33.956 Y-0.245
X33.924 Y-0.263
X33.894 Y-0.284
G3 X33.828 Y-0.709 I0.187 J-0.247
G1 X33.869 Y-0.744 Z-0.375
X33.908 Y-0.778 Z-0.36
X33.946 Y-0.81 Z-0.337
X33.991 Y-0.82 Z-0.303
X34.03 Y-0.829 Z-0.261
X34.061 Y-0.836 Z-0.211
X34.082 Y-0.841 Z-0.157
X34.091 Z-0.114
X34.094 Z-0.07
G0 Z5
X28.352 Y5.295
Z0.316
G1 Z0.006 F1000
X28.359 Y5.291 Z-0.063
X28.378 Y5.278 Z-0.128
X28.408 Y5.257 Z-0.187
X28.449 Y5.23 Z-0.236
X28.498 Y5.197 Z-0.273
X28.552 Y5.16 Z-0.296
X28.609 Y5.121 Z-0.304
G3 X30.214 Y4.545 I1.927 J2.844
G1 X30.268 Y4.542
X30.361 Y4.53
X30.454 Y4.512
X30.547 Y4.488
X30.604 Y4.47
X30.64 Y4.458
X30.733 Y4.421
X30.818 Y4.377
X30.919 Y4.324
X30.982 Y4.284
X31.012 Y4.264
X31.106 Y4.191
X31.207 Y4.099
X31.291 Y4.01
X31.294 Y4.006
X31.367 Y3.913
X31.384 Y3.89
X31.493 Y3.727
X31.74 Y3.356
X31.756 Y3.335
X31.787 Y3.299
X31.827 Y3.263
X31.849 Y3.248
X31.895 Y3.224
X31.942 Y3.209
X31.988 Y3.201
X32.035
X32.081 Y3.207
X32.128 Y3.222
X32.165 Y3.239
X32.203 Y3.263
X32.221 Y3.275
G3 X32.036 Y3.837 I-0.181 J0.252
G1 X31.967 Y3.836 Z-0.296
X31.901 Y3.835 Z-0.273
X31.842 Y3.834 Z-0.236
X31.793 Z-0.187
X31.756 Y3.833 Z-0.128
X31.733 Z-0.063
X31.726 Z0.006
G0 Z5
X37.943 Y-2.262
Z0.316
G1 Z0.006 F1000
X37.936 Y-2.258 Z-0.063
X37.917 Y-2.245 Z-0.128
X37.886 Y-2.225 Z-0.187
X37.845 Y-2.198 Z-0.236
X37.796 Y-2.166 Z-0.273
X37.741 Y-2.131 Z-0.296
X37.683 Y-2.093 Z-0.304
G3 X36.068 Y-1.546 I-1.875 J-2.879
G1 X36.033 Y-1.545
X35.94 Y-1.535
X35.847 Y-1.519
X35.754 Y-1.497
X35.661 Y-1.469
X35.568 Y-1.436
X35.475 Y-1.391
X35.382 Y-1.343
X35.289 Y-1.287
X35.286 Y-1.284
X35.196 Y-1.22
X35.163 Y-1.191
X35.06 Y-1.099
X35.01 Y-1.048
X34.975 Y-1.006
X34.9 Y-0.913
X34.833 Y-0.82
X34.452 Y-0.28
X34.439 Y-0.263
X34.421 Y-0.243
X34.399 Y-0.223
X34.359 Y-0.195
X34.334 Y-0.181
X34.308 Y-0.171
X34.266 Y-0.157
X34.22 Y-0.149
X34.173 Y-0.147
X34.127 Y-0.153
X34.08 Y-0.166
X34.069 Y-0.171
X34.028 Y-0.191
X33.987 Y-0.219
X33.924 Y-0.263
G3 X33.857 Y-0.688 I0.187 J-0.247
G1 X33.898 Y-0.723 Z-0.299
X33.938 Y-0.757 Z-0.284
X33.975 Y-0.789 Z-0.261
X34.021 Y-0.799 Z-0.227
X34.06 Y-0.808 Z-0.185
X34.09 Y-0.815 Z-0.136
X34.111 Y-0.82 Z-0.081
X34.121 Z-0.038
X34.124 Z0.006
G0 Z5
X28.261 Y5.355
Z0.392
G1 Z0.082 F1000
X28.267 Y5.351 Z0.013
X28.286 Y5.337 Z-0.052
X28.316 Y5.315 Z-0.111
X28.356 Y5.287 Z-0.16
X28.403 Y5.252 Z-0.197
X28.456 Y5.214 Z-0.22
X28.512 Y5.173 Z-0.228
G3 X30.097 Y4.545 I2.018 J2.78
G1 X30.175 Y4.538
X30.268 Y4.524
X30.361 Y4.504
X30.454 Y4.477
X30.476 Y4.47
X30.547 Y4.445
X30.733 Y4.358
X30.85 Y4.284
X30.919 Y4.237
X30.976 Y4.191
X31.012 Y4.161
X31.078 Y4.099
X31.105 Y4.069
X31.237 Y3.913
X31.291 Y3.837
X31.663 Y3.278
X31.674 Y3.263
X31.692 Y3.242
X31.715 Y3.221
X31.756 Y3.191
X31.795 Y3.171
X31.822 Y3.161
X31.849 Y3.153
X31.895 Y3.147
X31.942 Y3.145
X31.988 Y3.15
X32.035 Y3.163
X32.055 Y3.171
X32.091 Y3.189
X32.128 Y3.213
G3 X31.943 Y3.775 I-0.181 J0.252
G1 X31.874 Y3.774 Z-0.22
X31.808 Y3.773 Z-0.197
X31.749 Y3.772 Z-0.16
X31.7 Z-0.111
X31.663 Y3.771 Z-0.052
X31.64 Z0.013
X31.633 Z0.082
G0 Z5
X38.052 Y-2.328
Z0.392
G1 Z0.082 F1000
X38.046 Y-2.324 Z0.013
X38.027 Y-2.311 Z-0.052
X37.997 Y-2.289 Z-0.111
X37.956 Y-2.261 Z-0.16
X37.908 Y-2.227 Z-0.197
X37.855 Y-2.19 Z-0.22
X37.798 Y-2.15 Z-0.228
G3 X36.204 Y-1.546 I-1.976 J-2.811
G1 X36.126 Y-1.541
X36.033 Y-1.528
X35.94 Y-1.509
X35.847 Y-1.484
X35.802 Y-1.47
X35.754 Y-1.453
X35.661 Y-1.412
X35.568 Y-1.37
X35.475 Y-1.314
X35.427 Y-1.284
X35.382 Y-1.255
X35.301 Y-1.191
X35.289 Y-1.182
X35.196 Y-1.097
X35.113 Y-1.006
X35.103 Y-0.995
X35.039 Y-0.913
X35.01 Y-0.873
X34.58 Y-0.263
X34.545 Y-0.214
X34.527 Y-0.192
X34.506 Y-0.171
X34.452 Y-0.131
X34.406 Y-0.105
X34.359 Y-0.09
X34.313 Y-0.081
X34.266 Y-0.08
X34.22 Y-0.086
X34.173 Y-0.1
X34.127 Y-0.122
X34.08 Y-0.153
X34.056 Y-0.171
G3 X33.989 Y-0.596 I0.187 J-0.247
G1 X34.03 Y-0.63 Z-0.223
X34.07 Y-0.664 Z-0.209
X34.107 Y-0.696 Z-0.185
X34.153 Y-0.707 Z-0.151
X34.191 Y-0.716 Z-0.109
X34.222 Y-0.723 Z-0.06
X34.243 Y-0.727 Z-0.006
X34.252 Z0.038
X34.256 Z0.082
G0 Z5
X28.169 Y5.391
Z0.468
G1 Z0.158 F1000
X28.176 Y5.386 Z0.089
X28.194 Y5.372 Z0.024
X28.223 Y5.35 Z-0.035
X28.262 Y5.32 Z-0.084
X28.309 Y5.285 Z-0.121
X28.361 Y5.245 Z-0.144
X28.416 Y5.204 Z-0.152
G3 X29.989 Y4.544 I2.074 J2.739
G1 X30.082 Y4.533
X30.175 Y4.517
X30.268 Y4.494
X30.348 Y4.47
X30.361 Y4.465
X30.454 Y4.429
X30.547 Y4.386
X30.64 Y4.333
X30.724 Y4.284
X30.733 Y4.278
X30.826 Y4.206
X30.844 Y4.191
X30.919 Y4.128
X30.949 Y4.099
X31.012 Y4.03
X31.033 Y4.006
X31.105 Y3.918
X31.109 Y3.913
X31.198 Y3.782
X31.234 Y3.727
X31.358 Y3.542
X31.57 Y3.224
X31.59 Y3.197
X31.615 Y3.171
X31.639 Y3.151
X31.663 Y3.135
X31.709 Y3.111
X31.756 Y3.096
X31.802 Y3.086
X31.849 Y3.084
X31.895 Y3.089
X31.942 Y3.101
X31.988 Y3.122
X32.035 Y3.151
X32.063 Y3.171
G3 X31.879 Y3.732 I-0.181 J0.252
G1 X31.81 Z-0.144
X31.744 Y3.731 Z-0.121
X31.685 Y3.73 Z-0.084
X31.636 Y3.729 Z-0.035
X31.599 Z0.024
X31.576 Y3.728 Z0.089
X31.569 Z0.158
G0 Z5
X38.141 Y-2.372
Z0.468
G1 Z0.158 F1000
X38.134 Y-2.367 Z0.089
X38.116 Y-2.353 Z0.024
X38.086 Y-2.331 Z-0.035
X38.047 Y-2.302 Z-0.084
X38 Y-2.267 Z-0.121
X37.947 Y-2.228 Z-0.144
X37.892 Y-2.187 Z-0.152
G3 X36.312 Y-1.545 I-2.044 J-2.761
G1 X36.219 Y-1.535
X36.126 Y-1.52
X36.033 Y-1.498
X35.939 Y-1.47
X35.847 Y-1.435
X35.754 Y-1.393
X35.661 Y-1.341
X35.568 Y-1.287
X35.564 Y-1.284
X35.475 Y-1.217
X35.443 Y-1.191
X35.382 Y-1.14
X35.338 Y-1.099
X35.289 Y-1.045
X35.254 Y-1.006
X35.196 Y-0.936
X35.179 Y-0.913
X35.103 Y-0.807
X34.638 Y-0.148
X34.61 Y-0.113
X34.57 Y-0.078
X34.545 Y-0.061
X34.499 Y-0.038
X34.452 Y-0.023
X34.406 Y-0.017
X34.359
X34.313 Y-0.024
X34.266 Y-0.037
X34.227 Y-0.053
X34.187 Y-0.078
X34.173 Y-0.087
G3 X34.107 Y-0.512 I0.187 J-0.247
G1 X34.148 Y-0.547 Z-0.147
X34.187 Y-0.581 Z-0.133
X34.225 Y-0.613 Z-0.11
X34.27 Y-0.623 Z-0.075
X34.309 Y-0.632 Z-0.033
X34.34 Y-0.639 Z0.016
X34.361 Y-0.644 Z0.07
X34.37 Z0.114
X34.373 Z0.158
G0 Z5
X27.991 Y5.333
Z0.544
G1 Z0.234 F1000
X27.997 Y5.329 Z0.165
X28.016 Y5.315 Z0.1
X28.046 Y5.294 Z0.041
X28.086 Y5.266 Z-0.008
X28.134 Y5.232 Z-0.045
X28.188 Y5.194 Z-0.068
X28.244 Y5.154 Z-0.076
G3 X29.837 Y4.545 I1.985 J2.804
G1 X29.896 Y4.54
X29.989 Y4.527
X30.082 Y4.508
X30.175 Y4.483
X30.268 Y4.452
X30.361 Y4.412
X30.454 Y4.365
X30.547 Y4.314
X30.593 Y4.284
X30.64 Y4.252
X30.715 Y4.191
X30.826 Y4.092
X30.903 Y4.006
X30.979 Y3.913
X31.012 Y3.866
X31.043 Y3.82
X31.105 Y3.727
X31.477 Y3.169
X31.514 Y3.123
X31.54 Y3.098
X31.565 Y3.078
X31.57 Y3.075
X31.616 Y3.049
X31.663 Y3.032
X31.709 Y3.023
X31.756 Y3.021
X31.802 Y3.026
X31.849 Y3.039
X31.886 Y3.055
X31.924 Y3.078
X31.942 Y3.089
G3 X31.757 Y3.651 I-0.181 J0.252
G1 X31.688 Y3.65 Z-0.068
X31.622 Z-0.045
X31.563 Y3.649 Z-0.008
X31.514 Y3.648 Z0.041
X31.477 Z0.1
X31.455 Y3.647 Z0.165
X31.447 Z0.234
G0 Z5
X38.323 Y-2.331
Z0.544
G1 Z0.234 F1000
X38.316 Y-2.326 Z0.165
X38.298 Y-2.313 Z0.1
X38.268 Y-2.292 Z0.041
X38.227 Y-2.263 Z-0.008
X38.179 Y-2.229 Z-0.045
X38.126 Y-2.192 Z-0.068
X38.069 Y-2.152 Z-0.076
G3 X36.476 Y-1.546 I-1.979 J-2.808
G1 X36.405 Y-1.541
X36.312 Y-1.528
X36.219 Y-1.509
X36.126 Y-1.484
X36.033 Y-1.453
X35.94 Y-1.413
X35.847 Y-1.367
X35.754 Y-1.316
X35.705 Y-1.284
X35.661 Y-1.255
X35.583 Y-1.191
X35.475 Y-1.095
X35.395 Y-1.006
X35.319 Y-0.913
X35.289 Y-0.873
X34.794 Y-0.171
X34.731 Y-0.082
X34.728 Y-0.078
X34.683 Y-0.032
X34.661 Y-0.012
X34.638 Y0.003
X34.619 Y0.015
X34.582 Y0.032
X34.545 Y0.044
X34.499 Y0.051
X34.452 Y0.052
X34.406 Y0.046
X34.359 Y0.032
X34.322 Y0.015
X34.266 Y-0.022
X34.187 Y-0.078
G3 X34.121 Y-0.503 I0.187 J-0.247
G1 X34.162 Y-0.538 Z-0.071
X34.201 Y-0.571 Z-0.057
X34.238 Y-0.603 Z-0.034
X34.284 Y-0.614 Z0.001
X34.323 Y-0.623 Z0.043
X34.353 Y-0.63 Z0.092
X34.374 Y-0.635 Z0.146
X34.384 Y-0.634 Z0.19
X34.387 Z0.234
G0 Z5
X31.145 Y5.358
Z-1.299
G1 Z-1.609 F1000
X31.152 Y5.354 Z-1.678
X31.17 Y5.34 Z-1.743
X31.2 Y5.318 Z-1.802
X31.24 Y5.289 Z-1.851
X31.287 Y5.255 Z-1.888
X31.34 Y5.216 Z-1.911
X31.396 Y5.176 Z-1.919
G3 X32.98 Y4.545 I2.023 J2.776
G1 X33.057 Y4.537
X33.15 Y4.523
X33.243 Y4.503
X33.336 Y4.476
X33.357 Y4.47
X33.429 Y4.444
X33.522 Y4.403
X33.615 Y4.36
X33.662 Y4.346
X33.708 Y4.339
X33.755 Y4.337
X33.801 Y4.343
X33.848 Y4.356
X33.895 Y4.377
G3 X34.055 Y4.574 I-0.14 J0.277
G2 X34.301 Y4.8 I0.3 J-0.079
G1 X34.469 Y4.83
X36.42 Y5.17
X36.48 Y5.174
X36.539 Y5.167
X36.595 Y5.149
X36.647 Y5.121
G3 X38.252 Y4.544 I1.928 J2.844
G1 X38.265
X38.358 Y4.535
X38.451 Y4.519
X38.544 Y4.5
X38.637 Y4.472
X38.73 Y4.441
X38.823 Y4.397
X38.916 Y4.351
X39.009 Y4.294
X39.025 Y4.284
X39.102 Y4.23
X39.146 Y4.191
X39.251 Y4.099
X39.288 Y4.062
X39.411 Y3.913
X39.48 Y3.82
X40.361 Y2.614
X40.497 Y2.426
X41.398 Y1.172
G0 Z5
X34.977 Y-2.234
Z-1.299
G1 Z-1.609 F1000
X34.971 Y-2.23 Z-1.678
X34.951 Y-2.218 Z-1.743
X34.92 Y-2.198 Z-1.802
X34.879 Y-2.172 Z-1.851
X34.829 Y-2.141 Z-1.888
X34.773 Y-2.106 Z-1.911
X34.715 Y-2.069 Z-1.919
G3 X33.092 Y-1.546 I-1.833 J-2.906
G1 X33.057 Y-1.545
X32.964 Y-1.535
X32.871 Y-1.519
X32.778 Y-1.497
X32.688 Y-1.47
X32.592 Y-1.434
X32.5 Y-1.396
X32.456 Y-1.383
X32.412 Y-1.377
X32.407
X32.372
X32.343 Y-1.38
X32.314 Y-1.387
X32.221 Y-1.423
G3 X32.056 Y-1.82 I0.124 J-0.284
G1 X32.088 Y-1.864 Z-1.914
X32.118 Y-1.906 Z-1.9
X32.147 Y-1.945 Z-1.877
X32.194 Y-1.967 Z-1.838
X32.232 Y-1.986 Z-1.79
X32.261 Y-1.999 Z-1.734
X32.279 Y-2.008 Z-1.673
X32.285 Y-2.011 Z-1.609
G0 Z5
X30.952 Y5.325
Z-1.199
G1 Z-1.509 F1000
X30.958 Y5.32 Z-1.578
X30.977 Y5.307 Z-1.643
X31.007 Y5.286 Z-1.702
X31.048 Y5.258 Z-1.751
X31.096 Y5.224 Z-1.788
X31.149 Y5.186 Z-1.811
X31.206 Y5.147 Z-1.819
G3 X32.801 Y4.545 I1.973 J2.813
G1 X32.871 Y4.539
X32.964 Y4.526
X33.057 Y4.507
X33.15 Y4.482
X33.186 Y4.47
X33.243 Y4.45
X33.336 Y4.411
X33.406 Y4.377
X33.429 Y4.365
X33.522 Y4.315
X33.569 Y4.299
X33.615 Y4.29
X33.662 Y4.289
X33.708 Y4.295
X33.755 Y4.307
X33.801 Y4.326
X33.894 Y4.373
G3 X33.775 Y4.953 I-0.151 J0.271
G1 X33.706 Y4.959 Z-1.811
X33.641 Y4.966 Z-1.788
X33.582 Y4.972 Z-1.751
X33.533 Y4.977 Z-1.702
X33.497 Y4.98 Z-1.643
X33.474 Y4.983 Z-1.578
X33.466 Y4.984 Z-1.509
G0 Z5
X35.156 Y-2.253
Z-1.199
G1 Z-1.509 F1000
X35.15 Y-2.249 Z-1.578
X35.13 Y-2.237 Z-1.643
X35.099 Y-2.217 Z-1.702
X35.058 Y-2.19 Z-1.751
X35.009 Y-2.158 Z-1.788
X34.954 Y-2.123 Z-1.811
X34.896 Y-2.085 Z-1.819
G3 X33.278 Y-1.546 I-1.862 J-2.887
G1 X33.243 Y-1.545
X33.15 Y-1.535
X33.057 Y-1.519
X32.964 Y-1.497
X32.875 Y-1.47
X32.778 Y-1.435
X32.685 Y-1.393
X32.652 Y-1.377
X32.592 Y-1.349
X32.546 Y-1.336
X32.5 Y-1.331
X32.453 Y-1.332
X32.407 Y-1.341
X32.363 Y-1.356
X32.319 Y-1.377
G3 X32.195 Y-1.789 I0.152 J-0.27
G1 X32.23 Y-1.829 Z-1.814
X32.265 Y-1.868 Z-1.8
X32.297 Y-1.904 Z-1.777
X32.346 Y-1.922 Z-1.738
X32.386 Y-1.936 Z-1.69
X32.416 Y-1.947 Z-1.634
X32.434 Y-1.954 Z-1.573
X32.441 Y-1.956 Z-1.509
G0 Z5
X30.789 Y5.319
Z-1.099
G1 Z-1.409 F1000
X30.795 Y5.314 Z-1.478
X30.814 Y5.301 Z-1.543
X30.844 Y5.28 Z-1.602
X30.884 Y5.252 Z-1.651
X30.933 Y5.218 Z-1.688
X30.986 Y5.181 Z-1.711
X31.043 Y5.142 Z-1.719
G3 X32.64 Y4.545 I1.963 J2.819
G1 X32.685 Y4.542
X32.778 Y4.529
X32.871 Y4.511
X32.964 Y4.486
X33.057 Y4.455
X33.15 Y4.417
X33.243 Y4.37
X33.336 Y4.321
X33.395 Y4.284
X33.429 Y4.264
X33.476 Y4.246
X33.522 Y4.235
X33.569 Y4.232
X33.615 Y4.236
X33.662 Y4.247
X33.708 Y4.267
X33.738 Y4.284
G3 X33.571 Y4.852 I-0.173 J0.258
G1 X33.502 Y4.853 Z-1.711
X33.436 Y4.854 Z-1.688
X33.378 Y4.855 Z-1.651
X33.329 Y4.856 Z-1.602
X33.292 Y4.857 Z-1.543
X33.269 Z-1.478
X33.261 Z-1.409
G0 Z5
X35.331 Y-2.267
Z-1.099
G1 Z-1.409 F1000
X35.325 Y-2.263 Z-1.478
X35.306 Y-2.25 Z-1.543
X35.275 Y-2.23 Z-1.602
X35.234 Y-2.203 Z-1.651
X35.185 Y-2.171 Z-1.688
X35.13 Y-2.135 Z-1.711
X35.072 Y-2.097 Z-1.719
G3 X33.459 Y-1.546 I-1.883 J-2.874
G1 X33.429 Y-1.545
X33.336 Y-1.535
X33.243 Y-1.519
X33.15 Y-1.498
X33.057 Y-1.469
X32.964 Y-1.436
X32.871 Y-1.391
X32.685 Y-1.298
X32.635 Y-1.284
X32.592 Y-1.28
X32.56
X32.528 Y-1.284
X32.5 Y-1.29
X32.453 Y-1.305
X32.407 Y-1.328
X32.357 Y-1.355
G3 X32.243 Y-1.77 I0.158 J-0.267
G1 X32.279 Y-1.809 Z-1.714
X32.315 Y-1.847 Z-1.7
X32.348 Y-1.883 Z-1.677
X32.397 Y-1.899 Z-1.638
X32.437 Y-1.913 Z-1.59
X32.468 Y-1.923 Z-1.534
X32.486 Y-1.929 Z-1.473
X32.492 Y-1.931 Z-1.409
G0 Z5
X30.607 Y5.303
Z-0.999
G1 Z-1.309 F1000
X30.613 Y5.299 Z-1.378
X30.632 Y5.286 Z-1.443
X30.662 Y5.265 Z-1.502
X30.703 Y5.237 Z-1.551
X30.751 Y5.204 Z-1.588
X30.806 Y5.167 Z-1.611
X30.862 Y5.128 Z-1.619
G3 X32.465 Y4.545 I1.939 J2.836
G1 X32.5 Y4.543
X32.592 Y4.531
X32.685 Y4.514
X32.778 Y4.49
X32.846 Y4.47
X32.871 Y4.461
X32.964 Y4.422
X33.061 Y4.377
X33.15 Y4.328
X33.243 Y4.27
X33.336 Y4.209
X33.381 Y4.191
X33.429 Y4.181
X33.476 Y4.178
X33.522 Y4.182
X33.572 Y4.191
X33.615 Y4.207
X33.708 Y4.264
X33.74 Y4.284
G3 X33.57 Y4.851 I-0.174 J0.256
G1 X33.501 Z-1.611
X33.435 Y4.852 Z-1.588
X33.376 Y4.853 Z-1.551
X33.327 Z-1.502
X33.29 Y4.854 Z-1.443
X33.267 Z-1.378
X33.26 Z-1.309
G0 Z5
X35.5 Y-2.271
Z-0.999
G1 Z-1.309 F1000
X35.493 Y-2.267 Z-1.378
X35.474 Y-2.254 Z-1.443
X35.443 Y-2.234 Z-1.502
X35.402 Y-2.207 Z-1.551
X35.353 Y-2.175 Z-1.588
X35.298 Y-2.139 Z-1.611
X35.241 Y-2.101 Z-1.619
G3 X33.629 Y-1.546 I-1.889 J-2.869
G1 X33.615 Y-1.545
X33.522 Y-1.536
X33.429 Y-1.52
X33.336 Y-1.498
X33.243 Y-1.468
X33.15 Y-1.436
X33.027 Y-1.377
X32.964 Y-1.346
X32.871 Y-1.29
X32.863 Y-1.284
X32.821 Y-1.258
X32.778 Y-1.239
X32.732 Y-1.227
X32.685 Y-1.222
X32.639 Y-1.223
X32.592 Y-1.23
X32.546 Y-1.245
X32.5 Y-1.268
X32.475 Y-1.284
G3 X32.394 Y-1.707 I0.179 J-0.253
G1 X32.434 Y-1.743 Z-1.614
X32.472 Y-1.778 Z-1.6
X32.508 Y-1.811 Z-1.577
X32.553 Y-1.822 Z-1.543
X32.591 Y-1.832 Z-1.501
X32.621 Y-1.839 Z-1.453
X32.643 Y-1.845 Z-1.4
X32.654 Y-1.847 Z-1.344
X32.656 Z-1.309
G0 Z5
X30.419 Y5.299
Z-0.891
G1 Z-1.201 F1000
X30.425 Y5.294 Z-1.27
X30.444 Y5.282 Z-1.336
X30.475 Y5.261 Z-1.395
X30.515 Y5.233 Z-1.444
X30.564 Y5.2 Z-1.481
X30.618 Y5.163 Z-1.504
X30.675 Y5.124 Z-1.511
G3 X32.279 Y4.545 I1.933 J2.84
G1 X32.314 Y4.543
X32.407 Y4.531
X32.5 Y4.514
X32.592 Y4.491
X32.662 Y4.47
X32.685 Y4.462
X32.778 Y4.424
X32.881 Y4.377
X32.964 Y4.328
X33.057 Y4.271
X33.15 Y4.202
X33.204 Y4.16
X33.243 Y4.137
X33.29 Y4.12
X33.336 Y4.11
X33.383 Y4.107
X33.429 Y4.111
X33.476 Y4.123
X33.522 Y4.143
X33.598 Y4.191
X33.615 Y4.203
G3 X33.431 Y4.765 I-0.181 J0.252
G1 X33.362 Y4.764 Z-1.504
X33.296 Y4.763 Z-1.481
X33.237 Y4.762 Z-1.444
X33.188 Y4.761 Z-1.395
X33.151 Z-1.336
X33.128 Y4.76 Z-1.27
X33.121 Z-1.201
G0 Z5
X35.702 Y-2.285
Z-0.891
G1 Z-1.201 F1000
X35.696 Y-2.281 Z-1.27
X35.677 Y-2.268 Z-1.336
X35.646 Y-2.247 Z-1.395
X35.605 Y-2.22 Z-1.444
X35.556 Y-2.187 Z-1.481
X35.502 Y-2.151 Z-1.504
X35.444 Y-2.113 Z-1.511
G3 X33.836 Y-1.546 I-1.91 J-2.856
G1 X33.801 Y-1.544
X33.708 Y-1.534
X33.615 Y-1.517
X33.522 Y-1.495
X33.439 Y-1.47
X33.429 Y-1.466
X33.336 Y-1.43
X33.223 Y-1.377
X33.15 Y-1.337
X33.057 Y-1.28
X32.964 Y-1.214
X32.931 Y-1.191
X32.901 Y-1.175
X32.871 Y-1.163
X32.825 Y-1.151
X32.778 Y-1.146
X32.732 Y-1.149
X32.685 Y-1.158
X32.647 Y-1.172
X32.609 Y-1.191
X32.592 Y-1.202
X32.541 Y-1.238
G3 X32.474 Y-1.663 I0.187 J-0.247
G1 X32.515 Y-1.698 Z-1.506
X32.555 Y-1.732 Z-1.492
X32.592 Y-1.764 Z-1.469
X32.638 Y-1.774 Z-1.435
X32.677 Y-1.783 Z-1.392
X32.708 Y-1.79 Z-1.343
X32.728 Y-1.795 Z-1.288
X32.738 Z-1.245
X32.741 Z-1.201
G0 Z5
X30.249 Y5.284
Z-0.79
G1 Z-1.1 F1000
X30.255 Y5.28 Z-1.169
X30.274 Y5.267 Z-1.235
X30.305 Y5.246 Z-1.293
X30.346 Y5.219 Z-1.342
X30.395 Y5.186 Z-1.379
X30.449 Y5.15 Z-1.402
X30.506 Y5.112 Z-1.41
G3 X32.114 Y4.545 I1.91 J2.855
G1 X32.128 Y4.544
X32.221 Y4.534
X32.314 Y4.517
X32.407 Y4.495
X32.5 Y4.467
X32.592 Y4.431
X32.685 Y4.389
X32.871 Y4.281
X32.964 Y4.209
X33.057 Y4.133
X33.08 Y4.114
X33.102 Y4.099
X33.126 Y4.084
X33.15 Y4.073
X33.197 Y4.056
X33.243 Y4.046
X33.29 Y4.044
X33.336 Y4.048
X33.383 Y4.06
X33.429 Y4.081
X33.459 Y4.099
X33.522 Y4.141
G3 X33.338 Y4.703 I-0.181 J0.252
G1 X33.269 Y4.702 Z-1.402
X33.203 Y4.701 Z-1.379
X33.144 Y4.7 Z-1.342
X33.095 Y4.699 Z-1.293
X33.058 Z-1.235
X33.035 Z-1.169
X33.028 Z-1.1
G0 Z5
X35.895 Y-2.285
Z-0.79
G1 Z-1.1 F1000
X35.889 Y-2.28 Z-1.169
X35.87 Y-2.268 Z-1.235
X35.839 Y-2.247 Z-1.293
X35.798 Y-2.22 Z-1.342
X35.749 Y-2.187 Z-1.379
X35.695 Y-2.151 Z-1.402
X35.637 Y-2.112 Z-1.41
G3 X34.029 Y-1.546 I-1.909 J-2.856
G1 X33.987 Y-1.544
X33.894 Y-1.533
X33.801 Y-1.517
X33.708 Y-1.495
X33.626 Y-1.47
X33.615 Y-1.466
X33.522 Y-1.43
X33.406 Y-1.377
X33.336 Y-1.336
X33.243 Y-1.279
X33.15 Y-1.212
X33.124 Y-1.191
X33.057 Y-1.136
X33.022 Y-1.114
X32.987 Y-1.099
X32.964 Y-1.091
X32.918 Y-1.081
X32.871 Y-1.079
X32.825 Y-1.082
X32.778 Y-1.092
X32.758 Y-1.099
X32.722 Y-1.115
X32.685 Y-1.137
X32.608 Y-1.191
G3 X32.541 Y-1.616 I0.187 J-0.247
G1 X32.582 Y-1.651 Z-1.405
X32.622 Y-1.685 Z-1.391
X32.659 Y-1.717 Z-1.368
X32.705 Y-1.727 Z-1.334
X32.744 Y-1.736 Z-1.291
X32.774 Y-1.743 Z-1.242
X32.795 Y-1.748 Z-1.188
X32.805 Z-1.144
X32.808 Z-1.1
G0 Z5
X30.123 Y5.359
Z-0.698
G1 Z-1.008 F1000
X30.129 Y5.354 Z-1.077
X30.147 Y5.341 Z-1.142
X30.177 Y5.319 Z-1.201
X30.217 Y5.29 Z-1.25
X30.264 Y5.255 Z-1.287
X30.317 Y5.217 Z-1.31
X30.373 Y5.176 Z-1.318
G3 X31.957 Y4.545 I2.024 J2.776
G1 X32.035 Y4.538
X32.128 Y4.523
X32.221 Y4.503
X32.314 Y4.476
X32.407 Y4.443
X32.5 Y4.402
X32.592 Y4.352
X32.685 Y4.3
X32.709 Y4.284
X32.778 Y4.234
X32.833 Y4.191
X32.871 Y4.157
X32.964 Y4.071
X33.011 Y4.037
X33.057 Y4.01
X33.067 Y4.006
X33.109 Y3.991
X33.15 Y3.983
X33.197 Y3.981
X33.243 Y3.986
X33.277 Y3.994
X33.31 Y4.006
X33.336 Y4.019
X33.429 Y4.079
G3 X33.245 Y4.641 I-0.181 J0.252
G1 X33.176 Y4.64 Z-1.31
X33.11 Y4.639 Z-1.287
X33.051 Y4.638 Z-1.25
X33.002 Z-1.201
X32.965 Y4.637 Z-1.142
X32.942 Z-1.077
X32.935 Z-1.008
G0 Z5
X36.059 Y-2.269
Z-0.698
G1 Z-1.008 F1000
X36.052 Y-2.264 Z-1.077
X36.033 Y-2.252 Z-1.142
X36.002 Y-2.232 Z-1.201
X35.961 Y-2.205 Z-1.25
X35.912 Y-2.172 Z-1.287
X35.857 Y-2.136 Z-1.31
X35.799 Y-2.099 Z-1.318
G3 X34.187 Y-1.546 I-1.885 J-2.872
G1 X34.173 Y-1.545
X34.08 Y-1.536
X33.987 Y-1.52
X33.894 Y-1.499
X33.794 Y-1.47
X33.708 Y-1.438
X33.615 Y-1.397
X33.579 Y-1.377
X33.429 Y-1.291
X33.418 Y-1.284
X33.336 Y-1.222
X33.243 Y-1.147
X33.192 Y-1.099
X33.15 Y-1.064
X33.104 Y-1.037
X33.057 Y-1.02
X33.011 Y-1.01
X32.964 Y-1.008
X32.918 Y-1.012
X32.871 Y-1.025
X32.825 Y-1.043
X32.778 Y-1.071
X32.739 Y-1.099
G3 X32.673 Y-1.524 I0.187 J-0.247
G1 X32.714 Y-1.558 Z-1.313
X32.753 Y-1.592 Z-1.299
X32.79 Y-1.624 Z-1.276
X32.836 Y-1.635 Z-1.241
X32.875 Y-1.644 Z-1.199
X32.906 Y-1.651 Z-1.15
X32.927 Y-1.656 Z-1.096
X32.936 Y-1.655 Z-1.052
X32.939 Z-1.008
G0 Z5
X29.951 Y5.316
Z-0.611
G1 Z-0.921 F1000
X29.957 Y5.311 Z-0.989
X29.976 Y5.298 Z-1.055
X30.006 Y5.277 Z-1.114
X30.046 Y5.249 Z-1.163
X30.095 Y5.216 Z-1.2
X30.149 Y5.178 Z-1.223
X30.205 Y5.139 Z-1.231
G3 X31.803 Y4.545 I1.959 J2.822
G1 X31.849 Y4.542
X31.942 Y4.529
X32.035 Y4.511
X32.128 Y4.486
X32.221 Y4.456
X32.314 Y4.418
X32.407 Y4.373
X32.5 Y4.322
X32.592 Y4.263
X32.68 Y4.191
X32.785 Y4.099
X32.876 Y4.006
X32.898 Y3.986
X32.92 Y3.97
X32.964 Y3.945
X33.011 Y3.928
X33.057 Y3.919
X33.104 Y3.917
X33.15 Y3.923
X33.197 Y3.935
X33.243 Y3.956
X33.319 Y4.006
G3 X33.135 Y4.568 I-0.181 J0.252
G1 X33.066 Y4.567 Z-1.223
X33 Y4.566 Z-1.2
X32.941 Y4.565 Z-1.163
X32.892 Y4.564 Z-1.114
X32.855 Z-1.055
X32.832 Z-0.989
X32.825 Y4.563 Z-0.921
G0 Z5
X36.194 Y-2.34
Z-0.611
G1 Z-0.921 F1000
X36.188 Y-2.335 Z-0.989
X36.169 Y-2.322 Z-1.055
X36.139 Y-2.3 Z-1.114
X36.099 Y-2.272 Z-1.163
X36.051 Y-2.238 Z-1.2
X35.998 Y-2.2 Z-1.223
X35.942 Y-2.16 Z-1.231
G3 X34.351 Y-1.546 I-1.993 J-2.799
G1 X34.266 Y-1.539
X34.173 Y-1.526
X34.08 Y-1.506
X33.987 Y-1.48
X33.894 Y-1.448
X33.801 Y-1.408
X33.708 Y-1.359
X33.615 Y-1.308
X33.579 Y-1.284
X33.522 Y-1.243
X33.455 Y-1.191
X33.336 Y-1.082
X33.295 Y-1.039
X33.254 Y-1.006
X33.243 Y-0.999
X33.197 Y-0.974
X33.15 Y-0.955
X33.104 Y-0.945
X33.057 Y-0.942
X33.011 Y-0.946
X32.964 Y-0.957
X32.918 Y-0.976
X32.871 Y-1.006
G3 X32.805 Y-1.431 I0.187 J-0.247
G1 X32.845 Y-1.466 Z-1.226
X32.885 Y-1.499 Z-1.211
X32.922 Y-1.531 Z-1.188
X32.968 Y-1.542 Z-1.154
X33.007 Y-1.551 Z-1.112
X33.037 Y-1.558 Z-1.062
X33.058 Y-1.563 Z-1.008
X33.068 Z-0.965
X33.071 Y-1.562 Z-0.921
G0 Z5
X29.834 Y5.373
Z-0.528
G1 Z-0.838 F1000
X29.84 Y5.368 Z-0.907
X29.859 Y5.354 Z-0.972
X29.889 Y5.332 Z-1.031
X29.928 Y5.303 Z-1.08
X29.975 Y5.268 Z-1.117
X30.028 Y5.229 Z-1.14
X30.083 Y5.188 Z-1.148
G3 X31.663 Y4.545 I2.044 J2.761
G1 X31.756 Y4.536
X31.849 Y4.521
X31.942 Y4.5
X32.035 Y4.473
X32.043 Y4.47
X32.128 Y4.438
X32.221 Y4.397
X32.262 Y4.377
X32.418 Y4.284
X32.5 Y4.223
X32.592 Y4.147
X32.646 Y4.099
X32.685 Y4.057
X32.733 Y4.006
X32.778 Y3.952
X32.802 Y3.931
X32.826 Y3.913
X32.871 Y3.887
X32.918 Y3.87
X32.964 Y3.861
X33.011 Y3.86
X33.057 Y3.865
X33.104 Y3.877
X33.15 Y3.896
X33.18 Y3.913
X33.243 Y3.955
G3 X33.059 Y4.517 I-0.181 J0.252
G1 X32.99 Y4.516 Z-1.14
X32.924 Y4.515 Z-1.117
X32.865 Z-1.08
X32.816 Y4.514 Z-1.031
X32.779 Y4.513 Z-0.972
X32.756 Z-0.907
X32.749 Z-0.838
G0 Z5
X36.364 Y-2.306
Z-0.528
G1 Z-0.838 F1000
X36.357 Y-2.302 Z-0.907
X36.338 Y-2.289 Z-0.972
X36.308 Y-2.268 Z-1.031
X36.267 Y-2.24 Z-1.08
X36.219 Y-2.207 Z-1.117
X36.165 Y-2.17 Z-1.14
X36.108 Y-2.131 Z-1.148
G3 X34.506 Y-1.546 I-1.943 J-2.834
G1 X34.452 Y-1.543
X34.359 Y-1.531
X34.266 Y-1.513
X34.173 Y-1.489
X34.08 Y-1.459
X33.987 Y-1.422
X33.893 Y-1.377
X33.801 Y-1.327
X33.708 Y-1.269
X33.615 Y-1.194
X33.507 Y-1.099
X33.429 Y-1.018
X33.419 Y-1.006
X33.377 Y-0.959
X33.336 Y-0.926
X33.316 Y-0.913
X33.28 Y-0.895
X33.243 Y-0.883
X33.197 Y-0.874
X33.15 Y-0.872
X33.104 Y-0.877
X33.057 Y-0.89
X33.032 Y-0.9
X33.007 Y-0.913
X32.964 Y-0.94
X32.913 Y-0.976
G3 X32.847 Y-1.401 I0.187 J-0.247
G1 X32.888 Y-1.436 Z-1.143
X32.927 Y-1.47 Z-1.129
X32.964 Y-1.501 Z-1.106
X33.01 Y-1.512 Z-1.072
X33.049 Y-1.521 Z-1.029
X33.08 Y-1.528 Z-0.98
X33.101 Y-1.533 Z-0.926
X33.11 Z-0.882
X33.113 Z-0.838
G0 Z5
X29.656 Y5.301
Z-0.447
G1 Z-0.757 F1000
X29.663 Y5.296 Z-0.826
X29.682 Y5.283 Z-0.891
X29.712 Y5.262 Z-0.95
X29.753 Y5.235 Z-0.999
X29.801 Y5.202 Z-1.036
X29.856 Y5.165 Z-1.059
X29.913 Y5.126 Z-1.067
G3 X31.515 Y4.545 I1.936 J2.838
G1 X31.57 Y4.542
X31.663 Y4.529
X31.756 Y4.511
X31.849 Y4.487
X31.904 Y4.47
X31.942 Y4.457
X32.035 Y4.42
X32.128 Y4.372
X32.221 Y4.323
X32.281 Y4.284
X32.314 Y4.262
X32.407 Y4.191
X32.507 Y4.099
X32.592 Y4.007
X32.668 Y3.913
X32.685 Y3.894
X32.709 Y3.873
X32.732 Y3.856
X32.778 Y3.83
X32.803 Y3.82
X32.837 Y3.81
X32.871 Y3.805
X32.918 Y3.802
X32.964 Y3.805
X32.994 Y3.811
X33.024 Y3.82
X33.057 Y3.834
X33.15 Y3.893
G3 X32.966 Y4.455 I-0.181 J0.252
G1 X32.897 Y4.454 Z-1.059
X32.831 Z-1.036
X32.772 Y4.453 Z-0.999
X32.723 Y4.452 Z-0.95
X32.686 Z-0.891
X32.663 Y4.451 Z-0.826
X32.656 Z-0.757
G0 Z5
X36.526 Y-2.263
Z-0.447
G1 Z-0.757 F1000
X36.519 Y-2.259 Z-0.826
X36.5 Y-2.246 Z-0.891
X36.469 Y-2.226 Z-0.95
X36.428 Y-2.199 Z-0.999
X36.379 Y-2.167 Z-1.036
X36.324 Y-2.131 Z-1.059
X36.266 Y-2.094 Z-1.067
G3 X34.652 Y-1.546 I-1.877 J-2.878
G1 X34.638 Y-1.545
X34.545 Y-1.536
X34.452 Y-1.521
X34.359 Y-1.5
X34.266 Y-1.473
X34.258 Y-1.47
X34.173 Y-1.438
X34.08 Y-1.397
X34.038 Y-1.377
X33.883 Y-1.284
X33.801 Y-1.223
X33.708 Y-1.147
X33.654 Y-1.099
X33.615 Y-1.057
X33.568 Y-1.006
X33.492 Y-0.913
X33.461 Y-0.881
X33.429 Y-0.857
X33.393 Y-0.835
X33.356 Y-0.82
X33.336 Y-0.814
X33.29 Y-0.805
X33.243 Y-0.804
X33.2 Y-0.809
X33.156 Y-0.82
X33.15 Y-0.822
X33.104 Y-0.843
X33.057 Y-0.874
X33.003 Y-0.913
G3 X32.936 Y-1.338 I0.187 J-0.247
G1 X32.977 Y-1.373 Z-1.062
X33.017 Y-1.407 Z-1.047
X33.054 Y-1.438 Z-1.024
X33.1 Y-1.449 Z-0.99
X33.138 Y-1.458 Z-0.948
X33.169 Y-1.465 Z-0.899
X33.19 Y-1.47 Z-0.844
X33.199 Z-0.801
X33.203 Z-0.757
G0 Z5
X36.391 Y5.295
Z-2.299
G1 Z-2.609 F1000
X36.397 Y5.291 Z-2.678
X36.416 Y5.278 Z-2.743
X36.447 Y5.257 Z-2.802
X36.487 Y5.229 Z-2.851
X36.536 Y5.196 Z-2.888
X36.59 Y5.16 Z-2.911
X36.647 Y5.121 Z-2.919
G3 X38.252 Y4.544 I1.928 J2.844
G1 X38.265
X38.358 Y4.535
X38.451 Y4.519
X38.544 Y4.5
X38.637 Y4.472
X38.73 Y4.441
X38.823 Y4.397
X38.916 Y4.351
X39.009 Y4.294
X39.025 Y4.284
X39.102 Y4.23
X39.146 Y4.191
X39.251 Y4.099
X39.288 Y4.062
X39.411 Y3.913
X39.48 Y3.82
X40.361 Y2.614
X40.497 Y2.426
X41.398 Y1.172
G3 X41.823 Y1.109 I0.245 J0.189
G1 X41.858 Y1.15 Z-2.914
X41.891 Y1.19 Z-2.9
X41.923 Y1.227 Z-2.877
X41.933 Y1.271 Z-2.844
X41.941 Y1.309 Z-2.804
X41.948 Y1.339 Z-2.757
X41.953 Y1.361 Z-2.705
Y1.372 Z-2.658
Y1.376 Z-2.609
G0 Z5
X32.342 Y5.365
Z-1.999
G1 Z-2.309 F1000
X32.348 Y5.36 Z-2.378
X32.366 Y5.347 Z-2.443
X32.396 Y5.325 Z-2.502
X32.436 Y5.296 Z-2.551
X32.483 Y5.261 Z-2.588
X32.536 Y5.222 Z-2.611
X32.592 Y5.182 Z-2.619
G3 X34.173 Y4.545 I2.033 J2.769
G1 X34.266 Y4.536
X34.313 Y4.531
X34.359
X34.411 Y4.536
X34.426 Y4.597 Z-2.615
X34.452 Y4.699 Z-2.607
X33.987 Y4.722 Z-2.53
X33.96 Y4.563 Z-2.519
X34.003 Y4.545
X34.08 Y4.538
X34.173 Y4.524
X34.22 Y4.517
X34.266
X34.318 Y4.524
G3 X34.392 Y5.111 I-0.055 J0.305
G1 X34.33 Y5.14 Z-2.511
X34.27 Y5.167 Z-2.488
X34.217 Y5.192 Z-2.451
X34.172 Y5.212 Z-2.402
X34.139 Y5.227 Z-2.343
X34.118 Y5.237 Z-2.278
X34.111 Y5.24 Z-2.209
G0 Z5
X33.867 Y-2.269
Z-1.899
G1 Z-2.209 F1000
X33.861 Y-2.265 Z-2.278
X33.842 Y-2.253 Z-2.343
X33.811 Y-2.232 Z-2.402
X33.77 Y-2.205 Z-2.451
X33.721 Y-2.173 Z-2.488
X33.666 Y-2.137 Z-2.511
X33.608 Y-2.099 Z-2.519
G3 X31.996 Y-1.546 I-1.886 J-2.871
G1 X31.942 Y-1.543
X31.849 Y-1.536
X31.797 Y-1.54
G3 X31.522 Y-1.87 I0.034 J-0.308
G1 X31.54 Y-1.921 Z-2.514
X31.556 Y-1.971 Z-2.5
X31.572 Y-2.017 Z-2.477
X31.61 Y-2.052 Z-2.438
X31.641 Y-2.081 Z-2.39
X31.664 Y-2.102 Z-2.334
X31.679 Y-2.116 Z-2.273
X31.684 Y-2.12 Z-2.209
G0 Z5
X31.988 Y5.342
Z-1.799
G1 Z-2.109 F1000
X31.994 Y5.337 Z-2.178
X32.013 Y5.324 Z-2.243
X32.043 Y5.302 Z-2.302
X32.083 Y5.274 Z-2.351
X32.13 Y5.239 Z-2.388
X32.184 Y5.201 Z-2.411
X32.24 Y5.161 Z-2.419
G3 X33.83 Y4.545 I1.998 J2.795
G1 X33.894 Y4.539
X33.987 Y4.526
X34.08 Y4.507
X34.127 Y4.499
X34.173 Y4.497
X34.22 Y4.502
X34.266 Y4.512
G3 X34.305 Y5.102 I-0.073 J0.301
G1 X34.24 Y5.127 Z-2.411
X34.179 Y5.151 Z-2.388
X34.124 Y5.172 Z-2.351
X34.079 Y5.19 Z-2.302
X34.044 Y5.203 Z-2.243
X34.023 Y5.211 Z-2.178
X34.016 Y5.214 Z-2.109
G0 Z5
X34.036 Y-2.282
Z-1.799
G1 Z-2.109 F1000
X34.03 Y-2.278 Z-2.178
X34.011 Y-2.265 Z-2.243
X33.98 Y-2.244 Z-2.302
X33.939 Y-2.217 Z-2.351
X33.89 Y-2.185 Z-2.388
X33.836 Y-2.148 Z-2.411
X33.778 Y-2.11 Z-2.419
G3 X32.169 Y-1.546 I-1.906 J-2.859
G1 X32.128 Y-1.544
X32.035 Y-1.533
X31.942 Y-1.521
X31.849 Y-1.531
G3 X31.588 Y-1.874 I0.048 J-0.306
G1 X31.608 Y-1.924 Z-2.414
X31.626 Y-1.972 Z-2.4
X31.644 Y-2.018 Z-2.377
X31.683 Y-2.051 Z-2.338
X31.716 Y-2.078 Z-2.29
X31.74 Y-2.099 Z-2.234
X31.755 Y-2.112 Z-2.173
X31.76 Y-2.116 Z-2.109
G0 Z5
X31.782 Y5.295
Z-1.699
G1 Z-2.009 F1000
X31.789 Y5.291 Z-2.078
X31.808 Y5.278 Z-2.143
X31.838 Y5.257 Z-2.202
X31.879 Y5.23 Z-2.251
X31.928 Y5.197 Z-2.288
X31.982 Y5.16 Z-2.311
X32.039 Y5.121 Z-2.319
G3 X33.644 Y4.545 I1.928 J2.844
G1 X33.708 Y4.541
X33.801 Y4.528
X33.894 Y4.51
X33.987 Y4.487
X34.034 Y4.477
X34.08 Y4.474
X34.127 Y4.478
X34.173 Y4.488
X34.225 Y4.5
G3 X34.254 Y5.091 I-0.078 J0.3
G1 X34.189 Y5.115 Z-2.311
X34.127 Y5.137 Z-2.288
X34.072 Y5.158 Z-2.251
X34.026 Y5.174 Z-2.202
X33.991 Y5.187 Z-2.143
X33.97 Y5.195 Z-2.078
X33.963 Y5.198 Z-2.009
G0 Z5
X34.208 Y-2.286
Z-1.699
G1 Z-2.009 F1000
X34.202 Y-2.281 Z-2.078
X34.183 Y-2.269 Z-2.143
X34.152 Y-2.248 Z-2.202
X34.111 Y-2.221 Z-2.251
X34.062 Y-2.188 Z-2.288
X34.008 Y-2.152 Z-2.311
X33.951 Y-2.113 Z-2.319
G3 X32.343 Y-1.546 I-1.911 J-2.855
G1 X32.314 Y-1.544
X32.221 Y-1.534
X32.128 Y-1.518
X32.035 Y-1.503
X31.988 Y-1.506
X31.942 Y-1.513
X31.89 Y-1.522
G3 X31.644 Y-1.874 I0.06 J-0.304
G1 X31.665 Y-1.923 Z-2.314
X31.686 Y-1.971 Z-2.3
X31.705 Y-2.016 Z-2.277
X31.746 Y-2.048 Z-2.238
X31.779 Y-2.074 Z-2.19
X31.805 Y-2.093 Z-2.134
X31.82 Y-2.106 Z-2.073
X31.825 Y-2.11 Z-2.009
G0 Z5
X31.626 Y5.294
Z-1.599
G1 Z-1.909 F1000
X31.632 Y5.29 Z-1.978
X31.651 Y5.277 Z-2.043
X31.682 Y5.256 Z-2.102
X31.723 Y5.229 Z-2.151
X31.771 Y5.196 Z-2.188
X31.826 Y5.159 Z-2.211
X31.883 Y5.12 Z-2.219
G3 X33.488 Y4.545 I1.926 J2.845
G1 X33.522 Y4.543
X33.615 Y4.531
X33.708 Y4.514
X33.801 Y4.49
X33.87 Y4.47
X33.894 Y4.462
X33.941 Y4.451
X33.987 Y4.448
X34.034 Y4.45
X34.08 Y4.459
X34.099 Y4.465
G3 X34.078 Y5.056 I-0.103 J0.292
G1 X34.011 Y5.074 Z-2.211
X33.948 Y5.092 Z-2.188
X33.891 Y5.107 Z-2.151
X33.844 Y5.12 Z-2.102
X33.808 Y5.13 Z-2.043
X33.786 Y5.136 Z-1.978
X33.779 Y5.138 Z-1.909
G0 Z5
X34.4 Y-2.285
Z-1.599
G1 Z-1.909 F1000
X34.394 Y-2.28 Z-1.978
X34.375 Y-2.268 Z-2.043
X34.344 Y-2.247 Z-2.102
X34.303 Y-2.22 Z-2.151
X34.254 Y-2.187 Z-2.188
X34.2 Y-2.151 Z-2.211
X34.143 Y-2.112 Z-2.219
G3 X32.534 Y-1.546 I-1.909 J-2.856
G1 X32.5 Y-1.544
X32.407 Y-1.534
X32.314 Y-1.517
X32.221 Y-1.496
X32.174 Y-1.485
X32.128 Y-1.48
X32.081 Y-1.482
X32.035 Y-1.49
X32.006 Y-1.497
G3 X31.788 Y-1.868 I0.083 J-0.299
G1 X31.814 Y-1.915 Z-2.214
X31.838 Y-1.961 Z-2.2
X31.861 Y-2.004 Z-2.177
X31.904 Y-2.033 Z-2.138
X31.939 Y-2.056 Z-2.09
X31.966 Y-2.074 Z-2.034
X31.982 Y-2.085 Z-1.973
X31.988 Y-2.088 Z-1.909
G0 Z5
X31.462 Y5.284
Z-1.499
G1 Z-1.809 F1000
X31.469 Y5.28 Z-1.878
X31.488 Y5.267 Z-1.943
X31.518 Y5.246 Z-2.002
X31.559 Y5.219 Z-2.051
X31.608 Y5.186 Z-2.088
X31.663 Y5.15 Z-2.111
X31.72 Y5.112 Z-2.119
G3 X33.328 Y4.545 I1.91 J2.856
G1 X33.336 Y4.544
X33.429 Y4.534
X33.522 Y4.517
X33.615 Y4.494
X33.708 Y4.464
X33.801 Y4.432
X33.848 Y4.42
X33.894 Y4.415
X33.941 Y4.417
X33.987 Y4.426
X34.08 Y4.456
G3 X34.053 Y5.047 I-0.107 J0.291
G1 X33.986 Y5.065 Z-2.111
X33.923 Y5.081 Z-2.088
X33.866 Y5.096 Z-2.051
X33.818 Y5.109 Z-2.002
X33.782 Y5.118 Z-1.943
X33.76 Y5.124 Z-1.878
X33.753 Y5.126 Z-1.809
G0 Z5
X34.587 Y-2.282
Z-1.499
G1 Z-1.809 F1000
X34.581 Y-2.277 Z-1.878
X34.562 Y-2.265 Z-1.943
X34.531 Y-2.244 Z-2.002
X34.49 Y-2.217 Z-2.051
X34.441 Y-2.184 Z-2.088
X34.387 Y-2.148 Z-2.111
X34.329 Y-2.11 Z-2.119
G3 X32.72 Y-1.546 I-1.905 J-2.859
G1 X32.685 Y-1.544
X32.592 Y-1.534
X32.5 Y-1.518
X32.407 Y-1.495
X32.319 Y-1.47
X32.314 Y-1.468
X32.267 Y-1.457
X32.221 Y-1.452
X32.174 Y-1.453
X32.128 Y-1.461
X32.1 Y-1.47
G3 X31.902 Y-1.852 I0.099 J-0.294
G1 X31.929 Y-1.898 Z-2.114
X31.956 Y-1.942 Z-2.1
X31.981 Y-1.984 Z-2.077
X32.026 Y-2.01 Z-2.038
X32.063 Y-2.032 Z-1.99
X32.09 Y-2.048 Z-1.934
X32.107 Y-2.058 Z-1.873
X32.113 Y-2.061 Z-1.809
G0 Z5
X31.325 Y5.378
Z-1.399
G1 Z-1.709 F1000
X31.331 Y5.373 Z-1.778
X31.349 Y5.36 Z-1.843
X31.379 Y5.338 Z-1.902
X31.418 Y5.308 Z-1.951
X31.465 Y5.273 Z-1.988
X31.518 Y5.234 Z-2.011
X31.573 Y5.193 Z-2.019
G3 X33.15 Y4.545 I2.053 J2.755
G1 X33.243 Y4.536
X33.336 Y4.52
X33.429 Y4.499
X33.522 Y4.471
X33.615 Y4.437
X33.708 Y4.398
X33.755 Y4.385
X33.801 Y4.379
X33.848 Y4.38
X33.894 Y4.387
X33.941 Y4.401
X33.966 Y4.412
G3 X33.884 Y4.998 I-0.133 J0.28
G1 X33.815 Y5.009 Z-2.011
X33.751 Y5.02 Z-1.988
X33.693 Y5.029 Z-1.951
X33.644 Y5.037 Z-1.902
X33.608 Y5.043 Z-1.843
X33.585 Y5.047 Z-1.778
X33.578 Y5.048 Z-1.709
G0 Z5
X34.768 Y-2.281
Z-1.399
G1 Z-1.709 F1000
X34.762 Y-2.277 Z-1.778
X34.742 Y-2.264 Z-1.843
X34.712 Y-2.243 Z-1.902
X34.671 Y-2.216 Z-1.951
X34.622 Y-2.184 Z-1.988
X34.567 Y-2.147 Z-2.011
X34.51 Y-2.109 Z-2.019
G3 X32.901 Y-1.546 I-1.904 J-2.86
G1 X32.871 Y-1.544
X32.778 Y-1.534
X32.685 Y-1.518
X32.592 Y-1.496
X32.5 Y-1.468
X32.407 Y-1.434
X32.36 Y-1.421
X32.314 Y-1.416
X32.267 Y-1.418
X32.221 Y-1.426
X32.169 Y-1.445
G3 X31.973 Y-1.732 I0.114 J-0.288
G1 Y-1.733
X31.977 Y-1.785
X31.99 Y-1.836
X32.02 Y-1.88 Z-2.014
X32.049 Y-1.924 Z-2
X32.076 Y-1.964 Z-1.977
X32.122 Y-1.988 Z-1.938
X32.16 Y-2.008 Z-1.89
X32.188 Y-2.023 Z-1.834
X32.205 Y-2.032 Z-1.773
X32.211 Y-2.035 Z-1.709
G0 Z5
X36.391 Y5.295
Z-2.38
G1 Z-2.69 F1000
X36.397 Y5.291 Z-2.759
X36.416 Y5.278 Z-2.824
X36.447 Y5.257 Z-2.883
X36.487 Y5.229 Z-2.932
X36.536 Y5.196 Z-2.969
X36.59 Y5.16 Z-2.992
X36.647 Y5.121 Z-3
G3 X38.252 Y4.544 I1.928 J2.844
G1 X38.265
X38.358 Y4.535
X38.451 Y4.519
X38.544 Y4.5
X38.637 Y4.472
X38.73 Y4.441
X38.823 Y4.397
X38.916 Y4.351
X39.009 Y4.294
X39.025 Y4.284
X39.102 Y4.23
X39.146 Y4.191
X39.251 Y4.099
X39.288 Y4.062
X39.411 Y3.913
X39.48 Y3.82
X40.361 Y2.614
X40.497 Y2.426
X41.398 Y1.172
G3 X41.953 Y1.361 I0.245 J0.189
G1 Y1.376
X41.949 Y1.445 Z-2.992
X41.946 Y1.511 Z-2.969
X41.943 Y1.569 Z-2.932
X41.941 Y1.618 Z-2.883
X41.939 Y1.655 Z-2.824
X41.938 Y1.678 Z-2.759
X41.937 Y1.686 Z-2.69
G0 Z10
M5
M30
