(1001)
(Poot4)
(T1  D=3.1 CR=0 - ZMIN=-3 - flat end mill)
G90 G94
G17
G21

(Adaptive4 2)
S10000 M3
G54
G0 Z10
G0 X29.465 Y5.28
G1 Z-0.647 F1000
X29.471 Y5.276 Z-0.716
X29.49 Y5.263 Z-0.781
X29.521 Y5.243 Z-0.84
X29.562 Y5.216 Z-0.889
X29.611 Y5.183 Z-0.926
X29.665 Y5.147 Z-0.949
X29.723 Y5.108 Z-0.957
G3 X31.332 Y4.545 I1.905 J2.859
G1 X31.367 Y4.543
X31.46 Y4.532
X31.553 Y4.515
X31.646 Y4.492
X31.716 Y4.47
X31.738 Y4.462
X31.831 Y4.427
X31.924 Y4.38
X32.017 Y4.331
X32.094 Y4.284
X32.11 Y4.273
X32.203 Y4.203
X32.218 Y4.191
X32.231 Y4.179
X32.3 Y4.122
X32.427 Y4.033
X32.531 Y3.971
X32.718 Y3.894
X32.918 Y3.872
X33.117 Y3.905
X33.299 Y3.992
G3 X33.189 Y4.546 I-0.181 J0.252
G1 X33.116 Y4.563
X32.519 Y4.702
G3 X32.231 Y4.179 I-0.07 J-0.302
G1 X32.319 Y4.099
X32.389 Y4.025
X32.406 Y4.006
X32.482 Y3.909
X32.549 Y3.82
X32.575 Y3.795
X32.598 Y3.777
X32.622 Y3.763
X32.668 Y3.741
X32.713 Y3.727
X32.761 Y3.719
X32.808 Y3.718
X32.854 Y3.723
X32.871 Y3.727
X32.909 Y3.74
X32.947 Y3.759
X33.04 Y3.82
X33.691 Y4.253
X33.741 Y4.284
G3 X33.882 Y4.496 I-0.165 J0.262
G2 X34.122 Y4.748 I0.306 J-0.051
G1 X34.272 Y4.78
X36.246 Y5.205
X36.31 Y5.212
X36.373 Y5.206
X36.435 Y5.187
X36.49 Y5.155
G3 X38.082 Y4.545 I1.988 J2.802
G1 X38.153 Y4.539
X38.246 Y4.526
X38.339 Y4.508
X38.432 Y4.484
X38.525 Y4.454
X38.618 Y4.414
X38.71 Y4.37
X38.803 Y4.317
X38.856 Y4.284
X38.896 Y4.258
X38.976 Y4.191
X39.082 Y4.098
X39.164 Y4.006
X39.242 Y3.913
X39.268 Y3.877
X39.305 Y3.82
X39.362 Y3.727
X39.474 Y3.542
X40.144 Y2.428
X40.255 Y2.242
X40.291 Y2.181
X41.034 Y0.912
X41.099 Y0.799
G3 X41.515 Y0.693 I0.264 J0.163
G1 X41.554 Y0.73 Z-0.952
X41.591 Y0.766 Z-0.937
X41.627 Y0.8 Z-0.914
X41.642 Y0.85 Z-0.876
X41.655 Y0.89 Z-0.828
X41.664 Y0.921 Z-0.772
X41.67 Y0.939 Z-0.711
X41.672 Y0.946 Z-0.647
G0 Z5
X29.364 Y5.347
Z-0.257
G1 Z-0.567 F1000
X29.37 Y5.342 Z-0.636
X29.388 Y5.329 Z-0.702
X29.418 Y5.307 Z-0.76
X29.458 Y5.278 Z-0.81
X29.506 Y5.244 Z-0.846
X29.559 Y5.206 Z-0.869
X29.615 Y5.166 Z-0.877
G3 X31.203 Y4.545 I2.006 J2.789
G1 X31.274 Y4.539
X31.367 Y4.525
X31.46 Y4.505
X31.553 Y4.48
X31.582 Y4.47
X31.646 Y4.448
X31.738 Y4.405
X31.831 Y4.361
X31.924 Y4.304
X31.956 Y4.284
X32.017 Y4.243
X32.082 Y4.191
X32.11 Y4.168
X32.184 Y4.099
X32.203 Y4.08
X32.271 Y4.006
X32.296 Y3.974
X32.344 Y3.913
X32.389 Y3.849
X32.408 Y3.82
X32.439 Y3.774
X32.459 Y3.752
X32.482 Y3.729
X32.507 Y3.71
X32.529 Y3.695
X32.575 Y3.673
X32.622 Y3.659
X32.668 Y3.653
X32.715 Y3.654
X32.761 Y3.662
X32.808 Y3.675
X32.854 Y3.697
X32.901 Y3.727
G3 X32.979 Y4.15 I-0.181 J0.252
G1 X32.939 Y4.186 Z-0.872
X32.9 Y4.221 Z-0.858
X32.864 Y4.254 Z-0.835
X32.811 Y4.267 Z-0.794
X32.769 Y4.277 Z-0.743
X32.738 Y4.285 Z-0.683
X32.72 Y4.289 Z-0.618
X32.716 Z-0.567
G0 Z5
X29.267 Y5.388
Z-0.177
G1 Z-0.487 F1000
X29.273 Y5.383 Z-0.556
X29.292 Y5.369 Z-0.621
X29.321 Y5.347 Z-0.68
X29.36 Y5.317 Z-0.729
X29.407 Y5.282 Z-0.766
X29.459 Y5.242 Z-0.789
X29.515 Y5.201 Z-0.797
G3 X31.088 Y4.544 I2.069 J2.742
G1 X31.181 Y4.533
X31.274 Y4.517
X31.367 Y4.494
X31.447 Y4.47
X31.46 Y4.466
X31.553 Y4.429
X31.646 Y4.386
X31.738 Y4.333
X31.823 Y4.284
X31.831 Y4.279
X31.924 Y4.206
X31.942 Y4.191
X32.017 Y4.128
X32.048 Y4.099
X32.11 Y4.03
X32.131 Y4.006
X32.203 Y3.919
X32.208 Y3.913
X32.271 Y3.82
X32.296 Y3.783
X32.333 Y3.727
X32.357 Y3.696
X32.389 Y3.665
X32.432 Y3.635
X32.457 Y3.621
X32.482 Y3.611
X32.529 Y3.598
X32.575 Y3.591
X32.622
X32.668 Y3.597
X32.714 Y3.612
X32.761 Y3.635
X32.854 Y3.696
X32.978 Y4.006 Z-0.795
X32.663 Y4.33 Z-0.789
X32.617 Y4.377 Z-0.788
X31.088 Y5.465 Z-0.738
X30.716 Y5.39 Z-0.729
X30.569 Y5.119 Z-0.723
X30.519 Y5.027 Z-0.721
X30.68 Y4.655 Z-0.717
X30.847 Y4.563 Z-0.716
X30.93 Y4.545
X30.995 Y4.539
X31.088 Y4.526
X31.181 Y4.506
X31.274 Y4.48
X31.367 Y4.449
X31.46 Y4.408
X31.553 Y4.361
X31.646 Y4.309
X31.684 Y4.284
X31.738 Y4.246
X31.807 Y4.191
X31.924 Y4.085
X31.995 Y4.006
X32.07 Y3.913
X32.11 Y3.855
X32.134 Y3.82
X32.203 Y3.716
X32.261 Y3.635
X32.296 Y3.601
X32.319 Y3.583
X32.343 Y3.569
X32.389 Y3.548
X32.408 Y3.542
X32.445 Y3.532
X32.482 Y3.527
X32.529
X32.575 Y3.534
X32.602 Y3.542
X32.635 Y3.555
X32.668 Y3.573
X32.761 Y3.634
G3 X32.839 Y4.057 I-0.181 J0.252
G1 X32.799 Y4.093 Z-0.711
X32.76 Y4.128 Z-0.697
X32.724 Y4.161 Z-0.674
X32.672 Y4.174 Z-0.634
X32.629 Y4.184 Z-0.582
X32.598 Y4.192 Z-0.523
X32.58 Y4.196 Z-0.458
X32.576 Z-0.406
G0 Z5
X28.929 Y5.28
Z-0.017
G1 Z-0.327 F1000
X28.935 Y5.276 Z-0.396
X28.954 Y5.263 Z-0.462
X28.985 Y5.243 Z-0.521
X29.026 Y5.216 Z-0.57
X29.075 Y5.183 Z-0.607
X29.129 Y5.147 Z-0.63
X29.187 Y5.109 Z-0.637
G3 X30.796 Y4.545 I1.905 J2.859
G1 X30.809 Y4.544
X30.902 Y4.534
X30.995 Y4.518
X31.088 Y4.496
X31.173 Y4.47
X31.181 Y4.467
X31.274 Y4.431
X31.392 Y4.377
X31.46 Y4.338
X31.553 Y4.281
X31.646 Y4.214
X31.675 Y4.191
X31.738 Y4.134
X31.777 Y4.099
X31.831 Y4.039
X31.862 Y4.006
X31.924 Y3.927
X31.936 Y3.913
X31.999 Y3.82
X32.061 Y3.727
X32.123 Y3.635
X32.155 Y3.588
X32.175 Y3.565
X32.199 Y3.542
X32.203 Y3.538
X32.227 Y3.521
X32.25 Y3.507
X32.296 Y3.486
X32.343 Y3.473
X32.389 Y3.468
X32.436
X32.482 Y3.474
X32.529 Y3.488
X32.575 Y3.511
X32.622 Y3.542
G3 X32.7 Y3.965 I-0.181 J0.252
G1 X32.66 Y4.001 Z-0.632
X32.621 Y4.036 Z-0.618
X32.585 Y4.068 Z-0.595
X32.532 Y4.081 Z-0.555
X32.49 Y4.092 Z-0.503
X32.459 Y4.099 Z-0.444
X32.441 Y4.104 Z-0.379
X32.437 Z-0.327
G0 Z5
X28.79 Y5.308
Z0.062
G1 Z-0.248 F1000
X28.796 Y5.304 Z-0.316
X28.815 Y5.291 Z-0.382
X28.845 Y5.27 Z-0.441
X28.886 Y5.242 Z-0.49
X28.934 Y5.209 Z-0.527
X28.988 Y5.171 Z-0.55
X29.045 Y5.132 Z-0.558
G3 X30.646 Y4.545 I1.947 J2.83
G1 X30.716 Y4.54
X30.809 Y4.527
X30.902 Y4.508
X30.995 Y4.483
X31.038 Y4.47
X31.088 Y4.452
X31.181 Y4.414
X31.252 Y4.377
X31.367 Y4.314
X31.415 Y4.284
X31.46 Y4.252
X31.553 Y4.179
X31.646 Y4.093
X31.725 Y4.006
X31.738 Y3.991
X31.8 Y3.913
X31.831 Y3.867
X31.925 Y3.727
X32.049 Y3.542
X32.075 Y3.507
X32.11 Y3.473
X32.143 Y3.449
X32.173 Y3.432
X32.203 Y3.42
X32.25 Y3.407
X32.296 Y3.402
X32.343 Y3.403
X32.389 Y3.412
X32.435 Y3.426
X32.482 Y3.449
X32.575 Y3.511
G3 X32.653 Y3.934 I-0.181 J0.252
G1 X32.613 Y3.97 Z-0.553
X32.575 Y4.005 Z-0.538
X32.538 Y4.037 Z-0.515
X32.486 Y4.05 Z-0.475
X32.443 Y4.061 Z-0.423
X32.412 Y4.068 Z-0.364
X32.395 Y4.073 Z-0.299
X32.39 Z-0.248
G0 Z5
X28.706 Y5.382
Z0.142
G1 Z-0.168 F1000
X28.712 Y5.377 Z-0.237
X28.731 Y5.363 Z-0.302
X28.76 Y5.341 Z-0.361
X28.8 Y5.312 Z-0.41
X28.847 Y5.277 Z-0.447
X28.899 Y5.237 Z-0.47
X28.954 Y5.196 Z-0.478
G3 X30.53 Y4.545 I2.059 J2.75
G1 X30.623 Y4.535
X30.716 Y4.519
X30.809 Y4.498
X30.902 Y4.468
X30.995 Y4.436
X31.181 Y4.345
X31.277 Y4.284
X31.367 Y4.219
X31.502 Y4.099
X31.553 Y4.047
X31.663 Y3.913
X31.728 Y3.82
X31.924 Y3.525
X31.979 Y3.449
X32.017 Y3.413
X32.064 Y3.382
X32.11 Y3.359
X32.118 Y3.356
X32.161 Y3.344
X32.203 Y3.339
X32.25
X32.296 Y3.347
X32.326 Y3.356
X32.357 Y3.369
X32.389 Y3.387
X32.482 Y3.449
G3 X32.56 Y3.872 I-0.181 J0.252
G1 X32.52 Y3.908 Z-0.473
X32.482 Y3.943 Z-0.459
X32.445 Y3.976 Z-0.435
X32.393 Y3.988 Z-0.395
X32.35 Y3.999 Z-0.344
X32.319 Y4.007 Z-0.284
X32.302 Y4.011 Z-0.219
X32.297 Z-0.168
G0 Z5
X28.541 Y5.32
Z0.221
G1 Z-0.089 F1000
X28.547 Y5.316 Z-0.158
X28.566 Y5.303 Z-0.223
X28.596 Y5.282 Z-0.282
X28.637 Y5.253 Z-0.331
X28.685 Y5.22 Z-0.368
X28.739 Y5.182 Z-0.391
X28.795 Y5.143 Z-0.399
G3 X30.392 Y4.545 I1.966 J2.818
G1 X30.437 Y4.542
X30.53 Y4.529
X30.623 Y4.511
X30.716 Y4.486
X30.767 Y4.47
X30.809 Y4.456
X30.902 Y4.416
X30.986 Y4.377
X31.141 Y4.284
X31.181 Y4.257
X31.274 Y4.181
X31.367 Y4.102
X31.37 Y4.099
X31.46 Y3.995
X31.53 Y3.913
X31.592 Y3.82
X31.655 Y3.727
X31.778 Y3.542
X31.84 Y3.449
X31.872 Y3.403
X31.892 Y3.379
X31.917 Y3.356
X31.924 Y3.35
X31.948 Y3.332
X31.971 Y3.317
X32.017 Y3.295
X32.064 Y3.281
X32.11 Y3.275
X32.157 Y3.276
X32.203 Y3.284
X32.25 Y3.3
X32.296 Y3.325
X32.343 Y3.356
G3 X32.42 Y3.779 I-0.181 J0.252
G1 X32.381 Y3.815 Z-0.394
X32.342 Y3.85 Z-0.379
X32.306 Y3.883 Z-0.356
X32.253 Y3.896 Z-0.316
X32.211 Y3.906 Z-0.265
X32.18 Y3.914 Z-0.205
X32.162 Y3.918 Z-0.14
X32.158 Z-0.089
G0 Z5
X28.424 Y5.375
Z0.301
G1 Z-0.009 F1000
X28.43 Y5.37 Z-0.078
X28.448 Y5.356 Z-0.143
X28.478 Y5.334 Z-0.202
X28.517 Y5.305 Z-0.251
X28.565 Y5.27 Z-0.288
X28.617 Y5.231 Z-0.311
X28.673 Y5.19 Z-0.319
G3 X30.251 Y4.546 I2.047 J2.759
G1 X30.344 Y4.536
X30.437 Y4.521
X30.53 Y4.5
X30.623 Y4.472
X30.716 Y4.439
X30.809 Y4.396
X30.902 Y4.346
X30.995 Y4.293
X31.008 Y4.284
X31.088 Y4.225
X31.132 Y4.191
X31.181 Y4.147
X31.233 Y4.099
X31.274 Y4.057
X31.32 Y4.006
X31.393 Y3.913
X31.46 Y3.815
X31.519 Y3.727
X31.766 Y3.356
X31.794 Y3.322
X31.831 Y3.287
X31.867 Y3.263
X31.924 Y3.237
X31.971 Y3.223
X32.017 Y3.216
X32.064 Y3.217
X32.11 Y3.224
X32.157 Y3.239
X32.203 Y3.264
X32.296 Y3.325
G3 X32.374 Y3.748 I-0.181 J0.252
G1 X32.334 Y3.784 Z-0.314
X32.296 Y3.819 Z-0.3
X32.259 Y3.852 Z-0.277
X32.207 Y3.865 Z-0.236
X32.164 Y3.875 Z-0.185
X32.133 Y3.883 Z-0.125
X32.116 Y3.887 Z-0.06
X32.111 Z-0.009
G0 Z5
X28.259 Y5.314
Z0.381
G1 Z0.071 F1000
X28.266 Y5.309 Z0.002
X28.285 Y5.296 Z-0.064
X28.315 Y5.275 Z-0.122
X28.355 Y5.247 Z-0.171
X28.404 Y5.214 Z-0.208
X28.457 Y5.177 Z-0.231
X28.514 Y5.137 Z-0.239
G3 X30.113 Y4.545 I1.956 J2.825
G1 X30.158 Y4.542
X30.251 Y4.53
X30.344 Y4.512
X30.437 Y4.488
X30.495 Y4.47
X30.53 Y4.458
X30.623 Y4.418
X30.716 Y4.374
X30.809 Y4.322
X30.902 Y4.264
X30.989 Y4.191
X31.095 Y4.099
X31.178 Y4.006
X31.256 Y3.913
X31.274 Y3.89
X31.321 Y3.82
X31.646 Y3.333
X31.697 Y3.263
X31.738 Y3.223
X31.782 Y3.192
X31.826 Y3.171
X31.831 Y3.169
X31.878 Y3.156
X31.924 Y3.15
X31.971 Y3.151
X32.017 Y3.16
X32.05 Y3.171
X32.08 Y3.184
X32.11 Y3.202
X32.203 Y3.263
G3 X32.281 Y3.686 I-0.181 J0.252
G1 X32.241 Y3.722 Z-0.234
X32.202 Y3.757 Z-0.22
X32.166 Y3.79 Z-0.197
X32.114 Y3.803 Z-0.156
X32.071 Y3.813 Z-0.105
X32.04 Y3.821 Z-0.045
X32.022 Y3.825 Z0.02
X32.018 Z0.071
G0 Z5
X28.149 Y5.364
Z0.46
G1 Z0.15 F1000
X28.155 Y5.359 Z0.081
X28.173 Y5.346 Z0.016
X28.203 Y5.324 Z-0.043
X28.243 Y5.295 Z-0.092
X28.29 Y5.26 Z-0.129
X28.343 Y5.221 Z-0.152
X28.399 Y5.18 Z-0.16
G3 X29.981 Y4.545 I2.032 J2.771
G1 X30.065 Y4.537
X30.158 Y4.522
X30.251 Y4.502
X30.344 Y4.475
X30.36 Y4.47
X30.437 Y4.442
X30.53 Y4.401
X30.576 Y4.377
X30.737 Y4.284
X30.809 Y4.229
X30.902 Y4.155
X30.962 Y4.099
X30.995 Y4.063
X31.088 Y3.957
X31.122 Y3.913
X31.185 Y3.82
X31.274 Y3.688
X31.556 Y3.263
X31.588 Y3.217
X31.607 Y3.194
X31.631 Y3.171
X31.646 Y3.159
X31.669 Y3.142
X31.692 Y3.129
X31.738 Y3.109
X31.785 Y3.096
X31.831 Y3.09
X31.878 Y3.091
X31.924 Y3.099
X31.971 Y3.115
X32.017 Y3.14
X32.063 Y3.171
G3 X32.141 Y3.594 I-0.181 J0.252
G1 X32.102 Y3.63 Z-0.155
X32.063 Y3.664 Z-0.14
X32.027 Y3.697 Z-0.117
X31.974 Y3.71 Z-0.077
X31.931 Y3.721 Z-0.026
X31.901 Y3.728 Z0.034
X31.883 Y3.732 Z0.099
X31.879 Z0.15
G0 Z5
X27.977 Y5.297
Z0.54
G1 Z0.23 F1000
X27.983 Y5.293 Z0.161
X28.002 Y5.28 Z0.096
X28.033 Y5.259 Z0.037
X28.074 Y5.232 Z-0.012
X28.122 Y5.199 Z-0.049
X28.176 Y5.162 Z-0.072
X28.233 Y5.123 Z-0.08
G3 X29.837 Y4.545 I1.931 J2.842
G1 X29.879 Y4.543
X29.972 Y4.531
X30.065 Y4.514
X30.158 Y4.49
X30.221 Y4.47
X30.251 Y4.46
X30.344 Y4.424
X30.53 Y4.329
X30.623 Y4.269
X30.716 Y4.198
X30.825 Y4.099
X30.902 Y4.017
X30.985 Y3.913
X30.995 Y3.901
X31.088 Y3.763
X31.482 Y3.171
X31.512 Y3.134
X31.553 Y3.098
X31.581 Y3.078
X31.613 Y3.059
X31.646 Y3.045
X31.692 Y3.032
X31.738 Y3.026
X31.785 Y3.028
X31.831 Y3.036
X31.878 Y3.052
X31.924 Y3.078
X32.313 Y3.761
X32.716 Y4.47
X32.97 Y4.545
Z-1.126
Z-1.912
X33.04 Y4.538
X33.133 Y4.524
X33.226 Y4.504
X33.319 Y4.478
X33.344 Y4.47
X33.412 Y4.446
X33.565 Y4.377
X33.598 Y4.361
X33.644 Y4.344
X33.691 Y4.335
X33.737 Y4.334
X33.784 Y4.339
X33.83 Y4.349
X33.877 Y4.368
X33.886 Y4.373
G3 X34.045 Y4.571 I-0.142 J0.276
G2 X34.282 Y4.798 I0.3 J-0.077
G1 X34.457 Y4.834
X36.248 Y5.206
X36.311 Y5.212
X36.375 Y5.206
X36.435 Y5.186
X36.49 Y5.155
G3 X38.082 Y4.545 I1.988 J2.802
G1 X38.153 Y4.539
X38.246 Y4.526
X38.339 Y4.508
X38.432 Y4.484
X38.525 Y4.454
X38.618 Y4.414
X38.71 Y4.37
X38.803 Y4.317
X38.856 Y4.284
X38.896 Y4.258
X38.976 Y4.191
X39.082 Y4.098
X39.164 Y4.006
X39.242 Y3.913
X39.268 Y3.877
X39.305 Y3.82
X39.362 Y3.727
X39.474 Y3.542
X40.144 Y2.428
X40.255 Y2.242
X40.291 Y2.181
X41.034 Y0.912
X41.099 Y0.799
G3 X41.515 Y0.693 I0.264 J0.163
G1 X41.554 Y0.73 Z-1.907
X41.591 Y0.766 Z-1.893
X41.627 Y0.8 Z-1.87
X41.642 Y0.85 Z-1.831
X41.655 Y0.89 Z-1.783
X41.664 Y0.921 Z-1.727
X41.67 Y0.939 Z-1.666
X41.672 Y0.946 Z-1.602
G0 Z5
X30.909 Y5.297
Z-1.192
G1 Z-1.502 F1000
X30.915 Y5.293 Z-1.571
X30.934 Y5.28 Z-1.636
X30.965 Y5.259 Z-1.695
X31.006 Y5.231 Z-1.744
X31.054 Y5.198 Z-1.781
X31.108 Y5.162 Z-1.804
X31.165 Y5.123 Z-1.812
G3 X32.77 Y4.545 I1.93 J2.842
G1 X32.854 Y4.54
X32.947 Y4.527
X33.04 Y4.508
X33.133 Y4.483
X33.175 Y4.47
X33.226 Y4.452
X33.319 Y4.412
X33.394 Y4.377
X33.412 Y4.368
X33.505 Y4.316
X33.551 Y4.297
X33.598 Y4.287
X33.617 Y4.284
X33.644 Y4.283
X33.672 Y4.284
X33.691 Y4.286
X33.737 Y4.297
X33.784 Y4.316
X33.835 Y4.343
X33.97 Y4.613 Z-1.808
X33.784 Y4.842 Z-1.798
X33.599 Y4.879 Z-1.787
X32.623 Y5.076 Z-1.733
X32.575 Y5.086 Z-1.73
X32.366 Y4.841 Z-1.718
X32.482 Y4.594 Z-1.712
X32.575 Y4.551
X32.614 Y4.545
X32.668 Y4.542
X32.761 Y4.529
X32.854 Y4.511
X32.947 Y4.488
X33.003 Y4.47
X33.04 Y4.457
X33.133 Y4.42
X33.217 Y4.377
X33.319 Y4.323
X33.382 Y4.284
X33.412 Y4.267
X33.458 Y4.249
X33.505 Y4.236
X33.551 Y4.231
X33.598 Y4.232
X33.644 Y4.241
X33.691 Y4.258
X33.738 Y4.284
X33.763 Y4.3
X33.891 Y4.563 Z-1.708
X33.691 Y4.825 Z-1.698
X33.532 Y4.861 Z-1.69
X32.388 Y5.118 Z-1.63
X32.382 Y5.119 Z-1.629
X32.2 Y4.934 Z-1.619
X32.249 Y4.655 Z-1.613
X32.389 Y4.558 Z-1.612
X32.453 Y4.545
X32.482 Y4.543
X32.575 Y4.532
X32.668 Y4.515
X32.761 Y4.492
X32.854 Y4.462
X32.947 Y4.427
X33.047 Y4.377
X33.133 Y4.333
X33.226 Y4.273
X33.319 Y4.21
X33.361 Y4.191
X33.412 Y4.178
X33.458 Y4.173
X33.505
X33.544 Y4.18
X33.583 Y4.191
X33.598 Y4.197
X33.644 Y4.222
X33.691 Y4.253
G3 X33.769 Y4.676 I-0.18 J0.252
G1 X33.729 Y4.712 Z-1.607
X33.69 Y4.747 Z-1.593
X33.654 Y4.779 Z-1.57
X33.601 Y4.792 Z-1.529
X33.559 Y4.803 Z-1.477
X33.528 Y4.81 Z-1.417
X33.51 Y4.815 Z-1.352
X33.506 Z-1.302
G0 Z5
X30.42 Y5.29
Z-0.886
G1 Z-1.196 F1000
X30.426 Y5.285 Z-1.265
X30.445 Y5.273 Z-1.331
X30.476 Y5.252 Z-1.389
X30.517 Y5.224 Z-1.439
X30.565 Y5.192 Z-1.475
X30.62 Y5.155 Z-1.498
X30.677 Y5.116 Z-1.506
G3 X32.283 Y4.545 I1.919 J2.849
G1 X32.296 Y4.544
X32.389 Y4.533
X32.482 Y4.516
X32.575 Y4.494
X32.654 Y4.47
X32.668 Y4.465
X32.761 Y4.428
X32.869 Y4.377
X32.947 Y4.335
X33.04 Y4.277
X33.133 Y4.209
X33.155 Y4.191
X33.19 Y4.164
X33.226 Y4.143
X33.272 Y4.122
X33.319 Y4.11
X33.365 Y4.105
X33.412 Y4.107
X33.458 Y4.116
X33.505 Y4.133
X33.598 Y4.191
X33.691 Y4.253
X33.741 Y4.284
X33.876 Y4.563 Z-1.504
X33.691 Y4.825 Z-1.496
X33.543 Y4.87 Z-1.49
X32.203 Y5.274 Z-1.431
X32.157 Y5.28 Z-1.429
X32.11 Y5.281 Z-1.427
X32.063 Y5.275 Z-1.425
X32.017 Y5.263 Z-1.424
X31.969 Y5.243 Z-1.422
X31.924 Y5.217 Z-1.42
X31.918 Y5.212
X31.871 Y5.172 Z-1.418
X31.831 Y5.126 Z-1.416
X31.827 Y5.119 Z-1.415
X31.801 Y5.075 Z-1.414
X31.782 Y5.027 Z-1.412
X31.77 Y4.981 Z-1.411
X31.764 Y4.934 Z-1.41
X31.765 Y4.887 Z-1.409
X31.771 Y4.841 Z-1.408
X31.783 Y4.794 Z-1.407
X31.802 Y4.748 Z-1.406
X31.831 Y4.699
X31.868 Y4.655 Z-1.405
X31.924 Y4.608 Z-1.404
X31.969 Y4.582
X32.016 Y4.563
X32.017 Y4.562
X32.102 Y4.545
X32.11
X32.203 Y4.534
X32.296 Y4.519
X32.389 Y4.497
X32.482 Y4.469
X32.575 Y4.433
X32.7 Y4.377
X32.761 Y4.34
X32.854 Y4.284
X32.947 Y4.218
X32.981 Y4.191
X33.04 Y4.14
X33.089 Y4.099
X33.133 Y4.073
X33.179 Y4.055
X33.226 Y4.045
X33.272 Y4.042
X33.319 Y4.044
X33.365 Y4.054
X33.412 Y4.071
X33.459 Y4.099
X33.505 Y4.129
X33.634 Y4.381 Z-1.402
X33.468 Y4.655 Z-1.394
X33.302 Y4.727 Z-1.387
X32.11 Y5.239 Z-1.331
G3 X31.629 Y4.772 Z-1.31 I-0.144 J-0.333
X31.847 Y4.563 Z-1.308 I0.337 J0.134
G1 X31.924 Y4.545
X32.017 Y4.537
X32.11 Y4.523
X32.203 Y4.503
X32.296 Y4.476
X32.317 Y4.47
X32.389 Y4.443
X32.482 Y4.403
X32.531 Y4.377
X32.668 Y4.3
X32.693 Y4.284
X32.761 Y4.233
X32.854 Y4.159
X32.918 Y4.099
X32.947 Y4.07
X32.97 Y4.049
X32.993 Y4.032
X33.04 Y4.007
X33.042 Y4.006
X33.087 Y3.99
X33.133 Y3.979
X33.179 Y3.975
X33.226 Y3.979
X33.27 Y3.989
X33.314 Y4.006
X33.319 Y4.008
X33.412 Y4.067
X33.536 Y4.377 Z-1.305
X33.319 Y4.617 Z-1.298
X33.203 Y4.672 Z-1.292
X32.017 Y5.243 Z-1.24
G3 X31.45 Y4.834 Z-1.218 I-0.199 J-0.322
X31.738 Y4.551 Z-1.214 I0.368 J0.087
G1 X31.777 Y4.545
X31.831 Y4.541
X31.924 Y4.528
X32.017 Y4.509
X32.11 Y4.485
X32.203 Y4.453
X32.296 Y4.415
X32.389 Y4.366
X32.482 Y4.317
X32.532 Y4.284
X32.575 Y4.254
X32.656 Y4.191
X32.761 Y4.095
X32.847 Y4.006
X32.854 Y3.999
X32.877 Y3.979
X32.9 Y3.963
X32.947 Y3.94
X32.993 Y3.923
X33.04 Y3.913
X33.082 Y3.91
X33.124 Y3.913
X33.133 Y3.914
X33.179 Y3.926
X33.226 Y3.946
X33.319 Y4.006
X33.448 Y4.284 Z-1.212
X33.319 Y4.51 Z-1.207
X33.126 Y4.612 Z-1.199
X31.831 Y5.295 Z-1.147
G3 X31.299 Y4.799 Z-1.128 I-0.164 J-0.358
X31.553 Y4.56 Z-1.125 I0.369 J0.137
G1 X31.632 Y4.545
X31.646 Y4.544
X31.738 Y4.533
X31.831 Y4.517
X31.924 Y4.494
X32.005 Y4.47
X32.017 Y4.465
X32.11 Y4.429
X32.22 Y4.377
X32.296 Y4.336
X32.389 Y4.278
X32.482 Y4.206
X32.605 Y4.099
X32.668 Y4.033
X32.692 Y4.006
X32.761 Y3.929
X32.781 Y3.913
X32.817 Y3.889
X32.854 Y3.871
X32.9 Y3.855
X32.947 Y3.846
X32.993 Y3.844
X33.04 Y3.85
X33.086 Y3.862
X33.133 Y3.883
X33.18 Y3.913
X33.226 Y3.944
X33.355 Y4.196 Z-1.124
X33.19 Y4.47 Z-1.118
X33.032 Y4.56 Z-1.112
X31.738 Y5.306 Z-1.062
G3 X31.126 Y4.855 Z-1.043 I-0.213 J-0.352
X31.398 Y4.563 Z-1.04 I0.399 J0.099
G1 X31.475 Y4.545
X31.553 Y4.538
X31.646 Y4.524
X31.738 Y4.505
X31.831 Y4.479
X31.859 Y4.47
X31.924 Y4.447
X32.017 Y4.406
X32.077 Y4.377
X32.235 Y4.284
X32.296 Y4.239
X32.389 Y4.163
X32.462 Y4.099
X32.482 Y4.077
X32.575 Y3.97
X32.622 Y3.913
X32.642 Y3.886
X32.668 Y3.86
X32.695 Y3.838
X32.722 Y3.82
X32.761 Y3.801
X32.808 Y3.787
X32.854 Y3.779
X32.9
X32.947 Y3.785
X32.993 Y3.798
X33.04 Y3.821
X33.133 Y3.882
G3 X33.211 Y4.305 I-0.181 J0.252
G1 X33.171 Y4.341 Z-1.035
X33.132 Y4.376 Z-1.021
X33.096 Y4.408 Z-0.998
X33.044 Y4.421 Z-0.957
X33.001 Y4.432 Z-0.906
X32.97 Y4.439 Z-0.846
X32.952 Y4.444 Z-0.781
X32.948 Z-0.73
G0 Z5
X36.238 Y5.335
Z-2.292
G1 Z-2.602 F1000
X36.244 Y5.33 Z-2.671
X36.263 Y5.317 Z-2.736
X36.293 Y5.295 Z-2.795
X36.333 Y5.267 Z-2.844
X36.381 Y5.233 Z-2.881
X36.434 Y5.195 Z-2.904
X36.49 Y5.155 Z-2.912
G3 X38.082 Y4.545 I1.988 J2.802
G1 X38.153 Y4.539
X38.246 Y4.526
X38.339 Y4.508
X38.432 Y4.484
X38.525 Y4.454
X38.618 Y4.414
X38.71 Y4.37
X38.803 Y4.317
X38.856 Y4.284
X38.896 Y4.258
X38.976 Y4.191
X39.082 Y4.098
X39.164 Y4.006
X39.242 Y3.913
X39.268 Y3.877
X39.305 Y3.82
X39.362 Y3.727
X39.474 Y3.542
X40.144 Y2.428
X40.255 Y2.242
X40.291 Y2.181
X41.034 Y0.912
X41.099 Y0.799
G3 X41.515 Y0.693 I0.264 J0.163
G1 X41.554 Y0.73 Z-2.907
X41.591 Y0.766 Z-2.893
X41.627 Y0.8 Z-2.87
X41.642 Y0.85 Z-2.831
X41.655 Y0.89 Z-2.783
X41.664 Y0.921 Z-2.727
X41.67 Y0.939 Z-2.666
X41.672 Y0.946 Z-2.602
G0 Z5
X32.33 Y5.361
Z-1.992
G1 Z-2.302 F1000
X32.337 Y5.356 Z-2.371
X32.355 Y5.342 Z-2.436
X32.385 Y5.321 Z-2.495
X32.425 Y5.292 Z-2.544
X32.472 Y5.257 Z-2.581
X32.525 Y5.218 Z-2.604
X32.581 Y5.178 Z-2.612
G3 X34.164 Y4.545 I2.027 J2.774
G1 X34.248 Y4.537
X34.341 Y4.53
X34.392 Y4.535
X34.408 Y4.596 Z-2.607
X34.434 Y4.698 Z-2.6
X33.97 Y4.721 Z-2.522
X33.942 Y4.563 Z-2.512
X33.985 Y4.545
X34.062 Y4.538
X34.155 Y4.525
X34.202 Y4.517
X34.248 Y4.515
X34.341 Y4.526
X34.434 Y4.674 Z-2.505
X34.292 Y4.739 Z-2.488
X34.248 Y4.759 Z-2.483
X33.754 Y4.748 Z-2.421
X33.768 Y4.563 Z-2.412
X33.784 Y4.554
X33.818 Y4.545
X33.877 Y4.54
X33.97 Y4.527
X34.062 Y4.508
X34.109 Y4.499
X34.155 Y4.495
X34.202 Y4.498
X34.248 Y4.508
X34.341 Y4.684 Z-2.405
X34.062 Y4.781 Z-2.376
X34.057
X33.598 Y4.794 Z-2.324
X33.531 Y4.655 Z-2.314
X33.598 Y4.561 Z-2.312
X33.649 Y4.545
X33.691 Y4.542
X33.784 Y4.53
X33.877 Y4.512
X33.97 Y4.488
X34.016 Y4.477
X34.062 Y4.473
X34.109 Y4.475
X34.155 Y4.483
X34.207 Y4.496
G3 X34.432 Y4.794 Z-2.301 I-0.085 J0.298
X34.223 Y5.087 Z-2.275 I-0.31 J0
G1 X33.915 Y5 Z-2.25
X33.726 Y4.947 Z-2.234
X33.389 Y4.589 Z-2.212
X33.428 Y4.551
X33.47 Y4.545
X33.505 Y4.543
X33.598 Y4.532
X33.691 Y4.515
X33.784 Y4.492
X33.857 Y4.47
X33.877 Y4.463
X33.923 Y4.451
X33.97 Y4.445
X34.016 Y4.447
X34.062 Y4.454
X34.114 Y4.47
X34.235 Y4.655 Z-2.207
X34.062 Y4.819 Z-2.193
X33.738 Y4.84 Z-2.166
X33.587 Y4.85 Z-2.154
X33.226 Y4.873 Z-2.124
X33.159 Y4.655 Z-2.113
X33.245 Y4.563 Z-2.112
X33.31 Y4.545
X33.319 Y4.544
X33.412 Y4.534
X33.505 Y4.518
X33.598 Y4.496
X33.682 Y4.47
X33.691 Y4.467
X33.784 Y4.434
X33.83 Y4.42
X33.877 Y4.414
X33.923
X33.97 Y4.421
X34.062 Y4.45
X34.124 Y4.47
X34.268 Y4.655 Z-2.108
X34.155 Y4.868 Z-2.098
X33.847 Y4.887 Z-2.077
X33.326 Y4.92 Z-2.043
X33.04 Y4.938 Z-2.024
X32.952 Y4.748 Z-2.015
X33.08 Y4.563 Z-2.012
X33.141 Y4.545
X33.226 Y4.536
X33.319 Y4.522
X33.412 Y4.501
X33.508 Y4.47
X33.598 Y4.44
X33.691 Y4.4
X33.737 Y4.386
X33.784 Y4.378
X33.792 Y4.377
X33.82 Y4.376
X33.848 Y4.377
X33.877 Y4.381
X33.923 Y4.393
X33.97 Y4.413
G3 X34.128 Y4.812 I-0.128 J0.282
G1 X34.096 Y4.855 Z-2.007
X34.065 Y4.897 Z-1.993
X34.036 Y4.936 Z-1.97
X33.989 Y4.958 Z-1.931
X33.95 Y4.975 Z-1.883
X33.921 Y4.989 Z-1.827
X33.903 Y4.997 Z-1.766
X33.897 Y5 Z-1.702
G0 Z5
X36.238 Y5.335
Z-2.38
G1 Z-2.69 F1000
X36.244 Y5.33 Z-2.759
X36.263 Y5.317 Z-2.824
X36.293 Y5.295 Z-2.883
X36.333 Y5.267 Z-2.932
X36.381 Y5.233 Z-2.969
X36.434 Y5.195 Z-2.992
X36.49 Y5.155 Z-3
G3 X38.082 Y4.545 I1.988 J2.802
G1 X38.153 Y4.539
X38.246 Y4.526
X38.339 Y4.508
X38.432 Y4.484
X38.525 Y4.454
X38.618 Y4.414
X38.71 Y4.37
X38.803 Y4.317
X38.856 Y4.284
X38.896 Y4.258
X38.976 Y4.191
X39.082 Y4.098
X39.164 Y4.006
X39.242 Y3.913
X39.268 Y3.877
X39.305 Y3.82
X39.362 Y3.727
X39.474 Y3.542
X40.144 Y2.428
X40.255 Y2.242
X40.291 Y2.181
X41.034 Y0.912
X41.099 Y0.799
G3 X41.672 Y0.946 I0.264 J0.163
G1 X41.676 Y1.015 Z-2.992
X41.679 Y1.08 Z-2.969
X41.682 Y1.139 Z-2.932
X41.685 Y1.188 Z-2.883
X41.687 Y1.225 Z-2.824
X41.688 Y1.247 Z-2.759
X41.689 Y1.255 Z-2.69
G0 Z10
M5
M30
