(1001)
(Poot4)
(T1  D=3.1 CR=0 - ZMIN=-3 - flat end mill)
G90 G94
G17
G21

(Adaptive4 3)
S10000 M3
G54
G0 Z10
G0 X29.515 Y5.37
G1 Z-0.647 F1000
X29.521 Y5.366 Z-0.716
X29.539 Y5.352 Z-0.782
X29.569 Y5.33 Z-0.841
X29.609 Y5.301 Z-0.89
X29.656 Y5.266 Z-0.927
X29.709 Y5.227 Z-0.95
X29.764 Y5.186 Z-0.957
G3 X31.344 Y4.545 I2.041 J2.763
G1 X31.428 Y4.537
X31.521 Y4.522
X31.614 Y4.501
X31.707 Y4.474
X31.718 Y4.47
X31.8 Y4.44
X31.893 Y4.398
X31.986 Y4.348
X32.079 Y4.295
X32.095 Y4.284
X32.171 Y4.228
X32.219 Y4.191
X32.244 Y4.169
X32.315 Y4.111
X32.445 Y4.022
X32.538 Y3.968
X32.723 Y3.893
X32.922 Y3.872
X33.119 Y3.906
X33.3 Y3.993
G3 X33.187 Y4.547 I-0.181 J0.252
G1 X33.116 Y4.563
X32.527 Y4.694
G3 X32.244 Y4.169 I-0.068 J-0.303
G1 X32.264 Y4.151
X32.321 Y4.099
X32.357 Y4.061
X32.408 Y4.006
X32.481 Y3.913
X32.543 Y3.826
X32.548 Y3.82
X32.57 Y3.797
X32.592 Y3.778
X32.636 Y3.749
X32.662 Y3.737
X32.687 Y3.727
X32.729 Y3.717
X32.775 Y3.712
X32.822 Y3.715
X32.85 Y3.72
X32.878 Y3.727
X32.915 Y3.742
X33.008 Y3.798
X33.658 Y4.231
X33.741 Y4.284
G3 X33.88 Y4.497 I-0.167 J0.261
G2 X34.131 Y4.754 I0.306 J-0.048
G1 X34.27 Y4.778
X36.319 Y5.148
X36.377 Y5.152
X36.436 Y5.146
X36.492 Y5.129
X36.544 Y5.101
G3 X38.156 Y4.544 I1.893 J2.867
G1 X38.21 Y4.542
X38.303 Y4.529
X38.396 Y4.513
X38.488 Y4.488
X38.581 Y4.461
X38.674 Y4.423
X38.767 Y4.382
X38.953 Y4.271
X39.051 Y4.191
X39.139 Y4.119
X39.16 Y4.099
X39.24 Y4.006
X39.319 Y3.913
X39.439 Y3.727
X39.51 Y3.614
X39.728 Y3.263
X39.975 Y2.865
X40.014 Y2.799
X41.131 Y0.943
X41.182 Y0.857
G3 X41.601 Y0.759 I0.26 J0.169
G1 X41.639 Y0.798 Z-0.952
X41.676 Y0.835 Z-0.938
X41.71 Y0.869 Z-0.915
X41.725 Y0.919 Z-0.877
X41.736 Y0.96 Z-0.829
X41.745 Y0.99 Z-0.773
X41.751 Y1.009 Z-0.712
X41.752 Y1.015 Z-0.648
G0 Z5
X29.346 Y5.312
Z-0.257
G1 Z-0.567 F1000
X29.353 Y5.307 Z-0.636
X29.371 Y5.294 Z-0.701
X29.402 Y5.273 Z-0.76
X29.442 Y5.245 Z-0.809
X29.491 Y5.212 Z-0.846
X29.545 Y5.175 Z-0.869
X29.601 Y5.135 Z-0.877
G3 X31.201 Y4.545 I1.953 J2.827
G1 X31.243 Y4.542
X31.335 Y4.53
X31.428 Y4.512
X31.521 Y4.487
X31.614 Y4.457
X31.707 Y4.419
X31.8 Y4.375
X31.893 Y4.324
X31.986 Y4.266
X32.076 Y4.191
X32.182 Y4.099
X32.265 Y4.006
X32.342 Y3.913
X32.357 Y3.894
X32.407 Y3.82
X32.45 Y3.762
X32.487 Y3.727
X32.515 Y3.708
X32.543 Y3.692
X32.59 Y3.673
X32.636 Y3.66
X32.682 Y3.654
X32.729 Y3.656
X32.775 Y3.664
X32.822 Y3.68
X32.901 Y3.727
X32.915 Y3.737
G3 X32.73 Y4.299 I-0.181 J0.252
G1 X32.661 Y4.298 Z-0.869
X32.595 Y4.297 Z-0.846
X32.537 Y4.296 Z-0.809
X32.487 Y4.295 Z-0.76
X32.451 Z-0.701
X32.428 Y4.294 Z-0.636
X32.42 Z-0.567
G0 Z5
X40.14 Y4.839
Z-0.257
G1 Z-0.567 F1000
X40.139 Y4.831 Z-0.636
X40.135 Y4.809 Z-0.701
X40.13 Y4.772 Z-0.76
X40.122 Y4.724 Z-0.809
X40.112 Y4.666 Z-0.846
X40.102 Y4.601 Z-0.869
X40.091 Y4.533 Z-0.877
G3 X40.001 Y2.83 I7.813 J-1.265
G1 X40.002 Y2.82
X40.005 Y2.809
X40.01 Y2.8
G3 X40.429 Y2.703 I0.26 J0.169
G1 X40.467 Y2.741 Z-0.872
X40.503 Y2.778 Z-0.858
X40.537 Y2.813 Z-0.835
X40.552 Y2.862 Z-0.796
X40.563 Y2.903 Z-0.748
X40.572 Y2.934 Z-0.692
X40.578 Y2.953 Z-0.631
X40.579 Y2.959 Z-0.567
G0 Z5
X29.233 Y5.363
Z-0.177
G1 Z-0.487 F1000
X29.239 Y5.358 Z-0.556
X29.257 Y5.344 Z-0.621
X29.287 Y5.323 Z-0.68
X29.327 Y5.294 Z-0.729
X29.374 Y5.259 Z-0.766
X29.427 Y5.22 Z-0.789
X29.483 Y5.179 Z-0.797
G3 X31.065 Y4.545 I2.03 J2.772
G1 X31.15 Y4.537
X31.243 Y4.522
X31.335 Y4.502
X31.428 Y4.475
X31.446 Y4.47
X31.521 Y4.442
X31.614 Y4.402
X31.662 Y4.377
X31.822 Y4.284
X31.893 Y4.23
X31.986 Y4.156
X32.048 Y4.099
X32.079 Y4.065
X32.171 Y3.959
X32.208 Y3.913
X32.271 Y3.82
X32.334 Y3.727
X32.357 Y3.7
X32.396 Y3.663
X32.435 Y3.635
X32.45 Y3.626
X32.497 Y3.605
X32.543 Y3.593
X32.59 Y3.588
X32.636 Y3.591
X32.682 Y3.6
X32.729 Y3.617
X32.761 Y3.635
X32.822 Y3.675
G3 X32.637 Y4.237 I-0.181 J0.252
G1 X32.568 Y4.236 Z-0.789
X32.502 Y4.235 Z-0.766
X32.444 Y4.234 Z-0.729
X32.395 Y4.233 Z-0.68
X32.358 Z-0.621
X32.335 Z-0.556
X32.327 Z-0.487
G0 Z5
X38.514 Y5.739
Z-0.177
G1 Z-0.487 F1000
X38.516 Y5.731 Z-0.556
X38.524 Y5.709 Z-0.621
X38.535 Y5.674 Z-0.68
X38.551 Y5.628 Z-0.729
X38.57 Y5.572 Z-0.766
X38.59 Y5.51 Z-0.789
X38.612 Y5.445 Z-0.797
G3 X39.325 Y3.895 I7.505 J2.512
G1 X39.433 Y3.727
X39.491 Y3.635
X39.607 Y3.449
X39.837 Y3.078
X39.893 Y2.985
X39.95 Y2.892
X41.122 Y0.943
X41.177 Y0.85
G3 X41.596 Y0.752 I0.26 J0.168
G1 X41.634 Y0.79 Z-0.792
X41.671 Y0.827 Z-0.778
X41.705 Y0.862 Z-0.755
X41.719 Y0.911 Z-0.716
X41.731 Y0.952 Z-0.668
X41.74 Y0.983 Z-0.612
X41.746 Y1.002 Z-0.551
X41.748 Y1.008 Z-0.487
G0 Z5
X29.068 Y5.294
Z-0.097
G1 Z-0.407 F1000
X29.074 Y5.29 Z-0.476
X29.093 Y5.277 Z-0.541
X29.124 Y5.256 Z-0.6
X29.164 Y5.229 Z-0.649
X29.213 Y5.196 Z-0.686
X29.267 Y5.159 Z-0.709
X29.324 Y5.121 Z-0.717
G3 X30.929 Y4.545 I1.927 J2.845
G1 X30.964 Y4.543
X31.057 Y4.531
X31.15 Y4.514
X31.243 Y4.49
X31.306 Y4.47
X31.335 Y4.46
X31.428 Y4.425
X31.522 Y4.377
X31.614 Y4.329
X31.685 Y4.284
X31.707 Y4.27
X31.8 Y4.199
X31.91 Y4.099
X31.986 Y4.019
X32.07 Y3.913
X32.079 Y3.903
X32.171 Y3.765
X32.197 Y3.727
X32.262 Y3.635
X32.264 Y3.632
X32.288 Y3.609
X32.311 Y3.59
X32.334 Y3.574
X32.357 Y3.562
X32.409 Y3.542
X32.45 Y3.531
X32.497 Y3.527
X32.543 Y3.529
X32.572 Y3.534
X32.601 Y3.542
X32.636 Y3.555
X32.729 Y3.613
X32.761 Y3.635
G3 X32.576 Y4.196 I-0.181 J0.252
G1 X32.507 Z-0.709
X32.442 Y4.195 Z-0.686
X32.383 Y4.194 Z-0.649
X32.334 Y4.193 Z-0.6
X32.297 Z-0.541
X32.274 Y4.192 Z-0.476
X32.266 Z-0.407
G0 Z5
X40.14 Y4.824
Z-0.097
G1 Z-0.407 F1000
X40.139 Y4.816 Z-0.476
X40.135 Y4.794 Z-0.541
X40.13 Y4.757 Z-0.6
X40.122 Y4.709 Z-0.649
X40.112 Y4.651 Z-0.686
X40.102 Y4.586 Z-0.709
X40.091 Y4.518 Z-0.717
G3 X40.001 Y2.815 I7.813 J-1.265
G1 X40.002 Y2.805
X40.005 Y2.794
X40.01 Y2.785
G3 X40.429 Y2.688 I0.26 J0.169
G1 X40.467 Y2.726 Z-0.712
X40.503 Y2.763 Z-0.698
X40.537 Y2.798 Z-0.675
X40.552 Y2.847 Z-0.636
X40.563 Y2.888 Z-0.588
X40.572 Y2.919 Z-0.532
X40.578 Y2.938 Z-0.471
X40.579 Y2.944 Z-0.407
G0 Z5
X28.963 Y5.352
Z-0.018
G1 Z-0.328 F1000
X28.97 Y5.347 Z-0.397
X28.988 Y5.334 Z-0.462
X29.018 Y5.312 Z-0.521
X29.058 Y5.284 Z-0.57
X29.105 Y5.249 Z-0.607
X29.159 Y5.211 Z-0.63
X29.214 Y5.17 Z-0.638
G3 X30.801 Y4.545 I2.014 J2.783
G1 X30.871 Y4.538
X30.964 Y4.524
X31.057 Y4.504
X31.15 Y4.478
X31.174 Y4.47
X31.243 Y4.445
X31.391 Y4.377
X31.428 Y4.358
X31.548 Y4.284
X31.614 Y4.239
X31.675 Y4.191
X31.707 Y4.163
X31.777 Y4.099
X31.8 Y4.075
X31.863 Y4.006
X31.893 Y3.969
X31.936 Y3.913
X31.986 Y3.841
X32.124 Y3.635
X32.171 Y3.568
X32.197 Y3.542
X32.231 Y3.516
X32.264 Y3.496
X32.311 Y3.477
X32.357 Y3.466
X32.404 Y3.462
X32.45 Y3.466
X32.497 Y3.477
X32.543 Y3.494
X32.622 Y3.542
X32.636 Y3.551
G3 X32.451 Y4.113 I-0.181 J0.252
G1 X32.382 Y4.112 Z-0.63
X32.317 Y4.111 Z-0.607
X32.258 Z-0.57
X32.209 Y4.11 Z-0.521
X32.172 Y4.109 Z-0.462
X32.149 Z-0.397
X32.141 Z-0.328
G0 Z5
X38.514 Y5.73
Z-0.018
G1 Z-0.328 F1000
X38.516 Y5.722 Z-0.397
X38.524 Y5.7 Z-0.462
X38.535 Y5.665 Z-0.521
X38.551 Y5.619 Z-0.57
X38.57 Y5.563 Z-0.607
X38.59 Y5.501 Z-0.63
X38.612 Y5.436 Z-0.638
G3 X39.325 Y3.886 I7.505 J2.512
G1 X39.427 Y3.727
X39.486 Y3.635
X39.603 Y3.445
X39.716 Y3.263
X39.829 Y3.078
X41.113 Y0.943
X41.168 Y0.85
G3 X41.587 Y0.751 I0.261 J0.168
G1 X41.625 Y0.789 Z-0.633
X41.661 Y0.826 Z-0.619
X41.696 Y0.861 Z-0.595
X41.71 Y0.91 Z-0.557
X41.722 Y0.951 Z-0.509
X41.731 Y0.982 Z-0.453
X41.737 Y1.001 Z-0.392
X41.739 Y1.007 Z-0.328
G0 Z5
X28.872 Y5.404
Z0.062
G1 Z-0.248 F1000
X28.879 Y5.4 Z-0.317
X28.897 Y5.386 Z-0.382
X28.926 Y5.363 Z-0.441
X28.965 Y5.333 Z-0.49
X29.011 Y5.297 Z-0.527
X29.063 Y5.257 Z-0.55
X29.118 Y5.215 Z-0.558
G3 X30.685 Y4.543 I2.095 J2.723
G1 X30.778 Y4.532
X30.871 Y4.515
X30.964 Y4.493
X31.04 Y4.47
X31.057 Y4.464
X31.15 Y4.427
X31.243 Y4.383
X31.335 Y4.331
X31.416 Y4.284
X31.428 Y4.276
X31.521 Y4.203
X31.536 Y4.191
X31.614 Y4.124
X31.641 Y4.099
X31.707 Y4.026
X31.725 Y4.006
X31.8 Y3.913
X31.863 Y3.82
X31.926 Y3.727
X32.05 Y3.542
X32.079 Y3.505
X32.113 Y3.473
X32.147 Y3.449
X32.171 Y3.435
X32.218 Y3.417
X32.264 Y3.407
X32.311 Y3.403
X32.357 Y3.405
X32.404 Y3.414
X32.45 Y3.432
X32.482 Y3.449
X32.543 Y3.489
G3 X32.358 Y4.051 I-0.181 J0.252
G1 X32.289 Z-0.55
X32.224 Y4.05 Z-0.527
X32.165 Y4.049 Z-0.49
X32.116 Y4.048 Z-0.441
X32.079 Z-0.382
X32.056 Y4.047 Z-0.317
X32.048 Z-0.248
G0 Z5
X40.14 Y4.809
Z0.062
G1 Z-0.248 F1000
X40.139 Y4.802 Z-0.317
X40.135 Y4.779 Z-0.382
X40.13 Y4.742 Z-0.441
X40.122 Y4.694 Z-0.49
X40.112 Y4.636 Z-0.527
X40.102 Y4.571 Z-0.55
X40.091 Y4.503 Z-0.558
G3 X40.001 Y2.801 I7.813 J-1.265
G1 X40.002 Y2.79
X40.005 Y2.78
X40.01 Y2.77
X40.031 Y2.749
X40.059 Y2.739
X40.089 Y2.741
X40.115 Y2.756
X40.133 Y2.78
X40.138 Y2.81
X40.131 Y2.839
G3 X39.891 Y2.994 I-0.25 J-0.124
G1 X39.875
G3 X40.294 Y2.897 I0.26 J0.169
G1 X40.332 Y2.935 Z-0.553
X40.368 Y2.972 Z-0.539
X40.403 Y3.007 Z-0.516
X40.417 Y3.057 Z-0.477
X40.429 Y3.098 Z-0.429
X40.437 Y3.128 Z-0.373
X40.443 Y3.147 Z-0.312
X40.445 Y3.153 Z-0.248
G0 Z5
X28.682 Y5.346
Z0.142
G1 Z-0.168 F1000
X28.688 Y5.342 Z-0.237
X28.707 Y5.328 Z-0.303
X28.737 Y5.307 Z-0.361
X28.777 Y5.278 Z-0.41
X28.825 Y5.244 Z-0.447
X28.878 Y5.205 Z-0.47
X28.934 Y5.165 Z-0.478
G3 X30.522 Y4.545 I2.005 J2.79
G1 X30.592 Y4.539
X30.685 Y4.525
X30.778 Y4.505
X30.871 Y4.479
X30.964 Y4.448
X31.057 Y4.406
X31.15 Y4.36
X31.243 Y4.307
X31.278 Y4.284
X31.335 Y4.244
X31.4 Y4.191
X31.521 Y4.083
X31.588 Y4.006
X31.664 Y3.913
X31.707 Y3.851
X31.728 Y3.82
X31.852 Y3.635
X31.914 Y3.542
X31.979 Y3.449
X31.986 Y3.442
X32.009 Y3.42
X32.032 Y3.402
X32.079 Y3.374
X32.121 Y3.356
X32.171 Y3.343
X32.218 Y3.339
X32.264 Y3.342
X32.295 Y3.347
X32.325 Y3.356
X32.357 Y3.37
X32.45 Y3.428
G3 X32.265 Y3.99 I-0.181 J0.252
G2 X32.208 Y4.605 I-0.004 J0.31
G1 X38.225 Y5.658
G2 X38.572 Y5.454 I0.053 J-0.305
G3 X39.301 Y3.913 I7.477 J2.595
G1 X39.325 Y3.877
X39.421 Y3.727
X39.48 Y3.635
X39.537 Y3.542
X39.652 Y3.356
X39.696 Y3.284
X41.104 Y0.943
X41.159 Y0.85
X41.182 Y0.81
G3 X41.601 Y0.709 I0.262 J0.166
G1 X41.639 Y0.747 Z-0.473
X41.676 Y0.783 Z-0.459
X41.71 Y0.818 Z-0.436
X41.725 Y0.867 Z-0.398
X41.737 Y0.908 Z-0.349
X41.746 Y0.938 Z-0.294
X41.752 Y0.957 Z-0.232
X41.754 Y0.963 Z-0.169
G0 Z5
X28.522 Y5.284
Z0.221
G1 Z-0.089 F1000
X28.529 Y5.28 Z-0.158
X28.548 Y5.267 Z-0.224
X28.578 Y5.247 Z-0.282
X28.619 Y5.219 Z-0.331
X28.668 Y5.187 Z-0.368
X28.722 Y5.15 Z-0.391
X28.78 Y5.112 Z-0.399
G3 X30.388 Y4.545 I1.911 J2.855
G1 X30.406 Y4.544
X30.499 Y4.533
X30.592 Y4.517
X30.685 Y4.495
X30.767 Y4.47
X30.778 Y4.466
X30.871 Y4.43
X30.964 Y4.388
X30.988 Y4.377
X31.15 Y4.279
X31.243 Y4.207
X31.335 Y4.13
X31.371 Y4.099
X31.428 Y4.032
X31.53 Y3.913
X31.593 Y3.82
X31.655 Y3.727
X31.779 Y3.542
X31.841 Y3.449
X31.893 Y3.379
X31.915 Y3.356
X31.951 Y3.328
X31.986 Y3.307
X32.032 Y3.289
X32.079 Y3.278
X32.125 Y3.274
X32.171 Y3.278
X32.218 Y3.288
X32.264 Y3.307
X32.343 Y3.356
X32.357 Y3.366
G3 X32.172 Y3.928 I-0.181 J0.252
G1 X32.103 Y3.927 Z-0.391
X32.038 Y3.926 Z-0.368
X31.979 Y3.925 Z-0.331
X31.93 Z-0.282
X31.893 Y3.924 Z-0.224
X31.87 Z-0.158
X31.862 Z-0.089
G0 Z5
X40.14 Y4.794
Z0.221
G1 Z-0.089 F1000
X40.139 Y4.787 Z-0.158
X40.135 Y4.764 Z-0.224
X40.13 Y4.728 Z-0.282
X40.122 Y4.679 Z-0.331
X40.112 Y4.621 Z-0.368
X40.102 Y4.557 Z-0.391
X40.091 Y4.488 Z-0.399
G3 X40.001 Y2.786 I7.813 J-1.265
G1 X40.002 Y2.775
X40.005 Y2.765
X40.01 Y2.755
X40.033 Y2.733
X40.063 Y2.722
X40.094 Y2.724
X40.122 Y2.74
X40.141 Y2.766
X40.147 Y2.798
X40.139 Y2.829
G3 X39.883 Y2.994 I-0.267 J-0.132
G1 X39.866
G3 X40.285 Y2.897 I0.26 J0.169
G1 X40.323 Y2.935 Z-0.394
X40.359 Y2.972 Z-0.38
X40.394 Y3.007 Z-0.357
X40.408 Y3.057 Z-0.319
X40.42 Y3.098 Z-0.27
X40.428 Y3.128 Z-0.215
X40.434 Y3.147 Z-0.153
X40.436 Y3.153 Z-0.09
G0 Z5
X28.393 Y5.322
Z0.301
G1 Z-0.009 F1000
X28.399 Y5.317 Z-0.078
X28.418 Y5.304 Z-0.144
X28.448 Y5.283 Z-0.203
X28.489 Y5.255 Z-0.252
X28.537 Y5.221 Z-0.289
X28.59 Y5.184 Z-0.311
X28.647 Y5.144 Z-0.319
G3 X30.243 Y4.545 I1.968 J2.816
G1 X30.314 Y4.54
X30.406 Y4.527
X30.499 Y4.508
X30.592 Y4.483
X30.631 Y4.47
X30.685 Y4.451
X30.778 Y4.413
X30.871 Y4.363
X30.964 Y4.313
X31.008 Y4.284
X31.057 Y4.249
X31.132 Y4.191
X31.15 Y4.177
X31.243 Y4.09
X31.32 Y4.006
X31.335 Y3.987
X31.394 Y3.913
X31.428 Y3.863
X31.521 Y3.725
X31.767 Y3.356
X31.8 Y3.316
X31.833 Y3.286
X31.867 Y3.263
X31.893 Y3.248
X31.939 Y3.229
X31.986 Y3.218
X32.032 Y3.214
X32.079 Y3.217
X32.125 Y3.227
X32.171 Y3.246
X32.203 Y3.263
X32.264 Y3.304
G3 X32.08 Y3.866 I-0.181 J0.252
G1 X32.011 Y3.865 Z-0.311
X31.945 Y3.864 Z-0.289
X31.886 Y3.863 Z-0.252
X31.837 Z-0.203
X31.8 Y3.862 Z-0.144
X31.777 Z-0.078
X31.77 Z-0.009
G0 Z5
X38.455 Y5.743
Z0.301
G1 Z-0.009 F1000
X38.457 Y5.735 Z-0.078
X38.465 Y5.714 Z-0.144
X38.477 Y5.679 Z-0.203
X38.493 Y5.633 Z-0.252
X38.513 Y5.577 Z-0.289
X38.535 Y5.515 Z-0.311
X38.558 Y5.45 Z-0.319
G3 X39.295 Y3.913 I7.463 J2.634
G1 X39.325 Y3.869
X39.417 Y3.725
X39.474 Y3.635
X39.531 Y3.542
X39.588 Y3.449
X41.095 Y0.943
X41.15 Y0.85
X41.182 Y0.794
G3 X41.6 Y0.691 I0.262 J0.165
G1 X41.638 Y0.729 Z-0.314
X41.676 Y0.765 Z-0.3
X41.71 Y0.8 Z-0.277
X41.725 Y0.849 Z-0.239
X41.738 Y0.89 Z-0.191
X41.747 Y0.92 Z-0.135
X41.752 Y0.939 Z-0.074
X41.754 Y0.945 Z-0.01
G0 Z5
X28.305 Y5.385
Z0.381
G1 Z0.071 F1000
X28.312 Y5.381 Z0.002
X28.33 Y5.367 Z-0.064
X28.36 Y5.345 Z-0.123
X28.399 Y5.315 Z-0.172
X28.446 Y5.28 Z-0.209
X28.498 Y5.241 Z-0.232
X28.553 Y5.199 Z-0.239
G3 X30.128 Y4.545 I2.064 J2.746
G1 X30.221 Y4.535
X30.314 Y4.519
X30.406 Y4.497
X30.499 Y4.467
X30.592 Y4.433
X30.71 Y4.377
X30.778 Y4.342
X30.871 Y4.284
X30.964 Y4.215
X31.096 Y4.099
X31.15 Y4.041
X31.257 Y3.913
X31.322 Y3.82
X31.631 Y3.356
X31.695 Y3.263
X31.707 Y3.25
X31.73 Y3.228
X31.753 Y3.21
X31.8 Y3.184
X31.834 Y3.171
X31.863 Y3.162
X31.893 Y3.157
X31.939 Y3.155
X31.986 Y3.158
X32.014 Y3.163
X32.043 Y3.171
X32.079 Y3.185
X32.171 Y3.242
G3 X31.987 Y3.804 I-0.181 J0.252
G1 X31.918 Y3.803 Z-0.232
X31.852 Y3.802 Z-0.209
X31.793 Z-0.172
X31.744 Y3.801 Z-0.123
X31.707 Y3.8 Z-0.064
X31.684 Z0.002
X31.677 Z0.071
G0 Z5
X40.14 Y4.78
Z0.381
G1 Z0.071 F1000
X40.139 Y4.772 Z0.002
X40.135 Y4.749 Z-0.064
X40.13 Y4.713 Z-0.123
X40.122 Y4.664 Z-0.172
X40.112 Y4.606 Z-0.209
X40.102 Y4.542 Z-0.232
X40.091 Y4.474 Z-0.239
G3 X40.001 Y2.771 I7.813 J-1.265
G1 X40.002 Y2.76
X40.005 Y2.75
X40.01 Y2.74
X40.039 Y2.71
X40.077 Y2.692
X40.119 Y2.69
X40.159 Y2.703
X40.191 Y2.729
X40.211 Y2.766
X40.217 Y2.807
X40.207 Y2.848
G3 X39.875 Y2.994 I-0.248 J-0.112
G1 X39.868 Y2.992
X39.865 Y2.986
X39.866 Y2.979
G3 X40.285 Y2.882 I0.26 J0.169
G1 X40.323 Y2.92 Z-0.234
X40.36 Y2.957 Z-0.22
X40.394 Y2.992 Z-0.197
X40.408 Y3.041 Z-0.159
X40.42 Y3.082 Z-0.111
X40.429 Y3.113 Z-0.055
X40.434 Y3.131 Z0.006
X40.436 Y3.138 Z0.07
G0 Z5
X28.134 Y5.329
Z0.46
G1 Z0.15 F1000
X28.14 Y5.324 Z0.081
X28.159 Y5.311 Z0.016
X28.189 Y5.29 Z-0.043
X28.229 Y5.262 Z-0.092
X28.277 Y5.228 Z-0.129
X28.331 Y5.19 Z-0.152
X28.387 Y5.15 Z-0.16
G3 X29.981 Y4.545 I1.979 J2.808
G1 X30.035 Y4.541
X30.128 Y4.528
X30.221 Y4.509
X30.314 Y4.484
X30.36 Y4.47
X30.406 Y4.454
X30.499 Y4.414
X30.577 Y4.377
X30.736 Y4.284
X30.778 Y4.254
X30.871 Y4.179
X30.964 Y4.097
X31.045 Y4.006
X31.057 Y3.992
X31.122 Y3.913
X31.15 Y3.873
X31.247 Y3.727
X31.371 Y3.542
X31.556 Y3.263
X31.582 Y3.225
X31.614 Y3.186
X31.631 Y3.171
X31.669 Y3.142
X31.707 Y3.121
X31.753 Y3.104
X31.8 Y3.093
X31.846 Y3.09
X31.893 Y3.093
X31.939 Y3.103
X31.986 Y3.122
X32.063 Y3.171
X32.079 Y3.181
G3 X31.894 Y3.743 I-0.181 J0.252
G1 X31.825 Y3.742 Z-0.152
X31.759 Y3.741 Z-0.129
X31.701 Y3.74 Z-0.092
X31.651 Y3.739 Z-0.043
X31.614 Z0.016
X31.592 Y3.738 Z0.081
X31.584 Z0.15
G0 Z5
X38.444 Y5.741
Z0.46
G1 Z0.15 F1000
X38.447 Y5.733 Z0.081
X38.455 Y5.712 Z0.016
X38.467 Y5.677 Z-0.043
X38.484 Y5.631 Z-0.092
X38.503 Y5.575 Z-0.129
X38.525 Y5.514 Z-0.152
X38.548 Y5.449 Z-0.16
G3 X39.289 Y3.913 I7.457 J2.651
G1 X39.325 Y3.86
X39.417 Y3.715
X39.51 Y3.563
X41.09 Y0.937
X41.141 Y0.85
X41.164 Y0.811
G3 X41.581 Y0.707 I0.263 J0.165
G1 X41.619 Y0.745 Z-0.155
X41.657 Y0.781 Z-0.14
X41.692 Y0.815 Z-0.117
X41.707 Y0.864 Z-0.079
X41.719 Y0.905 Z-0.031
X41.728 Y0.936 Z0.025
X41.734 Y0.954 Z0.086
X41.736 Y0.961 Z0.15
G0 Z5
X28.024 Y5.38
Z0.54
G1 Z0.23 F1000
X28.03 Y5.375 Z0.161
X28.049 Y5.361 Z0.096
X28.078 Y5.339 Z0.037
X28.118 Y5.31 Z-0.012
X28.165 Y5.275 Z-0.049
X28.217 Y5.235 Z-0.072
X28.273 Y5.194 Z-0.08
G3 X29.849 Y4.545 I2.056 J2.753
G1 X29.942 Y4.535
X30.035 Y4.52
X30.128 Y4.498
X30.222 Y4.47
X30.314 Y4.437
X30.406 Y4.393
X30.499 Y4.344
X30.592 Y4.289
X30.6 Y4.284
X30.685 Y4.222
X30.724 Y4.191
X30.825 Y4.099
X30.871 Y4.052
X30.911 Y4.006
X30.986 Y3.913
X31.057 Y3.809
X31.112 Y3.727
X31.428 Y3.251
X31.482 Y3.171
X31.5 Y3.148
X31.521 Y3.125
X31.551 Y3.1
X31.581 Y3.078
X31.614 Y3.058
X31.661 Y3.04
X31.707 Y3.029
X31.753 Y3.026
X31.8 Y3.03
X31.846 Y3.041
X31.893 Y3.06
X31.924 Y3.078
X31.986 Y3.119
G3 X31.801 Y3.681 I-0.181 J0.252
G1 X31.732 Y3.68 Z-0.072
X31.666 Y3.679 Z-0.049
X31.608 Y3.678 Z-0.012
X31.559 Y3.677 Z0.037
X31.522 Z0.096
X31.499 Z0.161
X31.491 Z0.23
G0 Z5
X40.14 Y4.765
Z0.54
G1 Z0.23 F1000
X40.139 Y4.757 Z0.161
X40.135 Y4.735 Z0.096
X40.13 Y4.698 Z0.037
X40.122 Y4.65 Z-0.012
X40.112 Y4.592 Z-0.049
X40.102 Y4.527 Z-0.072
X40.091 Y4.459 Z-0.08
G3 X40.001 Y2.756 I7.813 J-1.265
G1 X40.002 Y2.745
X40.005 Y2.735
X40.01 Y2.725
X40.037 Y2.696
X40.071 Y2.677
X40.11 Y2.671
X40.149 Y2.677
X40.184 Y2.696
X40.21 Y2.725
X40.226 Y2.762
X40.229 Y2.801
X40.219 Y2.839
G3 X39.867 Y2.994 I-0.262 J-0.118
G1 X39.86 Y2.992
X39.856 Y2.985
X39.858 Y2.978
G3 X40.277 Y2.881 I0.26 J0.169
G1 X40.315 Y2.919 Z-0.075
X40.351 Y2.956 Z-0.061
X40.386 Y2.991 Z-0.038
X40.4 Y3.04 Z0.001
X40.412 Y3.081 Z0.049
X40.42 Y3.112 Z0.105
X40.426 Y3.131 Z0.166
X40.428 Y3.137 Z0.23
G0 Z5
X31.112 Y5.313
Z-1.292
G1 Z-1.602 F1000
X31.118 Y5.308 Z-1.671
X31.137 Y5.295 Z-1.736
X31.167 Y5.274 Z-1.795
X31.208 Y5.246 Z-1.844
X31.256 Y5.213 Z-1.881
X31.31 Y5.176 Z-1.904
X31.367 Y5.136 Z-1.912
G3 X32.966 Y4.545 I1.955 J2.825
G1 X33.008 Y4.542
X33.1 Y4.53
X33.193 Y4.512
X33.286 Y4.488
X33.344 Y4.47
X33.379 Y4.458
X33.472 Y4.418
X33.565 Y4.376
X33.611 Y4.355
X33.658 Y4.342
X33.704 Y4.335
X33.751
X33.797 Y4.34
X33.844 Y4.353
X33.895 Y4.377
G3 X33.784 Y4.958 I-0.147 J0.273
G2 X33.854 Y5.574 I0.036 J0.308
G1 X36.488 Y5.277
X36.543 Y5.266
X36.595 Y5.245
X36.642 Y5.215
G3 X38.21 Y4.544 I2.092 J2.725
G1 X38.303 Y4.533
X38.396 Y4.52
X38.488 Y4.497
X38.587 Y4.47
X38.674 Y4.438
X38.767 Y4.397
X38.804 Y4.377
X38.953 Y4.292
X38.966 Y4.284
X39.046 Y4.223
X39.139 Y4.148
X39.191 Y4.099
X39.232 Y4.054
X39.274 Y4.006
X39.325 Y3.947
X39.35 Y3.913
X39.417 Y3.81
X39.472 Y3.727
X39.51 Y3.667
X39.603 Y3.52
X39.706 Y3.356
X39.975 Y2.924
X40.11 Y2.706
X40.569 Y1.964
X40.626 Y1.871
X40.682 Y1.778
X41.184 Y0.943
X41.24 Y0.85
X41.275 Y0.789
G3 X41.692 Y0.683 I0.263 J0.163
G1 X41.731 Y0.72 Z-1.907
X41.768 Y0.756 Z-1.892
X41.803 Y0.79 Z-1.869
X41.819 Y0.84 Z-1.831
X41.831 Y0.88 Z-1.783
X41.841 Y0.911 Z-1.727
X41.846 Y0.929 Z-1.666
X41.848 Y0.936 Z-1.602
G0 Z5
X30.942 Y5.295
Z-1.192
G1 Z-1.502 F1000
X30.948 Y5.291 Z-1.571
X30.967 Y5.278 Z-1.636
X30.998 Y5.257 Z-1.695
X31.038 Y5.229 Z-1.744
X31.087 Y5.196 Z-1.781
X31.141 Y5.16 Z-1.804
X31.198 Y5.121 Z-1.812
G3 X32.803 Y4.545 I1.927 J2.844
G1 X32.822 Y4.544
X32.915 Y4.532
X33.008 Y4.516
X33.1 Y4.493
X33.193 Y4.464
X33.286 Y4.426
X33.379 Y4.385
X33.472 Y4.335
X33.518 Y4.31
X33.565 Y4.294
X33.611 Y4.286
X33.658 Y4.285
X33.704 Y4.291
X33.751 Y4.304
X33.797 Y4.323
X33.823 Y4.337
G3 X33.973 Y4.542 I-0.152 J0.27
G2 X34.267 Y4.786 I0.303 J-0.065
G1 X34.379 Y4.79
X39.771 Y4.955
G2 X40.087 Y4.596 I0.009 J-0.31
G3 X40.001 Y2.893 I7.815 J-1.248
G1 X40.002 Y2.882
X40.005 Y2.871
X40.01 Y2.861
X40.031 Y2.842
X40.058 Y2.835
X40.085 Y2.841
X40.106 Y2.859
X40.116 Y2.885
X40.113 Y2.912
X40.094 Y2.949
X40.064 Y2.977
X40.027 Y2.995
X39.987 Y3.001
X39.946 Y2.994
X39.939 Y2.992
X39.936 Y2.986
X39.937 Y2.979
G3 X40.358 Y2.887 I0.257 J0.173
G1 X40.395 Y2.926 Z-1.807
X40.431 Y2.964 Z-1.792
X40.465 Y2.999 Z-1.769
X40.478 Y3.049 Z-1.731
X40.49 Y3.09 Z-1.683
X40.498 Y3.12 Z-1.627
X40.503 Y3.139 Z-1.566
X40.505 Y3.146 Z-1.502
G0 Z5
X30.815 Y5.388
Z-1.092
G1 Z-1.402 F1000
X30.821 Y5.384 Z-1.471
X30.84 Y5.37 Z-1.536
X30.869 Y5.348 Z-1.595
X30.908 Y5.318 Z-1.644
X30.955 Y5.283 Z-1.681
X31.008 Y5.243 Z-1.704
X31.063 Y5.202 Z-1.712
G3 X32.636 Y4.545 I2.069 J2.743
G1 X32.729 Y4.534
X32.822 Y4.518
X32.915 Y4.497
X33.004 Y4.47
X33.1 Y4.434
X33.193 Y4.39
X33.286 Y4.34
X33.379 Y4.286
X33.382 Y4.284
X33.427 Y4.259
X33.472 Y4.242
X33.518 Y4.232
X33.565 Y4.229
X33.611 Y4.233
X33.658 Y4.244
X33.698 Y4.261
X33.738 Y4.284
X33.751 Y4.292
G3 X33.888 Y4.506 I-0.169 J0.26
G2 X34.129 Y4.763 I0.307 J-0.046
G1 X34.274 Y4.795
X38.265 Y5.661
G2 X38.624 Y5.458 I0.066 J-0.303
G3 X39.345 Y3.913 I7.491 J2.552
G1 X39.466 Y3.727
X39.51 Y3.658
X39.641 Y3.449
X39.93 Y2.985
X40.389 Y2.242
X40.446 Y2.15
X40.532 Y2.009
X40.559 Y1.964
X41.229 Y0.85
X41.255 Y0.806
G3 X41.671 Y0.7 I0.263 J0.163
G1 X41.71 Y0.737 Z-1.707
X41.747 Y0.774 Z-1.692
X41.782 Y0.808 Z-1.669
X41.798 Y0.857 Z-1.631
X41.81 Y0.898 Z-1.583
X41.82 Y0.928 Z-1.527
X41.826 Y0.947 Z-1.466
X41.827 Y0.953 Z-1.402
G0 Z5
X30.629 Y5.369
Z-0.992
G1 Z-1.302 F1000
X30.635 Y5.365 Z-1.371
X30.654 Y5.351 Z-1.436
X30.684 Y5.329 Z-1.495
X30.723 Y5.3 Z-1.544
X30.77 Y5.265 Z-1.581
X30.823 Y5.226 Z-1.604
X30.879 Y5.185 Z-1.612
G3 X32.459 Y4.545 I2.04 J2.764
G1 X32.543 Y4.536
X32.636 Y4.521
X32.729 Y4.5
X32.822 Y4.473
X32.915 Y4.441
X33.008 Y4.397
X33.1 Y4.35
X33.193 Y4.294
X33.209 Y4.284
X33.286 Y4.231
X33.323 Y4.209
X33.359 Y4.191
X33.379 Y4.184
X33.426 Y4.174
X33.472 Y4.17
X33.518 Y4.173
X33.565 Y4.184
X33.586 Y4.191
X33.622 Y4.208
X33.658 Y4.231
X33.741 Y4.284
G3 X33.88 Y4.497 I-0.167 J0.261
G2 X34.176 Y4.758 I0.306 J-0.048
G1 X34.272 Y4.761
X39.771 Y4.942
G2 X40.087 Y4.584 I0.01 J-0.31
G3 X40.001 Y2.881 I7.815 J-1.248
G1 X40.002 Y2.869
X40.005 Y2.858
X40.01 Y2.848
X40.033 Y2.828
X40.062 Y2.82
X40.092 Y2.827
X40.115 Y2.846
X40.126 Y2.874
X40.123 Y2.904
X40.102 Y2.944
X40.069 Y2.975
X40.029 Y2.995
X39.985 Y3.002
X39.94 Y2.994
X39.933 Y2.991
X39.929 Y2.985
X39.931 Y2.977
G3 X40.351 Y2.885 I0.258 J0.172
G1 X40.388 Y2.924 Z-1.607
X40.424 Y2.962 Z-1.592
X40.458 Y2.997 Z-1.569
X40.472 Y3.046 Z-1.531
X40.483 Y3.087 Z-1.483
X40.492 Y3.118 Z-1.427
X40.497 Y3.137 Z-1.366
X40.498 Y3.143 Z-1.302
G0 Z5
X30.449 Y5.35
Z-0.892
G1 Z-1.202 F1000
X30.455 Y5.345 Z-1.271
X30.474 Y5.332 Z-1.336
X30.504 Y5.31 Z-1.395
X30.543 Y5.282 Z-1.444
X30.591 Y5.247 Z-1.481
X30.644 Y5.209 Z-1.504
X30.7 Y5.168 Z-1.512
G3 X32.287 Y4.545 I2.011 J2.785
G1 X32.357 Y4.538
X32.45 Y4.524
X32.543 Y4.505
X32.636 Y4.476
X32.729 Y4.446
X32.822 Y4.404
X32.915 Y4.36
X33.008 Y4.303
X33.037 Y4.284
X33.1 Y4.242
X33.193 Y4.169
X33.24 Y4.142
X33.286 Y4.124
X33.333 Y4.114
X33.379 Y4.112
X33.426 Y4.115
X33.472 Y4.124
X33.518 Y4.142
X33.565 Y4.169
X33.598 Y4.191
G3 X33.734 Y4.406 I-0.172 J0.258
G2 X33.971 Y4.665 I0.307 J-0.043
G1 X34.117 Y4.699
X38.264 Y5.66
G2 X38.628 Y5.456 I0.07 J-0.302
G3 X39.342 Y3.908 I7.501 J2.523
G1 X39.46 Y3.727
X39.518 Y3.635
X39.882 Y3.05
X40.267 Y2.428
X40.346 Y2.298
X40.38 Y2.242
X41.218 Y0.85
X41.247 Y0.799
G3 X41.664 Y0.694 I0.263 J0.164
G1 X41.703 Y0.732 Z-1.507
X41.74 Y0.768 Z-1.492
X41.775 Y0.802 Z-1.469
X41.79 Y0.851 Z-1.431
X41.803 Y0.892 Z-1.383
X41.812 Y0.922 Z-1.327
X41.818 Y0.941 Z-1.266
X41.82 Y0.948 Z-1.202
G0 Z5
X30.268 Y5.336
Z-0.789
G1 Z-1.099 F1000
X30.275 Y5.331 Z-1.168
X30.293 Y5.318 Z-1.234
X30.323 Y5.297 Z-1.292
X30.363 Y5.268 Z-1.342
X30.411 Y5.234 Z-1.378
X30.465 Y5.196 Z-1.401
X30.521 Y5.156 Z-1.409
G3 X32.113 Y4.545 I1.989 J2.801
G1 X32.171 Y4.54
X32.264 Y4.527
X32.357 Y4.508
X32.45 Y4.482
X32.543 Y4.451
X32.636 Y4.41
X32.708 Y4.377
X32.729 Y4.365
X32.862 Y4.284
X32.915 Y4.249
X32.99 Y4.191
X33.008 Y4.176
X33.097 Y4.099
X33.1 Y4.096
X33.147 Y4.069
X33.193 Y4.052
X33.24 Y4.043
X33.286 Y4.041
X33.333 Y4.045
X33.379 Y4.058
X33.419 Y4.075
X33.459 Y4.099
X33.472 Y4.107
G3 X33.608 Y4.322 I-0.171 J0.258
G2 X33.897 Y4.588 I0.307 J-0.044
G1 X33.995 Y4.594
X39.763 Y4.929
G2 X40.087 Y4.571 I0.018 J-0.309
G3 X40.001 Y2.868 I7.815 J-1.248
G1 X40.002 Y2.857
X40.005 Y2.846
X40.011 Y2.835
X40.035 Y2.813
X40.066 Y2.805
X40.099 Y2.812
X40.124 Y2.833
X40.136 Y2.864
X40.133 Y2.896
X40.11 Y2.939
X40.075 Y2.973
X40.031 Y2.995
X39.983 Y3.002
X39.935 Y2.994
X39.926 Y2.991
X39.922 Y2.984
X39.924 Y2.975
G3 X40.344 Y2.883 I0.258 J0.172
G1 X40.382 Y2.922 Z-1.404
X40.418 Y2.96 Z-1.39
X40.452 Y2.995 Z-1.367
X40.465 Y3.044 Z-1.329
X40.476 Y3.086 Z-1.281
X40.485 Y3.116 Z-1.225
X40.49 Y3.135 Z-1.164
X40.492 Y3.142 Z-1.1
G0 Z5
X30.055 Y5.268
Z-0.693
G1 Z-1.003 F1000
X30.062 Y5.264 Z-1.072
X30.081 Y5.252 Z-1.137
X30.112 Y5.231 Z-1.196
X30.153 Y5.204 Z-1.245
X30.202 Y5.172 Z-1.282
X30.257 Y5.136 Z-1.305
X30.314 Y5.098 Z-1.313
G3 X31.927 Y4.545 I1.887 J2.871
G1 X31.986 Y4.542
X32.079 Y4.53
X32.171 Y4.512
X32.264 Y4.488
X32.325 Y4.47
X32.357 Y4.458
X32.45 Y4.42
X32.539 Y4.377
X32.636 Y4.322
X32.701 Y4.284
X32.729 Y4.265
X32.822 Y4.191
X32.915 Y4.11
X32.967 Y4.059
X33.008 Y4.029
X33.053 Y4.006
X33.1 Y3.99
X33.147 Y3.98
X33.193 Y3.978
X33.24 Y3.983
X33.286 Y3.995
X33.312 Y4.006
X33.379 Y4.046
X33.459 Y4.099
G3 X33.594 Y4.314 I-0.172 J0.258
G2 X33.827 Y4.572 I0.307 J-0.043
G1 X33.977 Y4.608
X38.254 Y5.659
G2 X38.622 Y5.457 I0.074 J-0.301
G3 X39.335 Y3.908 I7.503 J2.519
G1 X39.452 Y3.727
X39.511 Y3.635
X39.789 Y3.187
X39.914 Y2.985
X40.161 Y2.587
X40.258 Y2.428
X41.207 Y0.85
X41.236 Y0.799
G3 X41.654 Y0.695 I0.263 J0.165
G1 X41.692 Y0.733 Z-1.308
X41.729 Y0.769 Z-1.293
X41.764 Y0.804 Z-1.27
X41.779 Y0.853 Z-1.232
X41.792 Y0.894 Z-1.184
X41.801 Y0.924 Z-1.128
X41.807 Y0.943 Z-1.067
X41.808 Y0.949 Z-1.003
G0 Z5
X29.907 Y5.267
Z-0.596
G1 Z-0.906 F1000
X29.914 Y5.263 Z-0.975
X29.933 Y5.25 Z-1.04
X29.964 Y5.23 Z-1.099
X30.005 Y5.203 Z-1.148
X30.054 Y5.171 Z-1.185
X30.109 Y5.135 Z-1.208
X30.167 Y5.097 Z-1.216
G3 X31.78 Y4.545 I1.885 J2.872
G1 X31.8 Y4.544
X31.893 Y4.533
X31.986 Y4.517
X32.079 Y4.494
X32.158 Y4.47
X32.171 Y4.465
X32.264 Y4.431
X32.357 Y4.385
X32.45 Y4.336
X32.536 Y4.284
X32.543 Y4.279
X32.636 Y4.21
X32.66 Y4.191
X32.761 Y4.099
X32.822 Y4.035
X32.849 Y4.006
X32.882 Y3.976
X32.915 Y3.953
X32.961 Y3.93
X33.008 Y3.916
X33.02 Y3.913
X33.06 Y3.908
X33.1 Y3.909
X33.129 Y3.913
X33.161 Y3.92
X33.193 Y3.932
X33.24 Y3.954
X33.286 Y3.984
X33.319 Y4.006
G3 X33.135 Y4.568 I-0.181 J0.252
G1 X33.066 Y4.567 Z-1.208
X33 Y4.566 Z-1.185
X32.941 Y4.565 Z-1.148
X32.892 Y4.564 Z-1.099
X32.855 Z-1.04
X32.832 Z-0.975
X32.825 Y4.563 Z-0.906
G0 Z5
X40.136 Y4.865
Z-0.596
G1 Z-0.906 F1000
X40.135 Y4.857 Z-0.975
X40.131 Y4.835 Z-1.04
X40.125 Y4.798 Z-1.099
X40.118 Y4.75 Z-1.148
X40.108 Y4.692 Z-1.185
X40.098 Y4.627 Z-1.208
X40.087 Y4.559 Z-1.216
G3 X40.001 Y2.856 I7.815 J-1.248
G1 X40.002 Y2.845
X40.005 Y2.834
X40.011 Y2.823
G3 X40.431 Y2.731 I0.258 J0.172
G1 X40.468 Y2.77 Z-1.211
X40.504 Y2.808 Z-1.197
X40.538 Y2.843 Z-1.174
X40.552 Y2.893 Z-1.135
X40.563 Y2.934 Z-1.087
X40.571 Y2.964 Z-1.031
X40.577 Y2.983 Z-0.97
X40.578 Y2.99 Z-0.906
G0 Z5
X29.794 Y5.355
Z-0.508
G1 Z-0.818 F1000
X29.8 Y5.35 Z-0.887
X29.818 Y5.337 Z-0.952
X29.848 Y5.315 Z-1.011
X29.888 Y5.286 Z-1.06
X29.936 Y5.252 Z-1.097
X29.989 Y5.213 Z-1.12
X30.044 Y5.173 Z-1.128
G3 X31.63 Y4.545 I2.018 J2.78
G1 X31.707 Y4.538
X31.8 Y4.524
X31.893 Y4.503
X31.986 Y4.475
X32.079 Y4.445
X32.171 Y4.402
X32.264 Y4.357
X32.357 Y4.301
X32.383 Y4.284
X32.45 Y4.238
X32.609 Y4.099
X32.636 Y4.074
X32.729 Y3.968
X32.784 Y3.913
X32.822 Y3.886
X32.868 Y3.864
X32.915 Y3.85
X32.961 Y3.843
X33.008 Y3.844
X33.054 Y3.851
X33.1 Y3.867
X33.14 Y3.887
X33.193 Y3.922
G3 X33.329 Y4.137 I-0.172 J0.258
G2 X33.555 Y4.393 I0.307 J-0.043
G1 X33.711 Y4.435
X38.246 Y5.65
G2 X38.621 Y5.449 I0.08 J-0.299
G3 X39.334 Y3.9 I7.504 J2.516
G1 X39.445 Y3.727
X39.51 Y3.624
X39.735 Y3.263
X39.975 Y2.875
X40.079 Y2.706
X40.136 Y2.614
X41.196 Y0.85
X41.226 Y0.799
G3 X41.644 Y0.697 I0.262 J0.166
G1 X41.682 Y0.735 Z-1.123
X41.719 Y0.771 Z-1.108
X41.754 Y0.805 Z-1.085
X41.769 Y0.855 Z-1.047
X41.781 Y0.896 Z-0.999
X41.79 Y0.926 Z-0.943
X41.796 Y0.945 Z-0.882
X41.798 Y0.951 Z-0.818
G0 Z5
X29.629 Y5.305
Z-0.423
G1 Z-0.733 F1000
X29.636 Y5.301 Z-0.802
X29.654 Y5.288 Z-0.868
X29.685 Y5.267 Z-0.926
X29.725 Y5.239 Z-0.975
X29.774 Y5.206 Z-1.012
X29.828 Y5.169 Z-1.035
X29.885 Y5.13 Z-1.043
G3 X31.486 Y4.545 I1.942 J2.834
G1 X31.521 Y4.543
X31.614 Y4.531
X31.707 Y4.514
X31.8 Y4.49
X31.893 Y4.461
X31.986 Y4.422
X32.079 Y4.379
X32.24 Y4.284
X32.264 Y4.269
X32.36 Y4.191
X32.45 Y4.116
X32.468 Y4.099
X32.549 Y4.006
X32.627 Y3.913
X32.636 Y3.901
X32.656 Y3.877
X32.682 Y3.853
X32.705 Y3.835
X32.729 Y3.82
X32.775 Y3.798
X32.822 Y3.785
X32.868 Y3.779
X32.915 Y3.78
X32.961 Y3.788
X33.008 Y3.804
X33.039 Y3.82
X33.1 Y3.86
G3 X32.916 Y4.422 I-0.181 J0.252
G1 X32.847 Y4.421 Z-1.035
X32.781 Y4.42 Z-1.012
X32.722 Y4.419 Z-0.975
X32.673 Z-0.926
X32.636 Y4.418 Z-0.868
X32.613 Z-0.802
X32.606 Z-0.733
G0 Z5
X40.138 Y4.854
Z-0.423
G1 Z-0.733 F1000
X40.137 Y4.846 Z-0.802
X40.133 Y4.823 Z-0.868
X40.127 Y4.787 Z-0.926
X40.119 Y4.738 Z-0.975
X40.11 Y4.68 Z-1.012
X40.1 Y4.616 Z-1.035
X40.089 Y4.548 Z-1.043
G3 X40.001 Y2.845 I7.814 J-1.255
G1 X40.002 Y2.833
X40.005 Y2.822
X40.011 Y2.812
G3 X40.43 Y2.718 I0.259 J0.171
G1 X40.468 Y2.756 Z-1.038
X40.504 Y2.794 Z-1.024
X40.538 Y2.829 Z-1.001
X40.552 Y2.878 Z-0.962
X40.563 Y2.919 Z-0.914
X40.572 Y2.95 Z-0.859
X40.577 Y2.969 Z-0.797
X40.579 Y2.975 Z-0.734
G0 Z5
X36.396 Y5.37
Z-2.292
G1 Z-2.602 F1000
X36.402 Y5.366 Z-2.671
X36.421 Y5.352 Z-2.736
X36.451 Y5.33 Z-2.795
X36.49 Y5.301 Z-2.844
X36.537 Y5.266 Z-2.881
X36.59 Y5.227 Z-2.904
X36.645 Y5.186 Z-2.912
G3 X38.225 Y4.545 I2.042 J2.763
G1 X38.303 Y4.537
X38.396 Y4.525
X38.488 Y4.504
X38.581 Y4.48
X38.616 Y4.47
X38.674 Y4.449
X38.767 Y4.41
X38.829 Y4.377
X38.953 Y4.309
X38.993 Y4.284
X39.046 Y4.245
X39.139 Y4.172
X39.218 Y4.099
X39.232 Y4.085
X39.303 Y4.006
X39.325 Y3.981
X39.378 Y3.913
X39.417 Y3.852
X39.51 Y3.71
X40.321 Y2.428
X40.378 Y2.335
X41.24 Y0.943
X41.275 Y0.884
X41.325 Y0.799
X41.587 Y0.654 Z-2.91
X41.833 Y0.775 Z-2.908
X41.877 Y0.982 Z-2.904
X41.889 Y1.036 Z-2.903
X41.09 Y3.165 Z-2.838
X41.088 Y3.171
X41.068 Y3.218 Z-2.837
X41.044 Y3.263 Z-2.835
X40.997 Y3.331 Z-2.833
X40.976 Y3.356 Z-2.832
X40.941 Y3.391 Z-2.831
X40.904 Y3.422 Z-2.83
X40.867 Y3.449 Z-2.828
X40.811 Y3.481 Z-2.827
X40.765 Y3.501 Z-2.826
X40.718 Y3.517 Z-2.825
X40.672 Y3.529 Z-2.824
X40.625 Y3.536 Z-2.823
X40.532 Y3.539 Z-2.821
X40.439 Y3.526 Z-2.819
X40.392 Y3.514 Z-2.818
X40.346 Y3.497 Z-2.817
X40.3 Y3.475
X40.255 Y3.449 Z-2.816
X40.009 Y3.078 Z-2.812
X40.001 Y2.946
X40.002 Y2.935
X40.005 Y2.924
X40.01 Y2.914
G3 X40.432 Y2.827 I0.256 J0.175
G1 X40.468 Y2.866 Z-2.807
X40.504 Y2.904 Z-2.792
X40.538 Y2.939 Z-2.769
X40.551 Y2.989 Z-2.731
X40.562 Y3.03 Z-2.683
X40.57 Y3.061 Z-2.627
X40.575 Y3.08 Z-2.566
X40.577 Y3.086 Z-2.502
G0 Z5
X38.546 Y5.749
Z-2.092
G1 Z-2.402 F1000
X38.549 Y5.742 Z-2.471
X38.556 Y5.72 Z-2.536
X38.568 Y5.685 Z-2.595
X38.584 Y5.639 Z-2.644
X38.603 Y5.583 Z-2.681
X38.625 Y5.521 Z-2.704
X38.647 Y5.456 Z-2.712
G3 X39.372 Y3.913 I7.484 J2.574
G1 X39.433 Y3.82
X39.51 Y3.701
X40.161 Y2.673
X40.198 Y2.614
X40.346 Y2.374
X41.117 Y1.129
X41.229 Y0.943
X41.284 Y0.85
X41.313 Y0.799
G3 X41.731 Y0.696 I0.263 J0.165
G1 X41.769 Y0.733 Z-2.707
X41.806 Y0.77 Z-2.692
X41.841 Y0.804 Z-2.669
X41.856 Y0.853 Z-2.631
X41.869 Y0.894 Z-2.583
X41.878 Y0.924 Z-2.527
X41.884 Y0.943 Z-2.466
X41.886 Y0.949 Z-2.402
G0 Z5
X32.307 Y5.323
Z-1.992
G1 Z-2.302 F1000
X32.313 Y5.318 Z-2.371
X32.332 Y5.305 Z-2.436
X32.362 Y5.284 Z-2.495
X32.402 Y5.256 Z-2.544
X32.45 Y5.222 Z-2.581
X32.504 Y5.185 Z-2.604
X32.561 Y5.145 Z-2.612
G3 X34.156 Y4.545 I1.97 J2.815
G1 X34.215 Y4.54
X34.308 Y4.53
X34.355
X34.362 Y4.531
G3 X34.579 Y4.664 I-0.039 J0.308
G2 X34.822 Y4.799 I0.256 J-0.175
G1 X35.057 Y4.808
X39.766 Y4.999
G2 X40.085 Y4.641 I0.013 J-0.31
G3 X40.001 Y2.938 I7.817 J-1.236
G1 X40.002 Y2.926
X40.005 Y2.916
X40.01 Y2.906
G3 X40.432 Y2.818 I0.256 J0.175
G1 X40.468 Y2.857 Z-2.607
X40.504 Y2.895 Z-2.592
X40.538 Y2.93 Z-2.569
X40.551 Y2.98 Z-2.531
X40.562 Y3.021 Z-2.483
X40.57 Y3.052 Z-2.427
X40.575 Y3.071 Z-2.366
X40.577 Y3.078 Z-2.302
G0 Z5
X32.141 Y5.314
Z-1.892
G1 Z-2.202 F1000
X32.148 Y5.31 Z-2.271
X32.166 Y5.297 Z-2.336
X32.197 Y5.276 Z-2.395
X32.237 Y5.248 Z-2.444
X32.285 Y5.214 Z-2.481
X32.339 Y5.177 Z-2.504
X32.396 Y5.137 Z-2.512
G3 X33.995 Y4.544 I1.957 J2.824
G1 X34.029 Y4.542
X34.122 Y4.53
X34.215 Y4.516
X34.262
X34.308 Y4.521
X34.324 Y4.524
G3 X34.536 Y4.663 I-0.049 J0.306
G1 X34.572 Y4.71
X34.617 Y4.749
X34.668 Y4.778
X34.724 Y4.798
X35.003 Y4.865
X38.277 Y5.658
G2 X38.643 Y5.457 I0.073 J-0.301
G3 X39.367 Y3.913 I7.486 J2.567
G1 X39.428 Y3.82
X39.488 Y3.727
X39.51 Y3.693
X40.016 Y2.892
X40.075 Y2.799
X40.19 Y2.614
X40.439 Y2.212
X40.937 Y1.407
X40.997 Y1.311
X41.051 Y1.222
X41.218 Y0.943
X41.275 Y0.846
X41.303 Y0.797
G3 X41.721 Y0.693 I0.263 J0.165
G1 X41.759 Y0.731 Z-2.507
X41.796 Y0.768 Z-2.492
X41.831 Y0.802 Z-2.469
X41.846 Y0.851 Z-2.431
X41.859 Y0.892 Z-2.383
X41.868 Y0.922 Z-2.327
X41.874 Y0.941 Z-2.266
X41.876 Y0.947 Z-2.202
G0 Z5
X31.953 Y5.295
Z-1.792
G1 Z-2.102 F1000
X31.96 Y5.291 Z-2.171
X31.979 Y5.278 Z-2.236
X32.009 Y5.257 Z-2.295
X32.05 Y5.23 Z-2.344
X32.098 Y5.197 Z-2.381
X32.153 Y5.16 Z-2.404
X32.21 Y5.121 Z-2.412
G3 X33.814 Y4.545 I1.927 J2.844
G1 X33.844 Y4.543
X33.937 Y4.532
X34.029 Y4.515
X34.122 Y4.497
X34.169 Y4.495
X34.215 Y4.501
X34.243 Y4.507
G3 X34.448 Y4.658 I-0.066 J0.303
G2 X34.707 Y4.815 I0.27 J-0.152
G1 X34.914 Y4.822
X39.769 Y4.99
G2 X40.085 Y4.631 I0.011 J-0.31
G3 X40.001 Y2.928 I7.816 J-1.24
G1 X40.002 Y2.917
X40.005 Y2.906
X40.01 Y2.896
G3 X40.431 Y2.807 I0.257 J0.174
G1 X40.468 Y2.846 Z-2.407
X40.504 Y2.884 Z-2.392
X40.538 Y2.919 Z-2.369
X40.551 Y2.969 Z-2.331
X40.562 Y3.01 Z-2.283
X40.57 Y3.041 Z-2.227
X40.575 Y3.06 Z-2.166
X40.577 Y3.066 Z-2.102
G0 Z5
X31.836 Y5.386
Z-1.692
G1 Z-2.002 F1000
X31.842 Y5.382 Z-2.071
X31.861 Y5.368 Z-2.136
X31.89 Y5.346 Z-2.195
X31.929 Y5.316 Z-2.244
X31.976 Y5.281 Z-2.281
X32.029 Y5.241 Z-2.304
X32.084 Y5.2 Z-2.312
G3 X33.658 Y4.544 I2.066 J2.745
G1 X33.751 Y4.534
X33.844 Y4.518
X33.937 Y4.497
X34.029 Y4.476
X34.076 Y4.472
X34.122 Y4.476
X34.173 Y4.489
G3 X34.372 Y4.647 I-0.076 J0.3
G2 X34.578 Y4.807 I0.275 J-0.142
G1 X34.826 Y4.864
X38.276 Y5.659
G2 X38.639 Y5.457 I0.07 J-0.302
G3 X39.361 Y3.913 I7.488 J2.561
G1 X39.422 Y3.82
X39.482 Y3.727
X39.51 Y3.684
X39.894 Y3.078
X39.952 Y2.985
X40.183 Y2.614
X40.814 Y1.593
X40.871 Y1.5
X40.997 Y1.293
X41.207 Y0.943
X41.262 Y0.85
X41.275 Y0.827
G3 X41.693 Y0.722 I0.263 J0.165
G1 X41.731 Y0.76 Z-2.307
X41.768 Y0.796 Z-2.292
X41.803 Y0.83 Z-2.269
X41.818 Y0.88 Z-2.231
X41.831 Y0.921 Z-2.183
X41.84 Y0.951 Z-2.127
X41.846 Y0.97 Z-2.066
X41.848 Y0.976 Z-2.002
G0 Z5
X31.645 Y5.357
Z-1.592
G1 Z-1.902 F1000
X31.652 Y5.352 Z-1.971
X31.67 Y5.339 Z-2.036
X31.7 Y5.317 Z-2.095
X31.74 Y5.288 Z-2.144
X31.787 Y5.254 Z-2.181
X31.84 Y5.215 Z-2.204
X31.896 Y5.174 Z-2.212
G3 X33.481 Y4.545 I2.022 J2.778
G1 X33.565 Y4.537
X33.658 Y4.522
X33.751 Y4.501
X33.844 Y4.474
X33.897 Y4.457
X33.937 Y4.449
X33.983 Y4.446
X34.029 Y4.448
X34.072 Y4.456
X34.115 Y4.47
G3 X34.304 Y4.639 I-0.094 J0.296
G2 X34.578 Y4.823 I0.283 J-0.126
G1 X34.754 Y4.828
X39.771 Y4.979
G2 X40.087 Y4.62 I0.009 J-0.31
G3 X40.001 Y2.917 I7.816 J-1.245
G1 X40.002 Y2.906
X40.005 Y2.895
X40.01 Y2.885
G3 X40.431 Y2.794 I0.257 J0.173
G1 X40.468 Y2.833 Z-2.207
X40.504 Y2.87 Z-2.192
X40.538 Y2.906 Z-2.169
X40.551 Y2.955 Z-2.131
X40.563 Y2.997 Z-2.083
X40.571 Y3.027 Z-2.027
X40.576 Y3.046 Z-1.966
X40.578 Y3.053 Z-1.902
G0 Z5
X31.471 Y5.352
Z-1.492
G1 Z-1.802 F1000
X31.478 Y5.347 Z-1.871
X31.496 Y5.334 Z-1.936
X31.526 Y5.312 Z-1.995
X31.566 Y5.283 Z-2.044
X31.614 Y5.249 Z-2.081
X31.667 Y5.21 Z-2.104
X31.723 Y5.17 Z-2.112
G3 X33.309 Y4.545 I2.013 J2.784
G1 X33.379 Y4.539
X33.472 Y4.524
X33.565 Y4.505
X33.658 Y4.478
X33.751 Y4.447
X33.844 Y4.416
X33.89 Y4.411
X33.937 Y4.413
X33.983 Y4.422
X34.029 Y4.439
X34.081 Y4.455
G3 X34.269 Y4.626 I-0.096 J0.295
G2 X34.484 Y4.805 I0.284 J-0.124
G1 X34.712 Y4.856
X38.273 Y5.66
G2 X38.634 Y5.458 I0.068 J-0.302
G3 X39.356 Y3.913 I7.49 J2.557
G1 X39.417 Y3.819
X39.477 Y3.727
X39.51 Y3.675
X39.771 Y3.263
X39.887 Y3.078
X40.068 Y2.787
X40.254 Y2.487
X40.692 Y1.778
X40.811 Y1.583
X41.196 Y0.943
X41.251 Y0.85
X41.275 Y0.808
G3 X41.693 Y0.703 I0.263 J0.164
G1 X41.731 Y0.74 Z-2.107
X41.768 Y0.777 Z-2.092
X41.803 Y0.811 Z-2.069
X41.818 Y0.86 Z-2.031
X41.831 Y0.901 Z-1.983
X41.84 Y0.931 Z-1.927
X41.846 Y0.95 Z-1.866
X41.848 Y0.956 Z-1.802
G0 Z5
X31.289 Y5.332
Z-1.392
G1 Z-1.702 F1000
X31.295 Y5.328 Z-1.771
X31.314 Y5.314 Z-1.836
X31.344 Y5.293 Z-1.895
X31.384 Y5.265 Z-1.944
X31.432 Y5.231 Z-1.981
X31.485 Y5.193 Z-2.004
X31.542 Y5.153 Z-2.012
G3 X33.134 Y4.545 I1.984 J2.805
G1 X33.193 Y4.54
X33.286 Y4.527
X33.379 Y4.508
X33.472 Y4.482
X33.565 Y4.451
X33.658 Y4.415
X33.704 Y4.395
X33.751 Y4.381
X33.776 Y4.377
X33.81 Y4.374
X33.844 Y4.375
X33.858 Y4.377
X33.897 Y4.385
X33.937 Y4.398
X33.965 Y4.41
G3 X34.137 Y4.597 I-0.122 J0.285
G2 X34.422 Y4.809 I0.294 J-0.098
G1 X34.567 Y4.813
X39.772 Y4.967
G2 X40.087 Y4.608 I0.009 J-0.31
G3 X40.001 Y2.905 I7.815 J-1.246
G1 X40.002 Y2.894
X40.005 Y2.883
X40.01 Y2.873
X40.027 Y2.859
X40.049 Y2.857
X40.068 Y2.868
X40.078 Y2.887
X40.076 Y2.909
X40.056 Y2.943
X40.026 Y2.97
X39.991 Y2.987
X39.952 Y2.994
X39.935
G3 X40.356 Y2.904 I0.257 J0.173
G1 X40.393 Y2.942 Z-2.007
X40.429 Y2.98 Z-1.992
X40.462 Y3.015 Z-1.969
X40.476 Y3.065 Z-1.931
X40.487 Y3.106 Z-1.883
X40.495 Y3.137 Z-1.827
X40.501 Y3.156 Z-1.766
X40.502 Y3.162 Z-1.702
G0 Z5
X36.395 Y5.368
Z-2.38
G1 Z-2.69 F1000
X36.401 Y5.363 Z-2.759
X36.42 Y5.349 Z-2.824
X36.449 Y5.327 Z-2.883
X36.489 Y5.298 Z-2.932
X36.536 Y5.263 Z-2.969
X36.589 Y5.225 Z-2.992
X36.644 Y5.184 Z-3
G3 X38.225 Y4.545 I2.038 J2.766
G1 X38.303 Y4.537
X38.396 Y4.525
X38.488 Y4.504
X38.581 Y4.481
X38.618 Y4.47
X38.674 Y4.45
X38.767 Y4.411
X38.832 Y4.377
X38.953 Y4.311
X38.995 Y4.284
X39.046 Y4.247
X39.139 Y4.175
X39.232 Y4.088
X39.306 Y4.006
X39.325 Y3.984
X39.38 Y3.913
X39.417 Y3.856
X39.51 Y3.714
X40.346 Y2.391
X40.382 Y2.335
X40.625 Y1.942
X41.243 Y0.943
X41.275 Y0.89
X41.329 Y0.799
G3 X41.9 Y0.953 I0.262 J0.166
G1 X41.903 Y1.022 Z-2.992
X41.906 Y1.087 Z-2.969
X41.908 Y1.146 Z-2.932
X41.91 Y1.195 Z-2.883
X41.912 Y1.232 Z-2.824
X41.913 Y1.255 Z-2.759
Y1.263 Z-2.69
G0 Z10
M5
M30
