(1001)
(Poot4)
(T1  D=3.1 CR=0 - ZMIN=-3 - flat end mill)
G90 G94
G17
G21

(Adaptive4 4)
S10000 M3
G54
G0 Z10
G0 X42.119 Y4.679
G1 Z-0.69 F1000
X42.117 Y4.672 Z-0.759
X42.11 Y4.65 Z-0.825
X42.099 Y4.614 Z-0.883
X42.085 Y4.567 Z-0.932
X42.068 Y4.511 Z-0.969
X42.049 Y4.448 Z-0.992
X42.029 Y4.382 Z-1
G3 X41.715 Y2.706 I7.577 J-2.286
G1 X41.712 Y2.614
X41.706 Y2.575
X41.682 Y2.428
X41.629 Y2.242
X41.613 Y2.199
X41.592 Y2.15
X41.548 Y2.057
X41.493 Y1.964
X41.438 Y1.871
X41.244 Y1.593
X41.141 Y1.428
X41.009 Y1.174
X40.87 Y0.925
X40.679 Y0.712
X40.633 Y0.674
X40.582 Y0.63
X40.536 Y0.581
X40.495 Y0.528
G3 X41.008 Y0.18 I0.26 J-0.169
G1 X41.745 Y1.229
G3 X41.244 Y1.593 I-0.254 J0.178
G1 X41.148 Y1.455
X40.853 Y1.036
X40.218 Y0.134
X39.937 Y-0.263
X39.544 Y-0.82
X39.507 Y-0.871
X39.479 Y-0.925 Z-0.999
X39.461 Y-0.982
X39.455 Y-1.043 Z-0.998
X39.588 Y-1.284 Z-0.988
X39.896 Z-0.97
X39.903 Y-1.266 Z-0.969
X40.047 Y-0.913 Z-0.943
X40.068 Y-0.746 Z-0.935
X40.167 Y0.033 Z-0.9
Y0.062
X40.139 Y0.009 Z-0.897
X40.122 Y-0.049 Z-0.894
X40.116 Y-0.108 Z-0.891
X40.311 Y-0.586 Z-0.817
X40.282 Y-0.598 Z-0.814
X40.192 Y-0.635 Z-0.804
X40.127 Y-0.535 Z-0.8
G3 X40.167 Y0.033 I-7.87 J0.839
G1 Y0.062
X40.139 Y0.009 Z-0.797
X40.122 Y-0.048 Z-0.794
X40.116 Y-0.108 Z-0.791
X40.311 Y-0.587 Z-0.717
X40.282 Y-0.598 Z-0.714
X40.192 Y-0.635 Z-0.704
X40.127 Y-0.535 Z-0.7
G3 X40.167 Y0.033 I-7.87 J0.839
G1 Y0.062
X40.139 Y0.009 Z-0.697
X40.122 Y-0.048 Z-0.694
X40.116 Y-0.108 Z-0.691
X40.311 Y-0.587 Z-0.617
X40.282 Y-0.599 Z-0.614
X40.192 Y-0.635 Z-0.604
X40.127 Y-0.535 Z-0.6
G3 X40.167 Y0.033 I-7.87 J0.839
G1 Y0.062
X40.139 Y0.009 Z-0.597
X40.122 Y-0.048 Z-0.594
X40.116 Y-0.108 Z-0.591
X40.311 Y-0.587 Z-0.517
X40.282 Y-0.598 Z-0.514
X40.192 Y-0.635 Z-0.504
X40.127 Y-0.535 Z-0.5
G3 X40.167 Y0.033 I-7.87 J0.839
G1 Y0.062
X40.139 Y0.009 Z-0.497
X40.122 Y-0.048 Z-0.494
X40.116 Y-0.108 Z-0.491
X40.311 Y-0.586 Z-0.417
X40.282 Y-0.598 Z-0.414
X40.193 Y-0.635 Z-0.404
X40.127 Y-0.535 Z-0.4
G3 X40.167 Y0.033 I-7.87 J0.839
G1 Y0.062
X40.139 Y0.009 Z-0.397
X40.122 Y-0.048 Z-0.394
X40.116 Y-0.107 Z-0.391
X40.311 Y-0.586 Z-0.317
X40.282 Y-0.598 Z-0.314
X40.193 Y-0.635 Z-0.304
X40.127 Y-0.535 Z-0.3
G3 X40.167 Y0.033 I-7.87 J0.839
G1 Y0.063
X40.139 Y0.01 Z-0.297
X40.122 Y-0.048 Z-0.294
X40.116 Y-0.107 Z-0.291
X40.311 Y-0.586 Z-0.217
X40.282 Y-0.598 Z-0.214
X40.193 Y-0.635 Z-0.204
X40.127 Y-0.535 Z-0.2
G3 X40.167 Y0.033 I-7.87 J0.839
G1 Y0.063
X40.139 Y0.01 Z-0.197
X40.122 Y-0.047 Z-0.194
X40.116 Y-0.107 Z-0.191
X40.311 Y-0.586 Z-0.117
X40.282 Y-0.598 Z-0.114
X40.194 Y-0.635 Z-0.104
X40.127 Y-0.534 Z-0.1
G3 X40.167 Y0.033 I-7.87 J0.839
G1 Y0.063
G3 X40.247 Y-0.36 I0.259 J-0.17
G1 X40.297 Y-0.379 Z-0.095
X40.346 Y-0.397 Z-0.081
X40.391 Y-0.415 Z-0.058
X40.426 Y-0.417 Z-0.034
X40.475 Y-0.407 Z0.015
X40.512 Y-0.4 Z0.074
X40.534 Y-0.396 Z0.14
X40.542 Y-0.394 Z0.21
G0 Z5
X42.113 Y4.672
Z-1.38
G1 Z-1.69 F1000
X42.111 Y4.664 Z-1.759
X42.104 Y4.642 Z-1.825
X42.094 Y4.607 Z-1.883
X42.08 Y4.56 Z-1.932
X42.063 Y4.504 Z-1.969
X42.044 Y4.441 Z-1.992
X42.024 Y4.375 Z-2
G3 X41.715 Y2.698 I7.584 J-2.264
G1 X41.712 Y2.614
X41.706 Y2.57
X41.684 Y2.428
X41.632 Y2.242
X41.613 Y2.193
X41.595 Y2.15
X41.551 Y2.057
X41.497 Y1.964
X41.442 Y1.871
X41.427 Y1.85
X41.246 Y1.593
X41.146 Y1.435
X41.014 Y1.182
X40.876 Y0.932
X40.687 Y0.718
X40.63 Y0.671
X40.581 Y0.628
X40.536 Y0.579
X40.495 Y0.527
G3 X41.008 Y0.179 I0.259 J-0.17
G1 X41.747 Y1.227
G3 X41.246 Y1.593 I-0.253 J0.179
G1 X40.854 Y1.036
X40.032 Y-0.129
X39.544 Y-0.82
X39.507 Y-0.871
G3 X39.585 Y-1.294 I0.258 J-0.171
G1 X39.635 Y-1.314 Z-1.995
X39.683 Y-1.333 Z-1.981
X39.729 Y-1.35 Z-1.958
X39.765 Y-1.353 Z-1.933
X39.814 Y-1.343 Z-1.883
X39.85 Y-1.336 Z-1.825
X39.872 Y-1.332 Z-1.759
X39.88 Y-1.331 Z-1.69
G0 Z5
X42.111 Y4.664
Z-2.38
G1 Z-2.69 F1000
X42.109 Y4.657 Z-2.759
X42.102 Y4.635 Z-2.824
X42.092 Y4.6 Z-2.883
X42.078 Y4.553 Z-2.932
X42.061 Y4.496 Z-2.969
X42.042 Y4.433 Z-2.992
X42.023 Y4.367 Z-3
G3 X41.715 Y2.69 I7.586 J-2.257
G1 X41.712 Y2.614
X41.706 Y2.568
X41.684 Y2.428
X41.632 Y2.242
X41.613 Y2.191
X41.596 Y2.15
X41.552 Y2.057
X41.498 Y1.964
X41.443 Y1.871
X41.427 Y1.848
X41.247 Y1.593
X41.148 Y1.436
X41.015 Y1.183
X40.878 Y0.933
X40.689 Y0.719
X40.629 Y0.67
X40.58 Y0.626
X40.535 Y0.578
X40.495 Y0.526
G3 X41.007 Y0.178 I0.259 J-0.17
G1 X41.747 Y1.227
G3 X41.247 Y1.593 I-0.253 J0.179
G1 X40.032 Y-0.129
X39.544 Y-0.82
X39.507 Y-0.871
G3 X39.88 Y-1.331 I0.258 J-0.171
G1 X39.944 Y-1.305 Z-2.992
X40.005 Y-1.281 Z-2.969
X40.059 Y-1.26 Z-2.932
X40.105 Y-1.241 Z-2.883
X40.139 Y-1.228 Z-2.824
X40.161 Y-1.219 Z-2.759
X40.168 Y-1.217 Z-2.69
G0 Z10
M5
M30
